; generated by PrusaSlicer 2.2.0+win64 on 2021-01-29 at 18:26:42 UTC

; 

; external perimeters extrusion width = 0.45mm
; perimeters extrusion width = 0.45mm
; infill extrusion width = 0.45mm
; solid infill extrusion width = 0.45mm
; top infill extrusion width = 0.40mm
; support material extrusion width = 0.35mm
; first layer extrusion width = 0.42mm

M73 P0 R25
M73 Q0 S25
M201 X1000 Y1000 Z1000 E5000 ; sets maximum accelerations, mm/sec^2
M203 X200 Y200 Z12 E120 ; sets maximum feedrates, mm/sec
M204 P1250 R1250 T1250 ; sets acceleration (P, T) and retract acceleration (R), mm/sec^2
M205 X8.00 Y8.00 Z0.40 E1.50 ; sets the jerk limits, mm/sec
M205 S0 T0 ; sets the minimum extruding and travel feed rate, mm/sec
M107
M862.3 P "MK3S" ; printer model check
M862.1 P0.4 ; nozzle diameter check
M115 U3.8.1 ; tell printer latest fw version
G90 ; use absolute coordinates
M83 ; extruder relative mode
M104 S215 ; set extruder temp
M140 S75 ; set bed temp
M190 S75 ; wait for bed temp
M109 S215 ; wait for extruder temp
G28 W ; home all without mesh bed level
G80 ; mesh bed leveling
;G1 Y-3.0 F1000.0 ; go outside print area
;G92 E0.0
;G1 X60.0 E9.0 F1000.0 ; intro line
;G1 X100.0 E12.5 F1000.0 ; intro line
G92 E0.0
M221 S95
G21 ; set units to millimeters
G90 ; use absolute coordinates
M83 ; use relative distances for extrusion
M900 K30 ; Filament gcode
;BEFORE_LAYER_CHANGE
G92 E0.0
;0.2


G1 Z0.200 F10800.000
;AFTER_LAYER_CHANGE
;0.2
G1 X7.868 Y8.050
M204 S1000
G1 F1200.000
G1 X22.448 Y8.050 E0.45715
M73 Q0 S25
M73 P0 R25
G1 X22.448 Y22.630 E0.45715
G1 X7.868 Y22.630 E0.45715
G1 X7.868 Y8.110 E0.45526
G1 X8.254 Y8.154 F10800.000
G1 X8.245 Y8.427
G1 F1200.000
G1 X22.071 Y8.427 E0.43350
G1 X22.071 Y22.253 E0.43350
G1 X8.245 Y22.253 E0.43350
G1 X8.245 Y8.487 E0.43162
G1 X8.622 Y8.804 F10800.000
G1 F1200.000
G1 X21.694 Y8.804 E0.40985
G1 X21.694 Y21.876 E0.40985
G1 X8.622 Y21.876 E0.40985
G1 X8.622 Y8.864 E0.40797
G1 X8.999 Y9.182 F10800.000
G1 F1200.000
G1 X21.317 Y9.182 E0.38621
G1 X21.317 Y21.499 E0.38621
G1 X8.999 Y21.499 E0.38621
G1 X8.999 Y9.242 E0.38433
G1 X9.376 Y9.559 F10800.000
G1 F1200.000
G1 X20.940 Y9.559 E0.36256
G1 X20.940 Y21.122 E0.36256
G1 X9.376 Y21.122 E0.36256
G1 X9.376 Y9.619 E0.36068
G1 X20.883 Y10.379 F10800.000
G1 F1200.000
G1 X20.289 Y9.785 E0.02640
G1 X19.755 Y9.785 E0.01679
G1 X20.714 Y10.744 E0.04260
G1 X20.714 Y11.278 E0.01679
G1 X19.220 Y9.785 E0.06634
G1 X18.686 Y9.785 E0.01679
G1 X20.714 Y11.812 E0.09008
G1 X20.714 Y12.347 E0.01679
G1 X18.152 Y9.785 E0.11382
G1 X17.617 Y9.785 E0.01679
G1 X20.714 Y12.881 E0.13756
G1 X20.714 Y13.415 E0.01679
G1 X17.083 Y9.785 E0.16130
G1 X16.549 Y9.785 E0.01679
G1 X20.714 Y13.950 E0.18504
G1 X20.714 Y14.484 E0.01679
G1 X16.014 Y9.785 E0.20878
G1 X15.480 Y9.785 E0.01679
G1 X20.714 Y15.018 E0.23252
G1 X20.714 Y15.553 E0.01679
G1 X14.946 Y9.785 E0.25626
G1 X14.411 Y9.785 E0.01679
G1 X20.714 Y16.087 E0.27999
G1 X20.714 Y16.621 E0.01679
G1 X13.877 Y9.785 E0.30373
G1 X13.343 Y9.785 E0.01679
G1 X20.714 Y17.156 E0.32747
G1 X20.714 Y17.690 E0.01679
G1 X12.808 Y9.785 E0.35121
G1 X12.274 Y9.785 E0.01679
G1 X20.714 Y18.224 E0.37495
G1 X20.714 Y18.759 E0.01679
G1 X11.740 Y9.785 E0.39869
G1 X11.206 Y9.785 E0.01679
G1 X20.714 Y19.293 E0.42243
G1 X20.714 Y19.827 E0.01679
G1 X10.671 Y9.785 E0.44617
G1 X10.137 Y9.785 E0.01679
G1 X20.714 Y20.361 E0.46991
G1 X20.713 Y20.896 E0.01678
G1 X9.603 Y9.785 E0.49365
G1 X9.603 Y10.319 E0.01679
G1 X20.179 Y20.896 E0.46991
G1 X19.645 Y20.896 E0.01679
G1 X9.603 Y10.854 E0.44617
G1 X9.603 Y11.388 E0.01679
G1 X19.110 Y20.896 E0.42243
G1 X18.576 Y20.896 E0.01679
G1 X9.603 Y11.922 E0.39869
G1 X9.603 Y12.457 E0.01679
G1 X18.042 Y20.896 E0.37495
G1 X17.507 Y20.896 E0.01679
G1 X9.603 Y12.991 E0.35121
G1 X9.603 Y13.525 E0.01679
G1 X16.973 Y20.896 E0.32747
G1 X16.439 Y20.896 E0.01679
G1 X9.603 Y14.060 E0.30373
G1 X9.603 Y14.594 E0.01679
G1 X15.905 Y20.896 E0.27999
G1 X15.370 Y20.896 E0.01679
G1 X9.603 Y15.128 E0.25625
G1 X9.603 Y15.662 E0.01679
G1 X14.836 Y20.896 E0.23251
G1 X14.302 Y20.896 E0.01679
G1 X9.603 Y16.197 E0.20877
G1 X9.603 Y16.731 E0.01679
G1 X13.767 Y20.896 E0.18503
G1 X13.233 Y20.896 E0.01679
G1 X9.603 Y17.265 E0.16129
G1 X9.603 Y17.800 E0.01679
G1 X12.699 Y20.896 E0.13755
G1 X12.164 Y20.896 E0.01679
G1 X9.603 Y18.334 E0.11381
G1 X9.603 Y18.868 E0.01679
G1 X11.630 Y20.896 E0.09007
G1 X11.096 Y20.896 E0.01679
G1 X9.603 Y19.403 E0.06633
G1 X9.603 Y19.937 E0.01679
G1 X10.561 Y20.896 E0.04259
G1 X10.027 Y20.896 E0.01679
G1 X9.433 Y20.302 E0.02639
M106 S255
;BEFORE_LAYER_CHANGE
G92 E0.0
;0.4


G1 Z0.400 F10800.000
;AFTER_LAYER_CHANGE
;0.4
M104 S210 ; set temperature
G1 X7.883 Y22.615
M204 S800
G1 F1689
G1 X7.883 Y8.065 E0.49250
G1 X22.433 Y8.065 E0.49250
G1 X22.433 Y22.615 E0.49250
G1 X7.943 Y22.615 E0.49047
M204 S1000
G1 X7.987 Y22.229 F10800.000
G1 X8.290 Y22.208
M204 S800
G1 F1689
G1 X8.290 Y8.472 E0.46494
G1 X22.026 Y8.472 E0.46494
G1 X22.026 Y22.208 E0.46494
G1 X8.350 Y22.208 E0.46291
M204 S1000
G1 X8.697 Y21.801 F10800.000
M204 S800
G1 F1689
G1 X8.697 Y8.879 E0.43738
G1 X21.619 Y8.879 E0.43738
G1 X21.619 Y21.801 E0.43738
G1 X8.757 Y21.801 E0.43535
M204 S1000
G1 X9.104 Y21.394 F10800.000
M204 S800
G1 F1689
G1 X9.104 Y9.287 E0.40983
G1 X21.212 Y9.287 E0.40983
G1 X21.212 Y21.394 E0.40983
G1 X9.164 Y21.394 E0.40779
M204 S1000
G1 X9.511 Y20.987 F10800.000
M204 S800
G1 F1689
G1 X9.511 Y9.694 E0.38227
G1 X20.805 Y9.694 E0.38227
G1 X20.805 Y20.987 E0.38227
G1 X9.571 Y20.987 E0.38024
M204 S1000
G1 X9.572 Y10.599 F10800.000
M204 S1250
G1 F1689
G1 X10.234 Y9.938 E0.03244
G1 X10.824 Y9.938 E0.02047
G1 X9.756 Y11.006 E0.05241
G1 X9.756 Y11.596 E0.02047
G1 X11.414 Y9.938 E0.08137
G1 X12.004 Y9.938 E0.02047
G1 X9.756 Y12.186 E0.11032
G1 X9.756 Y12.776 E0.02047
G1 X12.594 Y9.938 E0.13927
G1 X13.184 Y9.938 E0.02047
G1 X9.756 Y13.366 E0.16823
G1 X9.756 Y13.957 E0.02047
G1 X13.774 Y9.938 E0.19718
G1 X14.364 Y9.938 E0.02047
G1 X9.756 Y14.547 E0.22614
G1 X9.756 Y15.137 E0.02047
G1 X14.954 Y9.938 E0.25509
G1 X15.545 Y9.938 E0.02047
G1 X9.756 Y15.727 E0.28405
G1 X9.756 Y16.317 E0.02047
G1 X16.135 Y9.938 E0.31300
G1 X16.725 Y9.938 E0.02047
G1 X9.756 Y16.907 E0.34196
G1 X9.756 Y17.497 E0.02047
G1 X17.315 Y9.938 E0.37091
G1 X17.905 Y9.938 E0.02047
G1 X9.756 Y18.087 E0.39987
G1 X9.756 Y18.677 E0.02047
G1 X18.495 Y9.938 E0.42882
G1 X19.085 Y9.938 E0.02047
G1 X9.756 Y19.267 E0.45778
G1 X9.756 Y19.858 E0.02047
G1 X19.675 Y9.938 E0.48673
G1 X20.265 Y9.938 E0.02047
G1 X9.756 Y20.448 E0.51568
G1 X9.756 Y20.743 E0.01024
G1 X10.051 Y20.743 E0.01024
G1 X20.560 Y10.233 E0.51569
G1 X20.560 Y10.823 E0.02047
G1 X10.641 Y20.743 E0.48674
G1 X11.231 Y20.743 E0.02047
G1 X20.560 Y11.413 E0.45778
G1 X20.560 Y12.003 E0.02047
G1 X11.821 Y20.743 E0.42883
G1 X12.411 Y20.743 E0.02047
G1 X20.560 Y12.593 E0.39987
G1 X20.560 Y13.183 E0.02047
G1 X13.001 Y20.743 E0.37092
G1 X13.591 Y20.743 E0.02047
G1 X20.560 Y13.773 E0.34196
G1 X20.560 Y14.364 E0.02047
G1 X14.181 Y20.743 E0.31301
G1 X14.771 Y20.743 E0.02047
G1 X20.560 Y14.954 E0.28405
G1 X20.560 Y15.544 E0.02047
G1 X15.362 Y20.743 E0.25510
G1 X15.952 Y20.743 E0.02047
G1 X20.560 Y16.134 E0.22614
G1 X20.560 Y16.724 E0.02047
G1 X16.542 Y20.743 E0.19719
G1 X17.132 Y20.743 E0.02047
G1 X20.560 Y17.314 E0.16823
G1 X20.560 Y17.904 E0.02047
G1 X17.722 Y20.743 E0.13928
G1 X18.312 Y20.743 E0.02047
G1 X20.560 Y18.494 E0.11033
G1 X20.560 Y19.084 E0.02047
G1 X18.902 Y20.743 E0.08137
G1 X19.492 Y20.743 E0.02047
G1 X20.560 Y19.674 E0.05242
G1 X20.560 Y20.265 E0.02047
G1 X19.899 Y20.926 E0.03245
M204 S1000
;BEFORE_LAYER_CHANGE
G92 E0.0
;0.6


G1 Z0.600 F10800.000
;AFTER_LAYER_CHANGE
;0.6
G1 X22.433 Y22.615
M204 S800
G1 F1689
G1 X7.883 Y22.615 E0.49250
G1 X7.883 Y8.065 E0.49250
G1 X22.433 Y8.065 E0.49250
G1 X22.433 Y22.555 E0.49047
M204 S1000
G1 X22.047 Y22.512 F10800.000
G1 X22.026 Y22.208
M204 S800
G1 F1689
G1 X8.290 Y22.208 E0.46494
G1 X8.290 Y8.472 E0.46494
G1 X22.026 Y8.472 E0.46494
G1 X22.026 Y22.148 E0.46291
M204 S1000
G1 X21.619 Y21.801 F10800.000
M204 S800
G1 F1689
G1 X8.697 Y21.801 E0.43738
G1 X8.697 Y8.879 E0.43738
G1 X21.619 Y8.879 E0.43738
G1 X21.619 Y21.741 E0.43535
M204 S1000
G1 X21.212 Y21.394 F10800.000
M204 S800
G1 F1689
G1 X9.104 Y21.394 E0.40983
G1 X9.104 Y9.287 E0.40983
G1 X21.212 Y9.287 E0.40983
G1 X21.212 Y21.334 E0.40779
M73 Q4 S24
M73 P4 R24
M204 S1000
G1 X20.805 Y20.987 F10800.000
M204 S800
G1 F1689
G1 X9.511 Y20.987 E0.38227
G1 X9.511 Y9.694 E0.38227
G1 X20.805 Y9.694 E0.38227
G1 X20.805 Y20.927 E0.38024
M204 S1000
G1 X10.417 Y20.926 F10800.000
M204 S1250
G1 F1689
G1 X9.756 Y20.265 E0.03244
G1 X9.756 Y19.675 E0.02047
G1 X10.824 Y20.743 E0.05241
G1 X11.414 Y20.743 E0.02047
G1 X9.756 Y19.085 E0.08137
G1 X9.756 Y18.494 E0.02047
G1 X12.004 Y20.743 E0.11032
G1 X12.594 Y20.743 E0.02047
G1 X9.756 Y17.904 E0.13927
G1 X9.756 Y17.314 E0.02047
G1 X13.184 Y20.743 E0.16823
G1 X13.774 Y20.743 E0.02047
G1 X9.756 Y16.724 E0.19718
G1 X9.756 Y16.134 E0.02047
G1 X14.364 Y20.743 E0.22614
G1 X14.954 Y20.743 E0.02047
G1 X9.756 Y15.544 E0.25509
G1 X9.756 Y14.954 E0.02047
G1 X15.545 Y20.743 E0.28405
G1 X16.135 Y20.743 E0.02047
G1 X9.756 Y14.364 E0.31300
G1 X9.756 Y13.774 E0.02047
G1 X16.725 Y20.743 E0.34196
G1 X17.315 Y20.743 E0.02047
G1 X9.756 Y13.183 E0.37091
G1 X9.756 Y12.593 E0.02047
G1 X17.905 Y20.743 E0.39987
G1 X18.495 Y20.743 E0.02047
G1 X9.756 Y12.003 E0.42882
G1 X9.756 Y11.413 E0.02047
G1 X19.085 Y20.743 E0.45778
G1 X19.675 Y20.743 E0.02047
G1 X9.756 Y10.823 E0.48673
G1 X9.756 Y10.233 E0.02047
G1 X20.265 Y20.743 E0.51568
G1 X20.560 Y20.743 E0.01024
G1 X20.560 Y20.448 E0.01024
G1 X10.051 Y9.938 E0.51569
G1 X10.641 Y9.938 E0.02047
G1 X20.560 Y19.858 E0.48674
G1 X20.560 Y19.268 E0.02047
G1 X11.231 Y9.938 E0.45778
G1 X11.821 Y9.938 E0.02047
G1 X20.560 Y18.677 E0.42883
G1 X20.560 Y18.087 E0.02047
G1 X12.411 Y9.938 E0.39987
G1 X13.001 Y9.938 E0.02047
G1 X20.560 Y17.497 E0.37092
G1 X20.560 Y16.907 E0.02047
G1 X13.591 Y9.938 E0.34196
G1 X14.181 Y9.938 E0.02047
G1 X20.560 Y16.317 E0.31301
G1 X20.560 Y15.727 E0.02047
G1 X14.771 Y9.938 E0.28405
G1 X15.362 Y9.938 E0.02047
G1 X20.560 Y15.137 E0.25510
G1 X20.560 Y14.547 E0.02047
G1 X15.952 Y9.938 E0.22614
G1 X16.542 Y9.938 E0.02047
G1 X20.560 Y13.957 E0.19719
G1 X20.560 Y13.367 E0.02047
G1 X17.132 Y9.938 E0.16823
G1 X17.722 Y9.938 E0.02047
G1 X20.560 Y12.776 E0.13928
G1 X20.560 Y12.186 E0.02047
G1 X18.312 Y9.938 E0.11033
G1 X18.902 Y9.938 E0.02047
G1 X20.560 Y11.596 E0.08137
G1 X20.560 Y11.006 E0.02047
G1 X19.492 Y9.938 E0.05242
G1 X20.082 Y9.938 E0.02047
G1 X20.744 Y10.599 E0.03245
M204 S1000
;BEFORE_LAYER_CHANGE
G92 E0.0
;0.8


G1 Z0.800 F10800.000
;AFTER_LAYER_CHANGE
;0.8
G1 X22.433 Y8.065
M204 S800
G1 F1690
G1 X22.433 Y22.615 E0.49250
G1 X7.883 Y22.615 E0.49250
G1 X7.883 Y8.065 E0.49250
G1 X22.373 Y8.065 E0.49047
M204 S1000
G1 X22.330 Y8.452 F10800.000
G1 X22.026 Y8.472
M204 S800
G1 F1690
G1 X22.026 Y22.208 E0.46494
G1 X8.290 Y22.208 E0.46494
G1 X8.290 Y8.472 E0.46494
G1 X21.966 Y8.472 E0.46291
M204 S1000
G1 X21.619 Y8.879 F10800.000
M204 S800
G1 F1690
G1 X21.619 Y21.801 E0.43738
G1 X8.697 Y21.801 E0.43738
G1 X8.697 Y8.879 E0.43738
G1 X21.559 Y8.879 E0.43535
M204 S1000
G1 X21.212 Y9.287 F10800.000
M204 S800
G1 F1690
G1 X21.212 Y21.394 E0.40983
G1 X9.104 Y21.394 E0.40983
G1 X9.104 Y9.287 E0.40983
G1 X21.152 Y9.287 E0.40779
M204 S1000
G1 X20.805 Y9.694 F10800.000
M204 S800
G1 F1690
G1 X20.805 Y20.987 E0.38227
G1 X9.511 Y20.987 E0.38227
G1 X9.511 Y9.694 E0.38227
G1 X20.745 Y9.694 E0.38024
M204 S1000
G1 X19.899 Y20.926 F10800.000
M204 S1250
G1 F1690
G1 X20.560 Y20.265 E0.03245
G1 X20.560 Y19.674 E0.02047
G1 X19.492 Y20.743 E0.05242
G1 X18.902 Y20.743 E0.02047
G1 X20.560 Y19.084 E0.08137
G1 X20.560 Y18.494 E0.02047
G1 X18.312 Y20.743 E0.11033
G1 X17.722 Y20.743 E0.02047
G1 X20.560 Y17.904 E0.13928
G1 X20.560 Y17.314 E0.02047
G1 X17.132 Y20.743 E0.16823
G1 X16.542 Y20.743 E0.02047
G1 X20.560 Y16.724 E0.19719
G1 X20.560 Y16.134 E0.02047
G1 X15.952 Y20.743 E0.22614
G1 X15.362 Y20.743 E0.02047
G1 X20.560 Y15.544 E0.25510
G1 X20.560 Y14.954 E0.02047
G1 X14.771 Y20.743 E0.28405
G1 X14.181 Y20.743 E0.02047
G1 X20.560 Y14.364 E0.31301
G1 X20.560 Y13.773 E0.02047
G1 X13.591 Y20.743 E0.34196
G1 X13.001 Y20.743 E0.02047
G1 X20.560 Y13.183 E0.37092
G1 X20.560 Y12.593 E0.02047
G1 X12.411 Y20.743 E0.39987
G1 X11.821 Y20.743 E0.02047
G1 X20.560 Y12.003 E0.42883
G1 X20.560 Y11.413 E0.02047
G1 X11.231 Y20.743 E0.45778
G1 X10.641 Y20.743 E0.02047
G1 X20.560 Y10.823 E0.48674
G1 X20.560 Y10.233 E0.02047
G1 X10.051 Y20.743 E0.51569
G1 X9.756 Y20.743 E0.01024
G1 X9.756 Y20.448 E0.01024
G1 X20.265 Y9.938 E0.51568
G1 X19.675 Y9.938 E0.02047
G1 X9.756 Y19.858 E0.48673
G1 X9.756 Y19.267 E0.02047
G1 X19.085 Y9.938 E0.45778
G1 X18.495 Y9.938 E0.02047
G1 X9.756 Y18.677 E0.42882
G1 X9.756 Y18.087 E0.02047
G1 X17.905 Y9.938 E0.39987
G1 X17.315 Y9.938 E0.02047
G1 X9.756 Y17.497 E0.37091
G1 X9.756 Y16.907 E0.02047
G1 X16.725 Y9.938 E0.34196
G1 X16.135 Y9.938 E0.02047
G1 X9.756 Y16.317 E0.31300
G1 X9.756 Y15.727 E0.02047
G1 X15.545 Y9.938 E0.28405
G1 X14.954 Y9.938 E0.02047
G1 X9.756 Y15.137 E0.25509
G1 X9.756 Y14.547 E0.02047
G1 X14.364 Y9.938 E0.22614
G1 X13.774 Y9.938 E0.02047
G1 X9.756 Y13.957 E0.19718
G1 X9.756 Y13.366 E0.02047
G1 X13.184 Y9.938 E0.16823
G1 X12.594 Y9.938 E0.02047
G1 X9.756 Y12.776 E0.13927
G1 X9.756 Y12.186 E0.02047
G1 X12.004 Y9.938 E0.11032
G1 X11.414 Y9.938 E0.02047
G1 X9.756 Y11.596 E0.08137
G1 X9.756 Y11.006 E0.02047
G1 X10.824 Y9.938 E0.05241
G1 X10.234 Y9.938 E0.02047
G1 X9.572 Y10.599 E0.03244
M204 S1000
;BEFORE_LAYER_CHANGE
G92 E0.0
;1


G1 Z1.000 F10800.000
;AFTER_LAYER_CHANGE
;1
G1 X7.883 Y8.065
M204 S800
G1 F1690
G1 X22.433 Y8.065 E0.49250
G1 X22.433 Y22.615 E0.49250
G1 X7.883 Y22.615 E0.49250
G1 X7.883 Y8.125 E0.49047
M204 S1000
G1 X8.269 Y8.169 F10800.000
G1 X8.290 Y8.472
M204 S800
G1 F1690
G1 X22.026 Y8.472 E0.46494
G1 X22.026 Y22.208 E0.46494
G1 X8.290 Y22.208 E0.46494
G1 X8.290 Y8.532 E0.46291
M204 S1000
G1 X8.697 Y8.879 F10800.000
M204 S800
G1 F1690
G1 X21.619 Y8.879 E0.43738
G1 X21.619 Y21.801 E0.43738
G1 X8.697 Y21.801 E0.43738
G1 X8.697 Y8.939 E0.43535
M204 S1000
G1 X9.104 Y9.287 F10800.000
M204 S800
G1 F1690
G1 X21.212 Y9.287 E0.40983
G1 X21.212 Y21.394 E0.40983
G1 X9.104 Y21.394 E0.40983
G1 X9.104 Y9.347 E0.40779
M204 S1000
G1 X9.511 Y9.694 F10800.000
M204 S800
G1 F1690
G1 X20.805 Y9.694 E0.38227
G1 X20.805 Y20.987 E0.38227
G1 X9.511 Y20.987 E0.38227
G1 X9.511 Y9.754 E0.38024
M204 S1000
G1 X20.744 Y10.599 F10800.000
M204 S1250
G1 F1690
G1 X20.082 Y9.938 E0.03245
G1 X19.492 Y9.938 E0.02047
G1 X20.560 Y11.006 E0.05242
G1 X20.560 Y11.596 E0.02047
G1 X18.902 Y9.938 E0.08137
G1 X18.312 Y9.938 E0.02047
G1 X20.560 Y12.186 E0.11033
G1 X20.560 Y12.776 E0.02047
G1 X17.722 Y9.938 E0.13928
G1 X17.132 Y9.938 E0.02047
G1 X20.560 Y13.367 E0.16823
G1 X20.560 Y13.957 E0.02047
G1 X16.542 Y9.938 E0.19719
G1 X15.952 Y9.938 E0.02047
G1 X20.560 Y14.547 E0.22614
G1 X20.560 Y15.137 E0.02047
G1 X15.362 Y9.938 E0.25510
G1 X14.771 Y9.938 E0.02047
G1 X20.560 Y15.727 E0.28405
G1 X20.560 Y16.317 E0.02047
G1 X14.181 Y9.938 E0.31301
G1 X13.591 Y9.938 E0.02047
G1 X20.560 Y16.907 E0.34196
G1 X20.560 Y17.497 E0.02047
G1 X13.001 Y9.938 E0.37092
G1 X12.411 Y9.938 E0.02047
G1 X20.560 Y18.087 E0.39987
G1 X20.560 Y18.677 E0.02047
G1 X11.821 Y9.938 E0.42883
G1 X11.231 Y9.938 E0.02047
G1 X20.560 Y19.268 E0.45778
G1 X20.560 Y19.858 E0.02047
G1 X10.641 Y9.938 E0.48674
G1 X10.051 Y9.938 E0.02047
G1 X20.560 Y20.448 E0.51569
G1 X20.560 Y20.743 E0.01024
G1 X20.265 Y20.743 E0.01024
G1 X9.756 Y10.233 E0.51568
G1 X9.756 Y10.823 E0.02047
G1 X19.675 Y20.743 E0.48673
G1 X19.085 Y20.743 E0.02047
G1 X9.756 Y11.413 E0.45778
G1 X9.756 Y12.003 E0.02047
G1 X18.495 Y20.743 E0.42882
G1 X17.905 Y20.743 E0.02047
G1 X9.756 Y12.593 E0.39987
G1 X9.756 Y13.183 E0.02047
G1 X17.315 Y20.743 E0.37091
G1 X16.725 Y20.743 E0.02047
G1 X9.756 Y13.774 E0.34196
G1 X9.756 Y14.364 E0.02047
G1 X16.135 Y20.743 E0.31300
G1 X15.545 Y20.743 E0.02047
G1 X9.756 Y14.954 E0.28405
G1 X9.756 Y15.544 E0.02047
G1 X14.954 Y20.743 E0.25509
G1 X14.364 Y20.743 E0.02047
