; generated by PrusaSlicer 2.2.0+win64 on 2021-01-30 at 19:27:21 UTC

; 

; external perimeters extrusion width = 0.45mm
; perimeters extrusion width = 0.45mm
; infill extrusion width = 0.45mm
; solid infill extrusion width = 0.45mm
; top infill extrusion width = 0.40mm
; support material extrusion width = 0.35mm
; first layer extrusion width = 0.42mm

M73 P0 R13
M73 Q0 S13
M201 X1000 Y1000 Z1000 E5000 ; sets maximum accelerations, mm/sec^2
M203 X200 Y200 Z12 E120 ; sets maximum feedrates, mm/sec
M204 P1250 R1250 T1250 ; sets acceleration (P, T) and retract acceleration (R), mm/sec^2
M205 X8.00 Y8.00 Z0.40 E1.50 ; sets the jerk limits, mm/sec
M205 S0 T0 ; sets the minimum extruding and travel feed rate, mm/sec
M107
M862.3 P "MK3S" ; printer model check
M862.1 P0.4 ; nozzle diameter check
M115 U3.8.1 ; tell printer latest fw version
G90 ; use absolute coordinates
M83 ; extruder relative mode
M104 S215 ; set extruder temp
M140 S75 ; set bed temp
M190 S75 ; wait for bed temp
M109 S215 ; wait for extruder temp
G28 W ; home all without mesh bed level
G80 ; mesh bed leveling
G1 Y-3.0 F1000.0 ; go outside print area
G92 E0.0
G1 X60.0 E9.0 F1000.0 ; intro line
M73 Q0 S13
M73 P0 R13
G1 X100.0 E12.5 F1000.0 ; intro line
G92 E0.0
M221 S95
G21 ; set units to millimeters
G90 ; use absolute coordinates
M83 ; use relative distances for extrusion
M900 K30 ; Filament gcode
;BEFORE_LAYER_CHANGE
G92 E0.0
;0.2


G1 Z0.200 F10800.000
;AFTER_LAYER_CHANGE
;0.2
G1 X10.368 Y10.550
M204 S1000
G1 F900
G1 X19.948 Y10.550 E0.30037
G1 X19.948 Y20.130 E0.30037
G1 X10.368 Y20.130 E0.30037
G1 X10.368 Y10.610 E0.29849
G1 X10.754 Y10.654 F10800.000
G1 X10.745 Y10.927
G1 F900
G1 X19.571 Y10.927 E0.27673
G1 X19.571 Y19.753 E0.27673
G1 X10.745 Y19.753 E0.27673
G1 X10.745 Y10.987 E0.27485
G1 X11.122 Y11.304 F10800.000
G1 F900
G1 X19.194 Y11.304 E0.25308
G1 X19.194 Y19.376 E0.25308
G1 X11.122 Y19.376 E0.25308
G1 X11.122 Y11.364 E0.25120
G1 X11.499 Y11.682 F10800.000
G1 F900
G1 X18.817 Y11.682 E0.22944
G1 X18.817 Y18.999 E0.22944
G1 X11.499 Y18.999 E0.22944
G1 X11.499 Y11.742 E0.22755
G1 X11.876 Y12.059 F10800.000
G1 F900
G1 X18.440 Y12.059 E0.20579
G1 X18.440 Y18.622 E0.20579
G1 X11.876 Y18.622 E0.20579
G1 X11.876 Y12.119 E0.20391
G1 X18.383 Y12.889 F10800.000
G1 F900
G1 X17.780 Y12.285 E0.02714
G1 X17.239 Y12.285 E0.01719
G1 X18.214 Y13.260 E0.04382
G1 X18.214 Y13.800 E0.01719
G1 X16.698 Y12.285 E0.06812
G1 X16.158 Y12.285 E0.01719
G1 X18.214 Y14.341 E0.09243
G1 X18.214 Y14.882 E0.01719
G1 X15.617 Y12.285 E0.11674
G1 X15.076 Y12.285 E0.01719
G1 X18.214 Y15.422 E0.14104
G1 X18.214 Y15.963 E0.01719
G1 X14.536 Y12.285 E0.16535
G1 X13.995 Y12.285 E0.01719
G1 X18.214 Y16.503 E0.18965
G1 X18.214 Y17.044 E0.01719
G1 X13.454 Y12.285 E0.21396
G1 X12.914 Y12.285 E0.01719
G1 X18.214 Y17.585 E0.23827
G1 X18.214 Y18.125 E0.01719
G1 X12.373 Y12.285 E0.26257
G1 X12.103 Y12.285 E0.00859
G1 X12.103 Y12.555 E0.00860
G1 X17.943 Y18.396 E0.26257
G1 X17.402 Y18.396 E0.01719
G1 X12.103 Y13.096 E0.23826
G1 X12.103 Y13.637 E0.01719
G1 X16.862 Y18.396 E0.21396
G1 X16.321 Y18.396 E0.01719
G1 X12.103 Y14.177 E0.18965
G1 X12.103 Y14.718 E0.01719
G1 X15.780 Y18.396 E0.16534
G1 X15.240 Y18.396 E0.01719
G1 X12.103 Y15.259 E0.14104
G1 X12.103 Y15.799 E0.01719
G1 X14.699 Y18.396 E0.11673
G1 X14.158 Y18.396 E0.01719
G1 X12.103 Y16.340 E0.09242
G1 X12.103 Y16.881 E0.01719
G1 X13.618 Y18.396 E0.06812
G1 X13.077 Y18.396 E0.01719
G1 X12.103 Y17.421 E0.04381
G1 X12.103 Y17.962 E0.01719
G1 X12.706 Y18.565 E0.02713
M106 S255
;BEFORE_LAYER_CHANGE
G92 E0.0
;0.4


G1 Z0.400 F10800.000
;AFTER_LAYER_CHANGE
;0.4
M104 S210 ; set temperature
G1 X10.383 Y20.115
M204 S800
G1 F900
G1 X10.383 Y10.565 E0.32326
G1 X19.933 Y10.565 E0.32326
G1 X19.933 Y20.115 E0.32326
G1 X10.443 Y20.115 E0.32123
M204 S1000
G1 X10.487 Y19.729 F10800.000
G1 X10.790 Y19.708
M204 S800
G1 F900
G1 X10.790 Y10.972 E0.29570
G1 X19.526 Y10.972 E0.29570
G1 X19.526 Y19.708 E0.29570
G1 X10.850 Y19.708 E0.29367
M204 S1000
G1 X11.197 Y19.301 F10800.000
M204 S800
G1 F900
G1 X11.197 Y11.379 E0.26814
G1 X19.119 Y11.379 E0.26814
G1 X19.119 Y19.301 E0.26814
G1 X11.257 Y19.301 E0.26611
M204 S1000
G1 X11.604 Y18.894 F10800.000
M204 S800
G1 F900
G1 X11.604 Y11.787 E0.24058
G1 X18.712 Y11.787 E0.24058
G1 X18.712 Y18.894 E0.24058
G1 X11.664 Y18.894 E0.23855
M204 S1000
G1 X12.011 Y18.487 F10800.000
M204 S800
G1 F900
G1 X12.011 Y12.194 E0.21302
G1 X18.305 Y12.194 E0.21302
G1 X18.305 Y18.487 E0.21302
G1 X12.071 Y18.487 E0.21099
M204 S1000
G1 X12.919 Y12.255 F10800.000
M204 S1250
G1 F900
G1 X12.256 Y12.918 E0.03264
G1 X12.256 Y13.510 E0.02058
G1 X13.328 Y12.438 E0.05273
G1 X13.919 Y12.438 E0.02058
G1 X12.256 Y14.101 E0.08183
G1 X12.256 Y14.693 E0.02058
G1 X14.511 Y12.438 E0.11094
G1 X15.102 Y12.438 E0.02058
G1 X12.256 Y15.285 E0.14004
G1 X12.256 Y15.876 E0.02058
G1 X15.694 Y12.438 E0.16914
G1 X16.286 Y12.438 E0.02058
G1 X12.256 Y16.468 E0.19825
G1 X12.256 Y17.059 E0.02058
G1 X16.877 Y12.438 E0.22735
G1 X17.469 Y12.438 E0.02058
G1 X12.256 Y17.651 E0.25645
G1 X12.256 Y18.243 E0.02058
G1 X18.060 Y12.438 E0.28556
G1 X18.060 Y13.029 E0.02058
G1 X12.847 Y18.243 E0.25646
G1 X13.439 Y18.243 E0.02058
G1 X18.060 Y13.621 E0.22736
G1 X18.060 Y14.213 E0.02058
G1 X14.030 Y18.243 E0.19825
G1 X14.622 Y18.243 E0.02058
G1 X18.060 Y14.804 E0.16915
G1 X18.060 Y15.396 E0.02058
G1 X15.214 Y18.243 E0.14005
G1 X15.805 Y18.243 E0.02058
G1 X18.060 Y15.987 E0.11094
G1 X18.060 Y16.579 E0.02058
G1 X16.397 Y18.243 E0.08184
G1 X16.988 Y18.243 E0.02058
G1 X18.060 Y17.171 E0.05274
G1 X18.060 Y17.762 E0.02058
G1 X17.397 Y18.426 E0.03264
M204 S1000
;BEFORE_LAYER_CHANGE
G92 E0.0
;0.6


G1 Z0.600 F10800.000
;AFTER_LAYER_CHANGE
;0.6
G1 X19.933 Y20.115
M204 S800
G1 F900
G1 X10.383 Y20.115 E0.32326
G1 X10.383 Y10.565 E0.32326
G1 X19.933 Y10.565 E0.32326
G1 X19.933 Y20.055 E0.32123
M204 S1000
G1 X19.547 Y20.012 F10800.000
G1 X19.526 Y19.708
M204 S800
G1 F900
G1 X10.790 Y19.708 E0.29570
G1 X10.790 Y10.972 E0.29570
G1 X19.526 Y10.972 E0.29570
G1 X19.526 Y19.648 E0.29367
M204 S1000
G1 X19.119 Y19.301 F10800.000
M204 S800
G1 F900
G1 X11.197 Y19.301 E0.26814
G1 X11.197 Y11.379 E0.26814
G1 X19.119 Y11.379 E0.26814
G1 X19.119 Y19.241 E0.26611
M204 S1000
G1 X18.712 Y18.894 F10800.000
M204 S800
G1 F900
G1 X11.604 Y18.894 E0.24058
G1 X11.604 Y11.787 E0.24058
G1 X18.712 Y11.787 E0.24058
G1 X18.712 Y18.834 E0.23855
M204 S1000
G1 X18.305 Y18.487 F10800.000
M204 S800
G1 F900
G1 X12.011 Y18.487 E0.21302
G1 X12.011 Y12.194 E0.21302
G1 X18.305 Y12.194 E0.21302
G1 X18.305 Y18.427 E0.21099
M204 S1000
G1 X12.072 Y17.579 F10800.000
M204 S1250
G1 F900
G1 X12.736 Y18.243 E0.03264
G1 X13.328 Y18.243 E0.02058
G1 X12.256 Y17.171 E0.05273
G1 X12.256 Y16.579 E0.02058
G1 X13.919 Y18.243 E0.08183
G1 X14.511 Y18.243 E0.02058
G1 X12.256 Y15.988 E0.11094
G1 X12.256 Y15.396 E0.02058
G1 X15.102 Y18.243 E0.14004
G1 X15.694 Y18.243 E0.02058
G1 X12.256 Y14.804 E0.16914
G1 X12.256 Y14.213 E0.02058
G1 X16.286 Y18.243 E0.19825
G1 X16.877 Y18.243 E0.02058
G1 X12.256 Y13.621 E0.22735
G1 X12.256 Y13.030 E0.02058
G1 X17.469 Y18.243 E0.25645
G1 X18.060 Y18.243 E0.02058
G1 X12.256 Y12.438 E0.28556
G1 X12.847 Y12.438 E0.02058
G1 X18.060 Y17.651 E0.25646
G1 X18.060 Y17.060 E0.02058
G1 X13.439 Y12.438 E0.22736
G1 X14.030 Y12.438 E0.02058
G1 X18.060 Y16.468 E0.19825
G1 X18.060 Y15.876 E0.02058
G1 X14.622 Y12.438 E0.16915
G1 X15.214 Y12.438 E0.02058
G1 X18.060 Y15.285 E0.14005
G1 X18.060 Y14.693 E0.02058
G1 X15.805 Y12.438 E0.11094
G1 X16.397 Y12.438 E0.02058
G1 X18.060 Y14.102 E0.08184
G1 X18.060 Y13.510 E0.02058
G1 X16.988 Y12.438 E0.05274
G1 X17.580 Y12.438 E0.02058
G1 X18.244 Y13.101 E0.03264
M204 S1000
;BEFORE_LAYER_CHANGE
G92 E0.0
;0.8


G1 Z0.800 F10800.000
;AFTER_LAYER_CHANGE
;0.8
G1 X19.933 Y10.565
M204 S800
G1 F900
G1 X19.933 Y20.115 E0.32326
G1 X10.383 Y20.115 E0.32326
G1 X10.383 Y10.565 E0.32326
G1 X19.873 Y10.565 E0.32123
M204 S1000
G1 X19.830 Y10.952 F10800.000
G1 X19.526 Y10.972
M204 S800
G1 F900
G1 X19.526 Y19.708 E0.29570
G1 X10.790 Y19.708 E0.29570
M73 Q8 S12
G1 X10.790 Y10.972 E0.29570
M73 P8 R12
G1 X19.466 Y10.972 E0.29367
M204 S1000
G1 X19.119 Y11.379 F10800.000
M204 S800
G1 F900
G1 X19.119 Y19.301 E0.26814
G1 X11.197 Y19.301 E0.26814
G1 X11.197 Y11.379 E0.26814
G1 X19.059 Y11.379 E0.26611
M204 S1000
G1 X18.712 Y11.787 F10800.000
M204 S800
G1 F900
G1 X18.712 Y18.894 E0.24058
G1 X11.604 Y18.894 E0.24058
G1 X11.604 Y11.787 E0.24058
G1 X18.652 Y11.787 E0.23855
M204 S1000
G1 X18.305 Y12.194 F10800.000
M204 S800
G1 F900
G1 X18.305 Y18.487 E0.21302
G1 X12.011 Y18.487 E0.21302
G1 X12.011 Y12.194 E0.21302
G1 X18.245 Y12.194 E0.21099
M204 S1000
G1 X17.397 Y18.426 F10800.000
M204 S1250
G1 F900
G1 X18.060 Y17.762 E0.03264
G1 X18.060 Y17.171 E0.02058
G1 X16.988 Y18.243 E0.05274
G1 X16.397 Y18.243 E0.02058
G1 X18.060 Y16.579 E0.08184
G1 X18.060 Y15.987 E0.02058
G1 X15.805 Y18.243 E0.11094
G1 X15.214 Y18.243 E0.02058
G1 X18.060 Y15.396 E0.14005
G1 X18.060 Y14.804 E0.02058
G1 X14.622 Y18.243 E0.16915
G1 X14.030 Y18.243 E0.02058
G1 X18.060 Y14.213 E0.19825
G1 X18.060 Y13.621 E0.02058
G1 X13.439 Y18.243 E0.22736
G1 X12.847 Y18.243 E0.02058
G1 X18.060 Y13.029 E0.25646
G1 X18.060 Y12.438 E0.02058
G1 X12.256 Y18.243 E0.28556
G1 X12.256 Y17.651 E0.02058
G1 X17.469 Y12.438 E0.25645
G1 X16.877 Y12.438 E0.02058
G1 X12.256 Y17.059 E0.22735
G1 X12.256 Y16.468 E0.02058
G1 X16.286 Y12.438 E0.19825
G1 X15.694 Y12.438 E0.02058
G1 X12.256 Y15.876 E0.16914
G1 X12.256 Y15.285 E0.02058
G1 X15.102 Y12.438 E0.14004
G1 X14.511 Y12.438 E0.02058
G1 X12.256 Y14.693 E0.11094
G1 X12.256 Y14.101 E0.02058
G1 X13.919 Y12.438 E0.08183
G1 X13.328 Y12.438 E0.02058
G1 X12.256 Y13.510 E0.05273
G1 X12.256 Y12.918 E0.02058
G1 X12.919 Y12.255 E0.03264
M204 S1000
;BEFORE_LAYER_CHANGE
G92 E0.0
;1


G1 Z1.000 F10800.000
;AFTER_LAYER_CHANGE
;1
G1 X10.383 Y10.565
M204 S800
G1 F900
G1 X19.933 Y10.565 E0.32326
G1 X19.933 Y20.115 E0.32326
G1 X10.383 Y20.115 E0.32326
G1 X10.383 Y10.625 E0.32123
M204 S1000
G1 X10.769 Y10.669 F10800.000
G1 X10.790 Y10.972
M204 S800
G1 F900
G1 X19.526 Y10.972 E0.29570
G1 X19.526 Y19.708 E0.29570
G1 X10.790 Y19.708 E0.29570
G1 X10.790 Y11.032 E0.29367
M204 S1000
G1 X11.197 Y11.379 F10800.000
M204 S800
G1 F900
G1 X19.119 Y11.379 E0.26814
G1 X19.119 Y19.301 E0.26814
G1 X11.197 Y19.301 E0.26814
G1 X11.197 Y11.439 E0.26611
M204 S1000
G1 X11.604 Y11.787 F10800.000
M204 S800
G1 F900
G1 X18.712 Y11.787 E0.24058
G1 X18.712 Y18.894 E0.24058
G1 X11.604 Y18.894 E0.24058
G1 X11.604 Y11.847 E0.23855
M204 S1000
G1 X12.011 Y12.194 F10800.000
M204 S800
G1 F900
G1 X18.305 Y12.194 E0.21302
G1 X18.305 Y18.487 E0.21302
G1 X12.011 Y18.487 E0.21302
G1 X12.011 Y12.254 E0.21099
M204 S1000
G1 X18.244 Y13.101 F10800.000
M204 S1250
G1 F900
G1 X17.580 Y12.438 E0.03264
G1 X16.988 Y12.438 E0.02058
G1 X18.060 Y13.510 E0.05274
G1 X18.060 Y14.102 E0.02058
G1 X16.397 Y12.438 E0.08184
G1 X15.805 Y12.438 E0.02058
G1 X18.060 Y14.693 E0.11094
G1 X18.060 Y15.285 E0.02058
G1 X15.214 Y12.438 E0.14005
G1 X14.622 Y12.438 E0.02058
G1 X18.060 Y15.876 E0.16915
G1 X18.060 Y16.468 E0.02058
G1 X14.030 Y12.438 E0.19825
G1 X13.439 Y12.438 E0.02058
G1 X18.060 Y17.060 E0.22736
G1 X18.060 Y17.651 E0.02058
G1 X12.847 Y12.438 E0.25646
G1 X12.256 Y12.438 E0.02058
G1 X18.060 Y18.243 E0.28556
G1 X17.469 Y18.243 E0.02058
G1 X12.256 Y13.030 E0.25645
G1 X12.256 Y13.621 E0.02058
G1 X16.877 Y18.243 E0.22735
G1 X16.286 Y18.243 E0.02058
G1 X12.256 Y14.213 E0.19825
G1 X12.256 Y14.804 E0.02058
G1 X15.694 Y18.243 E0.16914
G1 X15.102 Y18.243 E0.02058
G1 X12.256 Y15.396 E0.14004
G1 X12.256 Y15.988 E0.02058
G1 X14.511 Y18.243 E0.11094
G1 X13.919 Y18.243 E0.02058
G1 X12.256 Y16.579 E0.08183
G1 X12.256 Y17.171 E0.02058
G1 X13.328 Y18.243 E0.05273
G1 X12.736 Y18.243 E0.02058
G1 X12.072 Y17.579 E0.03264
M204 S1000
;BEFORE_LAYER_CHANGE
G92 E0.0
;1.2


G1 Z1.200 F10800.000
;AFTER_LAYER_CHANGE
;1.2
G1 X10.383 Y20.115
M204 S800
G1 F900
G1 X10.383 Y10.565 E0.32326
G1 X19.933 Y10.565 E0.32326
G1 X19.933 Y20.115 E0.32326
G1 X10.443 Y20.115 E0.32123
M204 S1000
G1 X10.487 Y19.729 F10800.000
G1 X10.790 Y19.708
M204 S800
G1 F900
G1 X10.790 Y10.972 E0.29570
G1 X19.526 Y10.972 E0.29570
G1 X19.526 Y19.708 E0.29570
G1 X10.850 Y19.708 E0.29367
M204 S1000
G1 X11.197 Y19.301 F10800.000
M204 S800
G1 F900
G1 X11.197 Y11.379 E0.26814
G1 X19.119 Y11.379 E0.26814
G1 X19.119 Y19.301 E0.26814
G1 X11.257 Y19.301 E0.26611
M204 S1000
G1 X11.604 Y18.894 F10800.000
M204 S800
G1 F900
G1 X11.604 Y11.787 E0.24058
G1 X18.712 Y11.787 E0.24058
G1 X18.712 Y18.894 E0.24058
G1 X11.664 Y18.894 E0.23855
M204 S1000
G1 X12.011 Y18.487 F10800.000
M204 S800
G1 F900
G1 X12.011 Y12.194 E0.21302
G1 X18.305 Y12.194 E0.21302
G1 X18.305 Y18.487 E0.21302
G1 X12.071 Y18.487 E0.21099
M204 S1000
;BEFORE_LAYER_CHANGE
G92 E0.0
;1.4


G1 Z1.400 F10800.000
;AFTER_LAYER_CHANGE
;1.4
G1 X10.383 Y20.115
M204 S800
G1 F900
G1 X10.383 Y10.565 E0.32326
G1 X19.933 Y10.565 E0.32326
G1 X19.933 Y20.115 E0.32326
G1 X10.443 Y20.115 E0.32123
M204 S1000
G1 X10.487 Y19.729 F10800.000
G1 X10.790 Y19.708
M204 S800
G1 F900
G1 X10.790 Y10.972 E0.29570
G1 X19.526 Y10.972 E0.29570
G1 X19.526 Y19.708 E0.29570
G1 X10.850 Y19.708 E0.29367
M204 S1000
G1 X11.197 Y19.301 F10800.000
M204 S800
G1 F900
G1 X11.197 Y11.379 E0.26814
G1 X19.119 Y11.379 E0.26814
G1 X19.119 Y19.301 E0.26814
G1 X11.257 Y19.301 E0.26611
M204 S1000
G1 X11.604 Y18.894 F10800.000
M204 S800
G1 F900
G1 X11.604 Y11.787 E0.24058
G1 X18.712 Y11.787 E0.24058
G1 X18.712 Y18.894 E0.24058
G1 X11.664 Y18.894 E0.23855
M204 S1000
G1 X12.011 Y18.487 F10800.000
M204 S800
G1 F900
G1 X12.011 Y12.194 E0.21302
G1 X18.305 Y12.194 E0.21302
G1 X18.305 Y18.487 E0.21302
G1 X12.071 Y18.487 E0.21099
M204 S1000
G1 X12.919 Y12.255 F10800.000
M204 S1250
G1 F900
G1 X12.256 Y12.918 E0.05682
G1 X12.256 Y13.510 E0.03583
G1 X13.328 Y12.438 E0.09180
G1 X13.919 Y12.438 E0.03583
G1 X12.256 Y14.101 E0.14247
G1 X12.256 Y14.693 E0.03583
G1 X14.511 Y12.438 E0.19314
G1 X15.102 Y12.438 E0.03583
G1 X12.256 Y15.285 E0.24381
G1 X12.256 Y15.876 E0.03583
G1 X15.694 Y12.438 E0.29448
G1 X16.286 Y12.438 E0.03583
G1 X12.256 Y16.468 E0.34515
G1 X12.256 Y17.059 E0.03583
G1 X16.877 Y12.438 E0.39581
G1 X17.469 Y12.438 E0.03583
G1 X12.256 Y17.651 E0.44648
G1 X12.256 Y18.243 E0.03583
G1 X18.060 Y12.438 E0.49715
G1 X18.060 Y13.029 E0.03582
G1 X12.847 Y18.243 E0.44649
G1 X13.439 Y18.243 E0.03583
G1 X18.060 Y13.621 E0.39582
G1 X18.060 Y14.213 E0.03583
G1 X14.030 Y18.243 E0.34516
G1 X14.622 Y18.243 E0.03583
G1 X18.060 Y14.804 E0.29449
G1 X18.060 Y15.396 E0.03583
G1 X15.214 Y18.243 E0.24382
G1 X15.805 Y18.243 E0.03583
G1 X18.060 Y15.987 E0.19315
G1 X18.060 Y16.579 E0.03583
G1 X16.397 Y18.243 E0.14248
G1 X16.988 Y18.243 E0.03583
G1 X18.060 Y17.171 E0.09181
G1 X18.060 Y17.762 E0.03583
G1 X17.397 Y18.426 E0.05683
M204 S1000
;BEFORE_LAYER_CHANGE
G92 E0.0
;1.6


G1 Z1.600 F10800.000
;AFTER_LAYER_CHANGE
;1.6
G1 X19.933 Y20.115
M204 S800
G1 F900
G1 X10.383 Y20.115 E0.32326
G1 X10.383 Y10.565 E0.32326
M73 Q16 S11
G1 X19.933 Y10.565 E0.32326
M73 P16 R11
G1 X19.933 Y20.055 E0.32123
M204 S1000
G1 X19.547 Y20.012 F10800.000
G1 X19.526 Y19.708
M204 S800
G1 F900
G1 X10.790 Y19.708 E0.29570
G1 X10.790 Y10.972 E0.29570
G1 X19.526 Y10.972 E0.29570
G1 X19.526 Y19.648 E0.29367
M204 S1000
G1 X19.119 Y19.301 F10800.000
M204 S800
G1 F900
G1 X11.197 Y19.301 E0.26814
G1 X11.197 Y11.379 E0.26814
G1 X19.119 Y11.379 E0.26814
G1 X19.119 Y19.241 E0.26611
M204 S1000
G1 X18.712 Y18.894 F10800.000
M204 S800
G1 F900
G1 X11.604 Y18.894 E0.24058
G1 X11.604 Y11.787 E0.24058
G1 X18.712 Y11.787 E0.24058
G1 X18.712 Y18.834 E0.23855
M204 S1000
G1 X18.305 Y18.487 F10800.000
M204 S800
G1 F900
G1 X12.011 Y18.487 E0.21302
G1 X12.011 Y12.194 E0.21302
G1 X18.305 Y12.194 E0.21302
G1 X18.305 Y18.427 E0.21099
M204 S1000
;BEFORE_LAYER_CHANGE
G92 E0.0
;1.8


G1 Z1.800 F10800.000
;AFTER_LAYER_CHANGE
;1.8
G1 X19.933 Y20.115
M204 S800
G1 F900
G1 X10.383 Y20.115 E0.32326
G1 X10.383 Y10.565 E0.32326
G1 X19.933 Y10.565 E0.32326
G1 X19.933 Y20.055 E0.32123
M204 S1000
G1 X19.547 Y20.012 F10800.000
G1 X19.526 Y19.708
M204 S800
G1 F900
