; generated by PrusaSlicer 2.2.0+win64 on 2021-01-29 at 18:08:21 UTC

; 

; external perimeters extrusion width = 0.45mm
; perimeters extrusion width = 0.45mm
; infill extrusion width = 0.45mm
; solid infill extrusion width = 0.45mm
; top infill extrusion width = 0.40mm
; support material extrusion width = 0.35mm
; first layer extrusion width = 0.42mm

M73 P0 R3
M73 Q0 S3
M201 X1000 Y1000 Z1000 E5000 ; sets maximum accelerations, mm/sec^2
M203 X200 Y200 Z12 E120 ; sets maximum feedrates, mm/sec
M204 P1250 R1250 T1250 ; sets acceleration (P, T) and retract acceleration (R), mm/sec^2
M205 X8.00 Y8.00 Z0.40 E1.50 ; sets the jerk limits, mm/sec
M205 S0 T0 ; sets the minimum extruding and travel feed rate, mm/sec
M107
M862.3 P "MK3S" ; printer model check
M862.1 P0.4 ; nozzle diameter check
M115 U3.8.1 ; tell printer latest fw version
G90 ; use absolute coordinates
M83 ; extruder relative mode
M104 S215 ; set extruder temp
M140 S75 ; set bed temp
M190 S75 ; wait for bed temp
M109 S215 ; wait for extruder temp
G28 W ; home all without mesh bed level
G80 ; mesh bed leveling
G1 Y-3.0 F1000.0 ; go outside print area
G92 E0.0
G1 X60.0 E9.0 F1000.0 ; intro line
M73 Q2 S3
M73 P2 R3
G1 X100.0 E12.5 F1000.0 ; intro line
G92 E0.0
M221 S95
G21 ; set units to millimeters
G90 ; use absolute coordinates
M83 ; use relative distances for extrusion
M900 K30 ; Filament gcode
;BEFORE_LAYER_CHANGE
G92 E0.0
;0.2


G1 Z0.200 F10800.000
;AFTER_LAYER_CHANGE
;0.2
G1 X10.064 Y10.478
M204 S1000
G1 F1062
G1 X10.601 Y9.998 E0.05435
G1 X11.230 Y9.636 E0.05469
G1 X11.919 Y9.411 E0.05469
G1 X12.612 Y9.332 E0.05261
G1 X17.663 Y9.332 E0.38089
G1 X18.772 Y9.514 E0.08478
G1 X19.764 Y10.034 E0.08444
G1 X20.540 Y10.840 E0.08444
G1 X21.024 Y11.850 E0.08444
G1 X21.165 Y12.762 E0.06959
G1 X21.163 Y17.993 E0.39449
G1 X21.022 Y18.835 E0.06440
G1 X20.682 Y19.619 E0.06440
G1 X20.202 Y20.257 E0.06024
G1 X19.589 Y20.769 E0.06024
G1 X18.876 Y21.130 E0.06024
G1 X18.101 Y21.321 E0.06024
G1 X12.436 Y21.342 E0.42720
G1 X11.628 Y21.194 E0.06198
G1 X10.880 Y20.865 E0.06163
G1 X10.242 Y20.384 E0.06024
G1 X9.729 Y19.771 E0.06024
G1 X9.368 Y19.059 E0.06024
G1 X9.178 Y18.283 E0.06024
G1 X9.157 Y12.618 E0.42720
G1 X9.304 Y11.810 E0.06198
G1 X9.634 Y11.062 E0.06163
G1 X10.028 Y10.527 E0.05017
G1 X9.673 Y11.894 F10800.000
G1 F1062
G1 X9.991 Y11.200 E0.05755
G1 X10.384 Y10.687 E0.04871
G1 X10.878 Y10.264 E0.04904
G1 X11.444 Y9.954 E0.04871
G1 X12.062 Y9.766 E0.04871
G1 X12.627 Y9.709 E0.04280
G1 X17.662 Y9.709 E0.37975
G1 X18.663 Y9.875 E0.07648
G1 X19.561 Y10.354 E0.07681
G1 X20.256 Y11.093 E0.07648
G1 X20.679 Y12.015 E0.07648
G1 X20.789 Y12.783 E0.05853
G1 X20.786 Y17.989 E0.39260
G1 X20.651 Y18.762 E0.05919
G1 X20.325 Y19.481 E0.05952
G1 X19.889 Y20.037 E0.05330
G1 X19.336 Y20.484 E0.05362
G1 X18.696 Y20.794 E0.05362
G1 X18.003 Y20.952 E0.05362
G1 X12.457 Y20.965 E0.41826
G1 X11.711 Y20.825 E0.05723
G1 X11.017 Y20.507 E0.05755
G1 X10.461 Y20.072 E0.05330
G1 X10.014 Y19.518 E0.05362
G1 X9.704 Y18.879 E0.05362
G1 X9.546 Y18.185 E0.05362
G1 X9.533 Y12.639 E0.41826
G1 X9.662 Y11.953 E0.05270
G1 X10.033 Y12.024 F10800.000
G1 F1062
G1 X10.344 Y11.347 E0.05622
G1 X10.700 Y10.903 E0.04290
G1 X11.140 Y10.542 E0.04290
G1 X11.644 Y10.279 E0.04290
G1 X12.192 Y10.126 E0.04290
G1 X17.662 Y10.086 E0.41253
G1 X18.556 Y10.237 E0.06833
G1 X19.355 Y10.671 E0.06864
G1 X19.967 Y11.339 E0.06833
G1 X20.330 Y12.174 E0.06864
G1 X20.412 Y12.803 E0.04782
G1 X20.409 Y17.980 E0.39042
G1 X20.280 Y18.683 E0.05396
G1 X19.972 Y19.334 E0.05426
G1 X19.578 Y19.815 E0.04690
G1 X19.086 Y20.195 E0.04690
G1 X18.521 Y20.456 E0.04690
G1 X17.913 Y20.583 E0.04690
G1 X12.482 Y20.589 E0.40956
G1 X11.795 Y20.456 E0.05273
G1 X11.165 Y20.154 E0.05273
G1 X10.683 Y19.760 E0.04690
G1 X10.303 Y19.268 E0.04690
G1 X10.043 Y18.704 E0.04690
G1 X9.916 Y18.095 E0.04690
G1 X9.910 Y12.664 E0.40956
G1 X10.022 Y12.083 E0.04461
G1 X10.408 Y12.073 F10800.000
G1 F1062
G1 X10.691 Y11.506 E0.04783
G1 X11.007 Y11.130 E0.03699
G1 X11.393 Y10.828 E0.03699
G1 X11.833 Y10.611 E0.03699
G1 X12.308 Y10.489 E0.03699
G1 X17.662 Y10.463 E0.40378
G1 X18.450 Y10.599 E0.06032
G1 X19.146 Y10.986 E0.06004
G1 X19.674 Y11.581 E0.06004
G1 X19.977 Y12.318 E0.06004
G1 X20.035 Y12.816 E0.03785
G1 X20.032 Y17.962 E0.38807
G1 X19.912 Y18.596 E0.04868
G1 X19.625 Y19.175 E0.04868
G1 X19.279 Y19.579 E0.04013
G1 X18.852 Y19.896 E0.04013
G1 X18.361 Y20.111 E0.04042
G1 X17.838 Y20.211 E0.04013
G1 X12.510 Y20.213 E0.40185
G1 X11.891 Y20.090 E0.04754
G1 X11.324 Y19.807 E0.04783
G1 X10.919 Y19.461 E0.04013
G1 X10.602 Y19.034 E0.04013
G1 X10.387 Y18.543 E0.04042
G1 X10.288 Y18.020 E0.04013
G1 X10.286 Y12.692 E0.40185
G1 X10.396 Y12.132 E0.04302
G1 X10.961 Y12.538 F10800.000
G1 F1062
G1 X11.102 Y12.081 E0.03608
G1 X11.206 Y11.905 E0.01542
G1 X11.722 Y11.388 E0.05505
G1 X11.899 Y11.285 E0.01542
G1 X12.356 Y11.143 E0.03609
G1 X17.982 Y11.147 E0.42431
G1 X18.220 Y11.202 E0.01844
G1 X18.540 Y11.354 E0.02669
G1 X19.059 Y11.842 E0.05370
G1 X19.214 Y12.082 E0.02161
G1 X19.355 Y12.538 E0.03596
G1 X19.355 Y18.143 E0.42269
G1 X19.214 Y18.600 E0.03608
G1 X19.110 Y18.776 E0.01542
G1 X18.594 Y19.292 E0.05505
G1 X18.418 Y19.396 E0.01542
G1 X17.960 Y19.537 E0.03608
G1 X12.356 Y19.537 E0.42269
G1 X11.899 Y19.396 E0.03608
G1 X11.722 Y19.292 E0.01542
G1 X11.206 Y18.776 E0.05505
G1 X11.102 Y18.600 E0.01542
G1 X10.961 Y18.143 E0.03608
G1 X10.961 Y12.598 E0.41816
G1 X11.452 Y12.223 F10800.000
G1 F1062
G1 X11.514 Y12.123 E0.00887
G1 X11.941 Y11.696 E0.04553
G1 X12.041 Y11.634 E0.00887
G1 X12.387 Y11.521 E0.02750
G1 X17.960 Y11.524 E0.42026
G1 X18.077 Y11.552 E0.00907
G1 X18.350 Y11.681 E0.02279
G1 X18.781 Y12.097 E0.04522
G1 X18.865 Y12.225 E0.01152
G1 X18.978 Y12.570 E0.02733
G1 X18.978 Y18.111 E0.41791
G1 X18.864 Y18.458 E0.02751
G1 X18.802 Y18.558 E0.00887
G1 X18.375 Y18.984 E0.04553
G1 X18.275 Y19.046 E0.00887
G1 X17.929 Y19.160 E0.02751
G1 X12.387 Y19.160 E0.41791
G1 X12.041 Y19.046 E0.02751
G1 X11.941 Y18.984 E0.00887
G1 X11.514 Y18.558 E0.04553
G1 X11.452 Y18.458 E0.00887
G1 X11.338 Y18.111 E0.02751
G1 X11.338 Y12.570 E0.41791
G1 X11.433 Y12.280 E0.02298
G1 X11.797 Y12.377 F10800.000
G1 F1062
G1 X12.168 Y11.997 E0.04008
G1 X12.422 Y11.898 E0.02060
G1 X17.908 Y11.898 E0.41368
G1 X18.158 Y12.007 E0.02060
G1 X18.501 Y12.350 E0.03660
G1 X18.601 Y12.605 E0.02060
G1 X18.601 Y18.076 E0.41261
G1 X18.501 Y18.330 E0.02060
G1 X18.148 Y18.684 E0.03767
G1 X17.894 Y18.783 E0.02060
G1 X12.422 Y18.783 E0.41261
G1 X12.168 Y18.684 E0.02060
G1 X11.815 Y18.330 E0.03767
G1 X11.715 Y18.076 E0.02060
G1 X11.715 Y12.605 E0.41261
G1 X11.777 Y12.434 E0.01369
G1 X12.121 Y12.577 F10800.000
G1 F1062
G1 X12.395 Y12.303 E0.02922
G1 X12.464 Y12.275 E0.00566
G1 X17.852 Y12.275 E0.40629
G1 X17.921 Y12.303 E0.00566
G1 X18.195 Y12.577 E0.02922
G1 X18.224 Y12.647 E0.00566
G1 X18.224 Y18.034 E0.40629
G1 X18.195 Y18.103 E0.00566
G1 X17.921 Y18.377 E0.02922
G1 X17.852 Y18.406 E0.00566
G1 X12.464 Y18.406 E0.40629
G1 X12.395 Y18.377 E0.00566
G1 X12.121 Y18.103 E0.02922
G1 X12.092 Y18.034 E0.00566
G1 X12.098 Y12.633 E0.40734
G1 X12.470 Y12.762 F10800.000
G1 F1062
G1 X12.580 Y12.652 E0.01178
G1 X17.736 Y12.652 E0.38886
G1 X17.847 Y12.762 E0.01178
G1 X17.847 Y17.918 E0.38886
G1 X17.736 Y18.029 E0.01178
G1 X12.580 Y18.029 E0.38886
G1 X12.470 Y17.918 E0.01178
G1 X12.470 Y12.822 E0.38433
G1 X12.868 Y13.050 F10800.000
G1 F1062
G1 X17.448 Y13.050 E0.34541
G1 X17.448 Y17.630 E0.34541
G1 X12.868 Y17.630 E0.34541
G1 X12.868 Y13.110 E0.34088
G1 X13.254 Y13.154 F10800.000
G1 X13.245 Y13.427
G1 F1062
G1 X17.071 Y13.427 E0.28853
G1 X17.071 Y17.253 E0.28853
G1 X13.245 Y17.253 E0.28853
G1 X13.245 Y13.487 E0.28400
G1 X13.622 Y13.804 F10800.000
G1 F1062
G1 X16.694 Y13.804 E0.23165
G1 X16.694 Y16.876 E0.23165
G1 X13.622 Y16.876 E0.23165
G1 X13.622 Y13.864 E0.22713
G1 X13.999 Y14.182 F10800.000
G1 F1062
G1 X16.317 Y14.182 E0.17478
G1 X16.317 Y16.499 E0.17478
G1 X13.999 Y16.499 E0.17478
G1 X13.999 Y14.242 E0.17025
G1 X14.376 Y14.559 F10800.000
G1 F1062
G1 X15.940 Y14.559 E0.11790
G1 X15.940 Y16.122 E0.11790
G1 X14.376 Y16.122 E0.11790
G1 X14.376 Y14.619 E0.11338
G1 X15.883 Y15.470 F10800.000
G1 F1062
G1 X15.198 Y14.785 E0.08160
G1 X14.603 Y14.785 E0.05009
G1 X15.713 Y15.896 E0.13223
G1 X15.118 Y15.896 E0.05010
G1 X14.433 Y15.210 E0.08158
M106 S255
;BEFORE_LAYER_CHANGE
G92 E0.0
;0.4


G1 Z0.400 F10800.000
;AFTER_LAYER_CHANGE
;0.4
M104 S210 ; set temperature
G1 X18.772 Y9.514
G1 F900
G1 X19.764 Y10.034 E0.08444
G1 X20.540 Y10.840 E0.08444
G1 X21.024 Y11.850 E0.08444
G1 X21.165 Y12.762 E0.06959
G1 X21.163 Y17.993 E0.39449
G1 X21.022 Y18.835 E0.06440
G1 X20.682 Y19.619 E0.06440
G1 X20.202 Y20.257 E0.06024
G1 X19.589 Y20.769 E0.06024
G1 X18.876 Y21.130 E0.06024
G1 X18.101 Y21.321 E0.06024
G1 X12.436 Y21.342 E0.42720
G1 X11.628 Y21.194 E0.06198
G1 X10.880 Y20.865 E0.06163
G1 X10.242 Y20.384 E0.06024
G1 X9.729 Y19.771 E0.06024
G1 X9.368 Y19.059 E0.06024
G1 X9.178 Y18.283 E0.06024
G1 X9.157 Y12.618 E0.42720
G1 X9.304 Y11.810 E0.06198
G1 X9.634 Y11.062 E0.06163
G1 X10.064 Y10.478 E0.05469
G1 X10.601 Y9.998 E0.05435
G1 X11.230 Y9.636 E0.05469
G1 X11.919 Y9.411 E0.05469
G1 X12.612 Y9.332 E0.05261
G1 X17.663 Y9.332 E0.38089
G1 X18.713 Y9.504 E0.08026
G1 X18.652 Y9.873 F10800.000
G1 F900
G1 X19.561 Y10.354 E0.07761
G1 X20.256 Y11.093 E0.07648
G1 X20.679 Y12.015 E0.07648
G1 X20.789 Y12.783 E0.05853
G1 X20.786 Y17.989 E0.39260
G1 X20.651 Y18.762 E0.05919
G1 X20.325 Y19.481 E0.05952
G1 X19.889 Y20.037 E0.05330
G1 X19.336 Y20.484 E0.05362
G1 X18.696 Y20.794 E0.05362
G1 X18.003 Y20.952 E0.05362
G1 X12.457 Y20.965 E0.41826
G1 X11.711 Y20.825 E0.05723
G1 X11.017 Y20.507 E0.05755
G1 X10.461 Y20.072 E0.05330
G1 X10.014 Y19.518 E0.05362
G1 X9.704 Y18.879 E0.05362
G1 X9.546 Y18.185 E0.05362
G1 X9.533 Y12.639 E0.41826
G1 X9.673 Y11.894 E0.05723
G1 X9.991 Y11.200 E0.05755
G1 X10.384 Y10.687 E0.04871
G1 X10.878 Y10.264 E0.04904
G1 X11.444 Y9.954 E0.04871
G1 X12.062 Y9.766 E0.04871
G1 X12.627 Y9.709 E0.04280
G1 X17.662 Y9.709 E0.37975
G1 X18.593 Y9.863 E0.07111
G1 X18.531 Y10.232 F10800.000
G1 F900
G1 X19.355 Y10.671 E0.07046
G1 X19.967 Y11.339 E0.06833
G1 X20.330 Y12.174 E0.06864
G1 X20.412 Y12.803 E0.04782
G1 X20.409 Y17.980 E0.39042
G1 X20.280 Y18.683 E0.05396
G1 X19.972 Y19.334 E0.05426
G1 X19.578 Y19.815 E0.04690
G1 X19.086 Y20.195 E0.04690
G1 X18.521 Y20.456 E0.04690
G1 X17.913 Y20.583 E0.04690
G1 X12.482 Y20.589 E0.40956
G1 X11.795 Y20.456 E0.05273
G1 X11.165 Y20.154 E0.05273
G1 X10.683 Y19.760 E0.04690
G1 X10.303 Y19.268 E0.04690
G1 X10.043 Y18.704 E0.04690
G1 X9.916 Y18.095 E0.04690
G1 X9.910 Y12.664 E0.40956
G1 X10.042 Y11.978 E0.05273
G1 X10.344 Y11.347 E0.05273
G1 X10.700 Y10.903 E0.04290
G1 X11.140 Y10.542 E0.04290
G1 X11.644 Y10.279 E0.04290
G1 X12.192 Y10.126 E0.04290
G1 X17.662 Y10.086 E0.41253
G1 X18.471 Y10.222 E0.06188
G1 X18.450 Y10.599 F10800.000
G1 F900
G1 X19.146 Y10.986 E0.06004
G1 X19.674 Y11.581 E0.06004
G1 X19.977 Y12.318 E0.06004
G1 X20.035 Y12.816 E0.03785
G1 X20.032 Y17.962 E0.38807
G1 X19.912 Y18.596 E0.04868
G1 X19.625 Y19.175 E0.04868
G1 X19.279 Y19.579 E0.04013
G1 X18.852 Y19.896 E0.04013
G1 X18.361 Y20.111 E0.04042
G1 X17.838 Y20.211 E0.04013
G1 X12.510 Y20.213 E0.40185
G1 X11.891 Y20.090 E0.04754
G1 X11.324 Y19.807 E0.04783
G1 X10.919 Y19.461 E0.04013
G1 X10.602 Y19.034 E0.04013
G1 X10.387 Y18.543 E0.04042
G1 X10.288 Y18.020 E0.04013
G1 X10.286 Y12.692 E0.40185
G1 X10.408 Y12.073 E0.04754
G1 X10.691 Y11.506 E0.04783
G1 X11.007 Y11.130 E0.03699
G1 X11.393 Y10.828 E0.03699
G1 X11.833 Y10.611 E0.03699
G1 X12.308 Y10.489 E0.03699
G1 X17.662 Y10.463 E0.40378
G1 X18.391 Y10.589 E0.05580
G1 X17.433 Y13.065 F10800.000
M204 S800
G1 F900
G1 X17.433 Y17.615 E0.37044
G1 X12.883 Y17.615 E0.37044
G1 X12.883 Y13.065 E0.37044
G1 X17.373 Y13.065 E0.36556
M204 S1000
G1 X17.330 Y13.452 F10800.000
G1 X17.026 Y13.472
M204 S800
G1 F900
G1 X17.026 Y17.208 E0.30416
G1 X13.290 Y17.208 E0.30416
G1 X13.290 Y13.472 E0.30416
G1 X16.966 Y13.472 E0.29927
M204 S1000
G1 X16.619 Y13.879 F10800.000
M204 S800
G1 F900
G1 X16.619 Y16.801 E0.23787
G1 X13.697 Y16.801 E0.23787
G1 X13.697 Y13.879 E0.23787
G1 X16.559 Y13.879 E0.23299
M204 S1000
G1 X16.212 Y14.287 F10800.000
M204 S800
G1 F900
G1 X16.212 Y16.394 E0.17159
G1 X14.104 Y16.394 E0.17159
G1 X14.104 Y14.287 E0.17159
G1 X16.152 Y14.287 E0.16670
M204 S1000
G1 X15.805 Y14.694 F10800.000
M204 S800
G1 F900
G1 X15.805 Y15.987 E0.10530
G1 X14.511 Y15.987 E0.10530
G1 X14.511 Y14.694 E0.10530
G1 X15.745 Y14.694 E0.10042
M204 S1000
G1 X14.875 Y15.926 F10800.000
M204 S1250
G1 F900
G1 X15.560 Y15.241 E0.08304
G1 X15.560 Y14.938 E0.02596
G1 X15.257 Y14.938 E0.02597
G1 X14.572 Y15.623 E0.08302
M204 S1000
;BEFORE_LAYER_CHANGE
G92 E0.0
;0.6


G1 Z0.600 F10800.000
;AFTER_LAYER_CHANGE
;0.6
G1 X18.772 Y9.514
G1 F900
G1 X19.764 Y10.034 E0.08444
G1 X20.540 Y10.840 E0.08444
G1 X21.024 Y11.850 E0.08444
G1 X21.165 Y12.762 E0.06959
G1 X21.163 Y17.993 E0.39449
G1 X21.022 Y18.835 E0.06440
G1 X20.682 Y19.619 E0.06440
G1 X20.202 Y20.257 E0.06024
G1 X19.589 Y20.769 E0.06024
G1 X18.876 Y21.130 E0.06024
G1 X18.101 Y21.321 E0.06024
G1 X12.436 Y21.342 E0.42720
G1 X11.628 Y21.194 E0.06198
G1 X10.880 Y20.865 E0.06163
G1 X10.242 Y20.384 E0.06024
G1 X9.729 Y19.771 E0.06024
G1 X9.368 Y19.059 E0.06024
G1 X9.178 Y18.283 E0.06024
G1 X9.157 Y12.618 E0.42720
G1 X9.304 Y11.810 E0.06198
G1 X9.634 Y11.062 E0.06163
G1 X10.064 Y10.478 E0.05469
G1 X10.601 Y9.998 E0.05435
G1 X11.230 Y9.636 E0.05469
G1 X11.919 Y9.411 E0.05469
G1 X12.612 Y9.332 E0.05261
G1 X17.663 Y9.332 E0.38089
G1 X18.713 Y9.504 E0.08026
G1 X18.652 Y9.873 F10800.000
G1 F900
G1 X19.561 Y10.354 E0.07761
G1 X20.256 Y11.093 E0.07648
G1 X20.679 Y12.015 E0.07648
G1 X20.789 Y12.783 E0.05853
G1 X20.786 Y17.989 E0.39260
G1 X20.651 Y18.762 E0.05919
G1 X20.325 Y19.481 E0.05952
G1 X19.889 Y20.037 E0.05330
G1 X19.336 Y20.484 E0.05362
G1 X18.696 Y20.794 E0.05362
G1 X18.003 Y20.952 E0.05362
G1 X12.457 Y20.965 E0.41826
G1 X11.711 Y20.825 E0.05723
G1 X11.017 Y20.507 E0.05755
G1 X10.461 Y20.072 E0.05330
G1 X10.014 Y19.518 E0.05362
G1 X9.704 Y18.879 E0.05362
G1 X9.546 Y18.185 E0.05362
G1 X9.533 Y12.639 E0.41826
G1 X9.673 Y11.894 E0.05723
G1 X9.991 Y11.200 E0.05755
G1 X10.384 Y10.687 E0.04871
G1 X10.878 Y10.264 E0.04904
G1 X11.444 Y9.954 E0.04871
G1 X12.062 Y9.766 E0.04871
G1 X12.627 Y9.709 E0.04280
G1 X17.662 Y9.709 E0.37975
G1 X18.593 Y9.863 E0.07111
G1 X18.531 Y10.232 F10800.000
G1 F900
G1 X19.355 Y10.671 E0.07046
G1 X19.967 Y11.339 E0.06833
G1 X20.330 Y12.174 E0.06864
G1 X20.412 Y12.803 E0.04782
G1 X20.409 Y17.980 E0.39042
G1 X20.280 Y18.683 E0.05396
G1 X19.972 Y19.334 E0.05426
G1 X19.578 Y19.815 E0.04690
G1 X19.086 Y20.195 E0.04690
G1 X18.521 Y20.456 E0.04690
G1 X17.913 Y20.583 E0.04690
G1 X12.482 Y20.589 E0.40956
G1 X11.795 Y20.456 E0.05273
G1 X11.165 Y20.154 E0.05273
G1 X10.683 Y19.760 E0.04690
G1 X10.303 Y19.268 E0.04690
G1 X10.043 Y18.704 E0.04690
G1 X9.916 Y18.095 E0.04690
G1 X9.910 Y12.664 E0.40956
G1 X10.042 Y11.978 E0.05273
G1 X10.344 Y11.347 E0.05273
G1 X10.700 Y10.903 E0.04290
G1 X11.140 Y10.542 E0.04290
G1 X11.644 Y10.279 E0.04290
G1 X12.192 Y10.126 E0.04290
G1 X17.662 Y10.086 E0.41253
G1 X18.471 Y10.222 E0.06188
G1 X18.450 Y10.599 F10800.000
G1 F900
G1 X19.146 Y10.986 E0.06004
G1 X19.674 Y11.581 E0.06004
G1 X19.977 Y12.318 E0.06004
G1 X20.035 Y12.816 E0.03785
G1 X20.032 Y17.962 E0.38807
G1 X19.912 Y18.596 E0.04868
G1 X19.625 Y19.175 E0.04868
G1 X19.279 Y19.579 E0.04013
G1 X18.852 Y19.896 E0.04013
G1 X18.361 Y20.111 E0.04042
G1 X17.838 Y20.211 E0.04013
G1 X12.510 Y20.213 E0.40185
G1 X11.891 Y20.090 E0.04754
G1 X11.324 Y19.807 E0.04783
G1 X10.919 Y19.461 E0.04013
G1 X10.602 Y19.034 E0.04013
G1 X10.387 Y18.543 E0.04042
G1 X10.288 Y18.020 E0.04013
G1 X10.286 Y12.692 E0.40185
G1 X10.408 Y12.073 E0.04754
G1 X10.691 Y11.506 E0.04783
G1 X11.007 Y11.130 E0.03699
G1 X11.393 Y10.828 E0.03699
G1 X11.833 Y10.611 E0.03699
G1 X12.308 Y10.489 E0.03699
G1 X17.662 Y10.463 E0.40378
G1 X18.391 Y10.589 E0.05580
G1 X17.433 Y13.065 F10800.000
M204 S800
G1 F900
G1 X17.433 Y17.615 E0.37044
G1 X12.883 Y17.615 E0.37044
