; generated by PrusaSlicer 2.2.0+win64 on 2021-01-29 at 18:33:20 UTC

; 

; external perimeters extrusion width = 0.45mm
; perimeters extrusion width = 0.45mm
; infill extrusion width = 0.45mm
; solid infill extrusion width = 0.45mm
; top infill extrusion width = 0.40mm
; support material extrusion width = 0.35mm
; first layer extrusion width = 0.42mm

M73 P0 R2
M73 Q0 S2
M201 X1000 Y1000 Z1000 E5000 ; sets maximum accelerations, mm/sec^2
M203 X200 Y200 Z12 E120 ; sets maximum feedrates, mm/sec
M204 P1250 R1250 T1250 ; sets acceleration (P, T) and retract acceleration (R), mm/sec^2
M205 X8.00 Y8.00 Z0.40 E1.50 ; sets the jerk limits, mm/sec
M205 S0 T0 ; sets the minimum extruding and travel feed rate, mm/sec
M107
M862.3 P "MK3S" ; printer model check
M862.1 P0.4 ; nozzle diameter check
M115 U3.8.1 ; tell printer latest fw version
G90 ; use absolute coordinates
M83 ; extruder relative mode
M104 S215 ; set extruder temp
M140 S75 ; set bed temp
M190 S75 ; wait for bed temp
M109 S215 ; wait for extruder temp
G28 W ; home all without mesh bed level
G80 ; mesh bed leveling
;G1 Y-3.0 F1000.0 ; go outside print area
;G92 E0.0
;G1 X60.0 E9.0 F1000.0 ; intro line
;G1 X100.0 E12.5 F1000.0 ; intro line
G92 E0.0
M221 S95
G21 ; set units to millimeters
G90 ; use absolute coordinates
M83 ; use relative distances for extrusion
M900 K30 ; Filament gcode
;BEFORE_LAYER_CHANGE
G92 E0.0
;0.2


G1 Z0.200 F10800.000
;AFTER_LAYER_CHANGE
;0.2
G1 X12.868 Y13.050
M204 S1000
G1 F900
G1 X17.448 Y13.050 E0.14360
M73 Q0 S2
M73 P0 R2
G1 X17.448 Y17.630 E0.14360
G1 X12.868 Y17.630 E0.14360
G1 X12.868 Y13.110 E0.14172
G1 X13.254 Y13.154 F10800.000
G1 X13.245 Y13.427
G1 F900
G1 X17.071 Y13.427 E0.11996
G1 X17.071 Y17.253 E0.11996
G1 X13.245 Y17.253 E0.11996
G1 X13.245 Y13.487 E0.11808
G1 X13.622 Y13.804 F10800.000
G1 F900
G1 X16.694 Y13.804 E0.09631
G1 X16.694 Y16.876 E0.09631
G1 X13.622 Y16.876 E0.09631
G1 X13.622 Y13.864 E0.09443
G1 X13.999 Y14.182 F10800.000
G1 F900
G1 X16.317 Y14.182 E0.07266
G1 X16.317 Y16.499 E0.07266
G1 X13.999 Y16.499 E0.07266
G1 X13.999 Y14.242 E0.07078
G1 X14.376 Y14.559 F10800.000
G1 F900
G1 X15.940 Y14.559 E0.04902
G1 X15.940 Y16.122 E0.04902
G1 X14.376 Y16.122 E0.04902
G1 X14.376 Y14.619 E0.04714
G1 X15.883 Y15.470 F10800.000
G1 F900
G1 X15.198 Y14.785 E0.03392
G1 X14.603 Y14.785 E0.02083
G1 X15.713 Y15.896 E0.05497
G1 X15.118 Y15.896 E0.02083
G1 X14.433 Y15.210 E0.03392
M106 S255
;BEFORE_LAYER_CHANGE
G92 E0.0
;0.4


G1 Z0.400 F10800.000
;AFTER_LAYER_CHANGE
;0.4
M104 S210 ; set temperature
G1 X12.883 Y13.065
M204 S800
G1 F900
G1 X17.433 Y13.065 E0.15401
G1 X17.433 Y17.615 E0.15401
G1 X12.883 Y17.615 E0.15401
G1 X12.883 Y13.125 E0.15198
M204 S1000
G1 X13.269 Y13.169 F10800.000
G1 X13.290 Y13.472
M204 S800
G1 F900
G1 X17.026 Y13.472 E0.12645
G1 X17.026 Y17.208 E0.12645
G1 X13.290 Y17.208 E0.12645
G1 X13.290 Y13.532 E0.12442
M204 S1000
G1 X13.697 Y13.879 F10800.000
M204 S800
G1 F900
G1 X16.619 Y13.879 E0.09890
G1 X16.619 Y16.801 E0.09890
G1 X13.697 Y16.801 E0.09890
G1 X13.697 Y13.939 E0.09686
M204 S1000
G1 X14.104 Y14.287 F10800.000
M204 S800
G1 F900
G1 X16.212 Y14.287 E0.07134
G1 X16.212 Y16.394 E0.07134
G1 X14.104 Y16.394 E0.07134
G1 X14.104 Y14.347 E0.06931
M204 S1000
G1 X14.511 Y14.694 F10800.000
M204 S800
G1 F900
G1 X15.805 Y14.694 E0.04378
G1 X15.805 Y15.987 E0.04378
G1 X14.511 Y15.987 E0.04378
G1 X14.511 Y14.754 E0.04175
M204 S1000
G1 X14.875 Y15.926 F10800.000
M204 S1250
G1 F900
G1 X15.560 Y15.241 E0.03452
G1 X15.560 Y14.938 E0.01079
G1 X15.257 Y14.938 E0.01080
G1 X14.572 Y15.623 E0.03452
M204 S1000
;BEFORE_LAYER_CHANGE
G92 E0.0
;0.6


G1 Z0.600 F10800.000
;AFTER_LAYER_CHANGE
;0.6
G1 X12.883 Y17.615
M204 S800
G1 F900
G1 X12.883 Y13.065 E0.15401
G1 X17.433 Y13.065 E0.15401
G1 X17.433 Y17.615 E0.15401
G1 X12.943 Y17.615 E0.15198
M204 S1000
G1 X12.987 Y17.229 F10800.000
G1 X13.290 Y17.208
M204 S800
G1 F900
G1 X13.290 Y13.472 E0.12645
G1 X17.026 Y13.472 E0.12645
G1 X17.026 Y17.208 E0.12645
G1 X13.350 Y17.208 E0.12442
M204 S1000
G1 X13.697 Y16.801 F10800.000
M204 S800
G1 F900
G1 X13.697 Y13.879 E0.09890
G1 X16.619 Y13.879 E0.09890
G1 X16.619 Y16.801 E0.09890
G1 X13.757 Y16.801 E0.09686
M204 S1000
G1 X14.104 Y16.394 F10800.000
M204 S800
G1 F900
G1 X14.104 Y14.287 E0.07134
G1 X16.212 Y14.287 E0.07134
G1 X16.212 Y16.394 E0.07134
G1 X14.164 Y16.394 E0.06931
M204 S1000
G1 X14.511 Y15.987 F10800.000
M204 S800
G1 F900
G1 X14.511 Y14.694 E0.04378
G1 X15.805 Y14.694 E0.04378
G1 X15.805 Y15.987 E0.04378
G1 X14.571 Y15.987 E0.04175
M204 S1000
G1 X15.744 Y15.623 F10800.000
M204 S1250
G1 F900
G1 X15.059 Y14.938 E0.03452
G1 X14.756 Y14.938 E0.01079
G1 X14.756 Y15.241 E0.01080
G1 X15.441 Y15.926 E0.03452
M204 S1000
;BEFORE_LAYER_CHANGE
G92 E0.0
;0.8


G1 Z0.800 F10800.000
;AFTER_LAYER_CHANGE
;0.8
G1 X17.433 Y17.615
M204 S800
G1 F900
G1 X12.883 Y17.615 E0.15401
G1 X12.883 Y13.065 E0.15401
G1 X17.433 Y13.065 E0.15401
G1 X17.433 Y17.555 E0.15198
M204 S1000
G1 X17.047 Y17.512 F10800.000
G1 X17.026 Y17.208
M204 S800
G1 F900
G1 X13.290 Y17.208 E0.12645
G1 X13.290 Y13.472 E0.12645
G1 X17.026 Y13.472 E0.12645
G1 X17.026 Y17.148 E0.12442
M204 S1000
G1 X16.619 Y16.801 F10800.000
M204 S800
G1 F900
G1 X13.697 Y16.801 E0.09890
G1 X13.697 Y13.879 E0.09890
G1 X16.619 Y13.879 E0.09890
G1 X16.619 Y16.741 E0.09686
M204 S1000
G1 X16.212 Y16.394 F10800.000
M204 S800
G1 F900
G1 X14.104 Y16.394 E0.07134
G1 X14.104 Y14.287 E0.07134
G1 X16.212 Y14.287 E0.07134
G1 X16.212 Y16.334 E0.06931
M204 S1000
G1 X15.805 Y15.987 F10800.000
M204 S800
G1 F900
G1 X14.511 Y15.987 E0.04378
G1 X14.511 Y14.694 E0.04378
G1 X15.805 Y14.694 E0.04378
G1 X15.805 Y15.927 E0.04175
M204 S1000
G1 X14.572 Y15.623 F10800.000
M204 S1250
G1 F900
G1 X15.257 Y14.938 E0.03452
G1 X15.560 Y14.938 E0.01080
G1 X15.560 Y15.241 E0.01079
G1 X14.875 Y15.926 E0.03452
M204 S1000
;BEFORE_LAYER_CHANGE
G92 E0.0
;1


G1 Z1.000 F10800.000
;AFTER_LAYER_CHANGE
;1
G1 X12.883 Y17.615
M204 S800
G1 F900
G1 X12.883 Y13.065 E0.15401
G1 X17.433 Y13.065 E0.15401
G1 X17.433 Y17.615 E0.15401
G1 X12.943 Y17.615 E0.15198
M204 S1000
G1 X12.987 Y17.229 F10800.000
G1 X13.290 Y17.208
M204 S800
G1 F900
G1 X13.290 Y13.472 E0.12645
G1 X17.026 Y13.472 E0.12645
G1 X17.026 Y17.208 E0.12645
G1 X13.350 Y17.208 E0.12442
M204 S1000
G1 X13.697 Y16.801 F10800.000
M204 S800
G1 F900
G1 X13.697 Y13.879 E0.09890
G1 X16.619 Y13.879 E0.09890
G1 X16.619 Y16.801 E0.09890
G1 X13.757 Y16.801 E0.09686
M204 S1000
G1 X14.104 Y16.394 F10800.000
M204 S800
G1 F900
G1 X14.104 Y14.287 E0.07134
G1 X16.212 Y14.287 E0.07134
G1 X16.212 Y16.394 E0.07134
G1 X14.164 Y16.394 E0.06931
M204 S1000
G1 X14.511 Y15.987 F10800.000
M204 S800
G1 F900
G1 X14.511 Y14.694 E0.04378
G1 X15.805 Y14.694 E0.04378
G1 X15.805 Y15.987 E0.04378
G1 X14.571 Y15.987 E0.04175
M204 S1000
G1 X15.744 Y15.623 F10800.000
M204 S1250
G1 F900
G1 X15.059 Y14.938 E0.03452
G1 X14.756 Y14.938 E0.01079
G1 X14.756 Y15.241 E0.01080
G1 X15.441 Y15.926 E0.03452
M204 S1000
;BEFORE_LAYER_CHANGE
G92 E0.0
;1.2


G1 Z1.200 F10800.000
;AFTER_LAYER_CHANGE
;1.2
G1 X17.433 Y17.615
M204 S800
G1 F900
G1 X12.883 Y17.615 E0.15401
G1 X12.883 Y13.065 E0.15401
G1 X17.433 Y13.065 E0.15401
G1 X17.433 Y17.555 E0.15198
M204 S1000
G1 X17.047 Y17.512 F10800.000
G1 X17.026 Y17.208
M204 S800
G1 F900
G1 X13.290 Y17.208 E0.12645
G1 X13.290 Y13.472 E0.12645
G1 X17.026 Y13.472 E0.12645
G1 X17.026 Y17.148 E0.12442
M204 S1000
G1 X16.619 Y16.801 F10800.000
M204 S800
G1 F900
G1 X13.697 Y16.801 E0.09890
G1 X13.697 Y13.879 E0.09890
G1 X16.619 Y13.879 E0.09890
G1 X16.619 Y16.741 E0.09686
M204 S1000
G1 X16.212 Y16.394 F10800.000
M204 S800
G1 F900
G1 X14.104 Y16.394 E0.07134
G1 X14.104 Y14.287 E0.07134
G1 X16.212 Y14.287 E0.07134
G1 X16.212 Y16.334 E0.06931
M204 S1000
G1 X15.805 Y15.987 F10800.000
M204 S800
G1 F900
G1 X14.511 Y15.987 E0.04378
G1 X14.511 Y14.694 E0.04378
G1 X15.805 Y14.694 E0.04378
G1 X15.805 Y15.927 E0.04175
M204 S1000
;BEFORE_LAYER_CHANGE
G92 E0.0
;1.4


G1 Z1.400 F10800.000
;AFTER_LAYER_CHANGE
;1.4
G1 X17.433 Y17.615
M204 S800
G1 F900
G1 X12.883 Y17.615 E0.15401
G1 X12.883 Y13.065 E0.15401
G1 X17.433 Y13.065 E0.15401
G1 X17.433 Y17.555 E0.15198
M204 S1000
G1 X17.047 Y17.512 F10800.000
G1 X17.026 Y17.208
M204 S800
G1 F900
G1 X13.290 Y17.208 E0.12645
G1 X13.290 Y13.472 E0.12645
G1 X17.026 Y13.472 E0.12645
G1 X17.026 Y17.148 E0.12442
M204 S1000
G1 X16.619 Y16.801 F10800.000
M204 S800
G1 F900
G1 X13.697 Y16.801 E0.09890
G1 X13.697 Y13.879 E0.09890
G1 X16.619 Y13.879 E0.09890
G1 X16.619 Y16.741 E0.09686
M204 S1000
G1 X16.212 Y16.394 F10800.000
M204 S800
G1 F900
G1 X14.104 Y16.394 E0.07134
G1 X14.104 Y14.287 E0.07134
G1 X16.212 Y14.287 E0.07134
G1 X16.212 Y16.334 E0.06931
M204 S1000
G1 X15.805 Y15.987 F10800.000
M204 S800
G1 F900
G1 X14.511 Y15.987 E0.04378
G1 X14.511 Y14.694 E0.04378
G1 X15.805 Y14.694 E0.04378
G1 X15.805 Y15.927 E0.04175
M204 S1000
G1 X14.572 Y15.623 F10800.000
M204 S1250
G1 F900
G1 X15.257 Y14.938 E0.05867
G1 X15.560 Y14.938 E0.01835
G1 X15.560 Y15.241 E0.01834
G1 X14.875 Y15.926 E0.05868
M204 S1000
;BEFORE_LAYER_CHANGE
G92 E0.0
;1.6


G1 Z1.600 F10800.000
;AFTER_LAYER_CHANGE
;1.6
G1 X12.883 Y17.615
M204 S800
G1 F900
G1 X12.883 Y13.065 E0.15401
G1 X17.433 Y13.065 E0.15401
G1 X17.433 Y17.615 E0.15401
G1 X12.943 Y17.615 E0.15198
M204 S1000
G1 X12.987 Y17.229 F10800.000
G1 X13.290 Y17.208
M204 S800
G1 F900
G1 X13.290 Y13.472 E0.12645
G1 X17.026 Y13.472 E0.12645
G1 X17.026 Y17.208 E0.12645
G1 X13.350 Y17.208 E0.12442
M204 S1000
G1 X13.697 Y16.801 F10800.000
M204 S800
G1 F900
G1 X13.697 Y13.879 E0.09890
G1 X16.619 Y13.879 E0.09890
G1 X16.619 Y16.801 E0.09890
G1 X13.757 Y16.801 E0.09686
M204 S1000
G1 X14.104 Y16.394 F10800.000
M204 S800
G1 F900
G1 X14.104 Y14.287 E0.07134
G1 X16.212 Y14.287 E0.07134
G1 X16.212 Y16.394 E0.07134
G1 X14.164 Y16.394 E0.06931
M204 S1000
G1 X14.511 Y15.987 F10800.000
M204 S800
G1 F900
G1 X14.511 Y14.694 E0.04378
G1 X15.805 Y14.694 E0.04378
G1 X15.805 Y15.987 E0.04378
G1 X14.571 Y15.987 E0.04175
M204 S1000
;BEFORE_LAYER_CHANGE
G92 E0.0
;1.8


G1 Z1.800 F10800.000
;AFTER_LAYER_CHANGE
;1.8
G1 X12.883 Y17.615
M204 S800
G1 F900
G1 X12.883 Y13.065 E0.15401
G1 X17.433 Y13.065 E0.15401
G1 X17.433 Y17.615 E0.15401
G1 X12.943 Y17.615 E0.15198
M204 S1000
G1 X12.987 Y17.229 F10800.000
G1 X13.290 Y17.208
M204 S800
G1 F900
G1 X13.290 Y13.472 E0.12645
G1 X17.026 Y13.472 E0.12645
G1 X17.026 Y17.208 E0.12645
G1 X13.350 Y17.208 E0.12442
M204 S1000
G1 X13.697 Y16.801 F10800.000
M204 S800
G1 F900
G1 X13.697 Y13.879 E0.09890
G1 X16.619 Y13.879 E0.09890
G1 X16.619 Y16.801 E0.09890
G1 X13.757 Y16.801 E0.09686
M204 S1000
G1 X14.104 Y16.394 F10800.000
M204 S800
G1 F900
G1 X14.104 Y14.287 E0.07134
G1 X16.212 Y14.287 E0.07134
G1 X16.212 Y16.394 E0.07134
G1 X14.164 Y16.394 E0.06931
M204 S1000
G1 X14.511 Y15.987 F10800.000
M204 S800
G1 F900
G1 X14.511 Y14.694 E0.04378
G1 X15.805 Y14.694 E0.04378
G1 X15.805 Y15.987 E0.04378
G1 X14.571 Y15.987 E0.04175
M204 S1000
G1 X15.744 Y15.623 F10800.000
M204 S1250
G1 F900
G1 X15.059 Y14.938 E0.05868
G1 X14.756 Y14.938 E0.01834
G1 X14.756 Y15.241 E0.01835
G1 X15.441 Y15.926 E0.05867
M204 S1000
;BEFORE_LAYER_CHANGE
G92 E0.0
;2


G1 Z2.000 F10800.000
;AFTER_LAYER_CHANGE
;2
G1 X17.433 Y17.615
M204 S800
G1 F900
G1 X12.883 Y17.615 E0.15401
G1 X12.883 Y13.065 E0.15401
G1 X17.433 Y13.065 E0.15401
G1 X17.433 Y17.555 E0.15198
M204 S1000
G1 X17.047 Y17.512 F10800.000
G1 X17.026 Y17.208
M204 S800
G1 F900
G1 X13.290 Y17.208 E0.12645
G1 X13.290 Y13.472 E0.12645
G1 X17.026 Y13.472 E0.12645
G1 X17.026 Y17.148 E0.12442
M204 S1000
G1 X16.619 Y16.801 F10800.000
M204 S800
G1 F900
G1 X13.697 Y16.801 E0.09890
G1 X13.697 Y13.879 E0.09890
G1 X16.619 Y13.879 E0.09890
G1 X16.619 Y16.741 E0.09686
M204 S1000
G1 X16.212 Y16.394 F10800.000
M204 S800
G1 F900
G1 X14.104 Y16.394 E0.07134
G1 X14.104 Y14.287 E0.07134
G1 X16.212 Y14.287 E0.07134
G1 X16.212 Y16.334 E0.06931
M204 S1000
G1 X15.805 Y15.987 F10800.000
M204 S800
G1 F900
G1 X14.511 Y15.987 E0.04378
G1 X14.511 Y14.694 E0.04378
G1 X15.805 Y14.694 E0.04378
G1 X15.805 Y15.927 E0.04175
M204 S1000
;BEFORE_LAYER_CHANGE
G92 E0.0
;2.2


G1 Z2.200 F10800.000
;AFTER_LAYER_CHANGE
;2.2
G1 X17.433 Y17.615
M204 S800
G1 F900
G1 X12.883 Y17.615 E0.15401
G1 X12.883 Y13.065 E0.15401
G1 X17.433 Y13.065 E0.15401
G1 X17.433 Y17.555 E0.15198
M204 S1000
G1 X17.047 Y17.512 F10800.000
G1 X17.026 Y17.208
M204 S800
G1 F900
G1 X13.290 Y17.208 E0.12645
G1 X13.290 Y13.472 E0.12645
G1 X17.026 Y13.472 E0.12645
G1 X17.026 Y17.148 E0.12442
M204 S1000
G1 X16.619 Y16.801 F10800.000
M204 S800
G1 F900
G1 X13.697 Y16.801 E0.09890
G1 X13.697 Y13.879 E0.09890
G1 X16.619 Y13.879 E0.09890
G1 X16.619 Y16.741 E0.09686
M204 S1000
G1 X16.212 Y16.394 F10800.000
M204 S800
G1 F900
G1 X14.104 Y16.394 E0.07134
G1 X14.104 Y14.287 E0.07134
G1 X16.212 Y14.287 E0.07134
G1 X16.212 Y16.334 E0.06931
M204 S1000
G1 X15.805 Y15.987 F10800.000
M204 S800
G1 F900
G1 X14.511 Y15.987 E0.04378
G1 X14.511 Y14.694 E0.04378
G1 X15.805 Y14.694 E0.04378
G1 X15.805 Y15.927 E0.04175
M204 S1000
G1 X14.572 Y15.623 F10800.000
M204 S1250
G1 F900
G1 X15.257 Y14.938 E0.05867
G1 X15.560 Y14.938 E0.01835
G1 X15.560 Y15.241 E0.01834
G1 X14.875 Y15.926 E0.05868
M204 S1000
;BEFORE_LAYER_CHANGE
G92 E0.0
;2.4


G1 Z2.400 F10800.000
;AFTER_LAYER_CHANGE
;2.4
G1 X12.883 Y17.615
M204 S800
G1 F900
G1 X12.883 Y13.065 E0.15401
G1 X17.433 Y13.065 E0.15401
G1 X17.433 Y17.615 E0.15401
G1 X12.943 Y17.615 E0.15198
M204 S1000
G1 X12.987 Y17.229 F10800.000
G1 X13.290 Y17.208
M204 S800
G1 F900
G1 X13.290 Y13.472 E0.12645
G1 X17.026 Y13.472 E0.12645
G1 X17.026 Y17.208 E0.12645
G1 X13.350 Y17.208 E0.12442
M204 S1000
G1 X13.697 Y16.801 F10800.000
M204 S800
G1 F900
G1 X13.697 Y13.879 E0.09890
G1 X16.619 Y13.879 E0.09890
G1 X16.619 Y16.801 E0.09890
G1 X13.757 Y16.801 E0.09686
M204 S1000
G1 X14.104 Y16.394 F10800.000
M204 S800
G1 F900
G1 X14.104 Y14.287 E0.07134
G1 X16.212 Y14.287 E0.07134
G1 X16.212 Y16.394 E0.07134
G1 X14.164 Y16.394 E0.06931
M204 S1000
G1 X14.511 Y15.987 F10800.000
M204 S800
G1 F900
G1 X14.511 Y14.694 E0.04378
G1 X15.805 Y14.694 E0.04378
G1 X15.805 Y15.987 E0.04378
G1 X14.571 Y15.987 E0.04175
M204 S1000
;BEFORE_LAYER_CHANGE
G92 E0.0
;2.6


G1 Z2.600 F10800.000
;AFTER_LAYER_CHANGE
;2.6
G1 X12.883 Y17.615
M204 S800
G1 F900
G1 X12.883 Y13.065 E0.15401
G1 X17.433 Y13.065 E0.15401
G1 X17.433 Y17.615 E0.15401
G1 X12.943 Y17.615 E0.15198
M204 S1000
G1 X12.987 Y17.229 F10800.000
G1 X13.290 Y17.208
M204 S800
G1 F900
G1 X13.290 Y13.472 E0.12645
G1 X17.026 Y13.472 E0.12645
G1 X17.026 Y17.208 E0.12645
G1 X13.350 Y17.208 E0.12442
M204 S1000
G1 X13.697 Y16.801 F10800.000
M204 S800
G1 F900
G1 X13.697 Y13.879 E0.09890
G1 X16.619 Y13.879 E0.09890
G1 X16.619 Y16.801 E0.09890
G1 X13.757 Y16.801 E0.09686
M204 S1000
G1 X14.104 Y16.394 F10800.000
M204 S800
G1 F900
G1 X14.104 Y14.287 E0.07134
G1 X16.212 Y14.287 E0.07134
G1 X16.212 Y16.394 E0.07134
G1 X14.164 Y16.394 E0.06931
M204 S1000
G1 X14.511 Y15.987 F10800.000
M204 S800
G1 F900
G1 X14.511 Y14.694 E0.04378
G1 X15.805 Y14.694 E0.04378
G1 X15.805 Y15.987 E0.04378
G1 X14.571 Y15.987 E0.04175
M204 S1000
G1 X15.744 Y15.623 F10800.000
M204 S1250
G1 F900
G1 X15.059 Y14.938 E0.05868
G1 X14.756 Y14.938 E0.01834
G1 X14.756 Y15.241 E0.01835
G1 X15.441 Y15.926 E0.05867
M204 S1000
;BEFORE_LAYER_CHANGE
G92 E0.0
;2.8


G1 Z2.800 F10800.000
;AFTER_LAYER_CHANGE
;2.8
G1 X17.433 Y17.615
M204 S800
G1 F900
G1 X12.883 Y17.615 E0.15401
G1 X12.883 Y13.065 E0.15401
G1 X17.433 Y13.065 E0.15401
G1 X17.433 Y17.555 E0.15198
M204 S1000
G1 X17.047 Y17.512 F10800.000
G1 X17.026 Y17.208
M204 S800
G1 F900
G1 X13.290 Y17.208 E0.12645
G1 X13.290 Y13.472 E0.12645
G1 X17.026 Y13.472 E0.12645
G1 X17.026 Y17.148 E0.12442
M204 S1000
G1 X16.619 Y16.801 F10800.000
M204 S800
G1 F900
G1 X13.697 Y16.801 E0.09890
G1 X13.697 Y13.879 E0.09890
G1 X16.619 Y13.879 E0.09890
G1 X16.619 Y16.741 E0.09686
M204 S1000
G1 X16.212 Y16.394 F10800.000
M204 S800
G1 F900
G1 X14.104 Y16.394 E0.07134
M73 Q52 S1
M73 P52 R1
G1 X14.104 Y14.287 E0.07134
G1 X16.212 Y14.287 E0.07134
G1 X16.212 Y16.334 E0.06931
M204 S1000
G1 X15.805 Y15.987 F10800.000
