; generated by PrusaSlicer 2.2.0+win64 on 2021-07-15 at 18:57:55 UTC

; 

; external perimeters extrusion width = 6.75mm
; perimeters extrusion width = 6.75mm
; infill extrusion width = 6.75mm
; solid infill extrusion width = 6.75mm
; top infill extrusion width = 4.00mm

M107
M104 S200 ; set temperature
M109 S200 ; set temperature and wait for it to be reached
G21 ; set units to millimeters
G90 ; use absolute coordinates
M83 ; use relative distances for extrusion
; Filament gcode
G1 Z2.000 F1200.000
G1 X32.744 Y48.256
G1 F720.000
G1 X38.462 Y44.376 E0.06415
G1 X39.491 Y43.857 E0.01070
G1 X48.173 Y40.029 E0.08807
G1 X49.245 Y39.710 E0.01038
G1 X59.937 Y37.100 E0.10216
G1 X71.179 Y36.128 E0.10474
G1 X80.296 Y36.919 E0.08495
G1 X81.684 Y37.132 E0.01303
G1 X82.841 Y37.438 E0.01110
G1 X90.977 Y40.073 E0.07939
G1 X92.411 Y40.643 E0.01432
G1 X99.390 Y44.736 E0.07510
G1 X100.811 Y45.743 E0.01617
G1 X101.964 Y46.819 E0.01464
G1 X107.457 Y52.680 E0.07456
G1 X108.266 Y53.653 E0.01175
G1 X109.246 Y55.186 E0.01689
G1 X111.845 Y60.125 E0.05180
G1 X112.324 Y61.174 E0.01070
G1 X112.791 Y62.580 E0.01376
G1 X114.397 Y68.951 E0.06098
G1 X114.558 Y70.641 E0.01576
G1 X115.068 Y94.731 E0.22366
G1 X114.999 Y96.025 E0.01203
G1 X114.359 Y102.051 E0.05624
G1 X114.170 Y103.205 E0.01086
G1 X113.800 Y104.560 E0.01303
G1 X112.127 Y109.511 E0.04851
G1 X111.685 Y110.604 E0.01094
G1 X110.979 Y111.917 E0.01384
G1 X107.822 Y116.983 E0.05541
G1 X107.175 Y117.906 E0.01046
G1 X106.224 Y118.998 E0.01344
G1 X101.852 Y123.341 E0.05721
G1 X100.436 Y124.428 E0.01657
G1 X94.246 Y128.348 E0.06802
G1 X93.119 Y128.884 E0.01159
G1 X86.953 Y131.372 E0.06171
G1 X84.850 Y131.888 E0.02010
G1 X72.855 Y133.681 E0.11258
G1 X71.152 Y133.799 E0.01584
G1 X60.941 Y133.038 E0.09505
G1 X50.252 Y130.676 E0.10161
G1 X49.083 Y130.349 E0.01126
G1 X40.120 Y126.588 E0.09023
G1 X39.097 Y126.096 E0.01054
G1 X31.330 Y121.039 E0.08603
G1 X30.115 Y120.117 E0.01416
G1 X29.099 Y119.135 E0.01311
G1 X25.014 Y114.703 E0.05596
G1 X24.225 Y113.735 E0.01159
G1 X23.414 Y112.474 E0.01392
G1 X20.299 Y106.727 E0.06068
G1 X19.689 Y104.967 E0.01729
G1 X15.479 Y88.494 E0.15783
G1 X15.214 Y87.036 E0.01376
G1 X15.126 Y85.565 E0.01368
G1 X15.199 Y84.232 E0.01239
G1 X15.415 Y82.915 E0.01239
G1 X19.229 Y66.171 E0.15941
G1 X19.814 Y64.347 E0.01777
G1 X22.768 Y58.559 E0.06032
G1 X23.562 Y57.258 E0.01416
G1 X24.317 Y56.285 E0.01143
G1 X28.307 Y51.736 E0.05617
G1 X29.398 Y50.645 E0.01432
G1 X30.538 Y49.753 E0.01344
G1 X31.999 Y48.762 E0.01639
G1 X40.982 Y61.864 F1200.000
G1 F720.000
G1 X46.274 Y58.236 E0.05956
G1 X53.387 Y55.060 E0.07231
G1 X62.586 Y52.784 E0.08796
G1 X71.156 Y52.037 E0.07985
G1 X78.396 Y52.705 E0.06750
G1 X85.663 Y55.059 E0.07090
G1 X90.731 Y58.077 E0.05476
G1 X95.462 Y63.123 E0.06421
G1 X97.531 Y67.054 E0.04123
G1 X98.655 Y71.369 E0.04140
G1 X98.243 Y84.572 E0.12262
G1 X99.156 Y94.696 E0.09436
G1 X98.607 Y99.869 E0.04828
G1 X97.246 Y103.903 E0.03952
G1 X94.605 Y108.139 E0.04634
G1 X91.405 Y111.338 E0.04200
G1 X86.749 Y114.316 E0.05131
G1 X82.020 Y116.241 E0.04739
G1 X71.025 Y117.885 E0.10320
G1 X63.372 Y117.321 E0.07123
G1 X54.077 Y115.243 E0.08841
G1 X46.641 Y112.089 E0.07497
G1 X40.483 Y108.035 E0.06843
G1 X37.080 Y104.343 E0.04661
G1 X34.949 Y100.489 E0.04089
G1 X31.119 Y85.515 E0.14347
G1 X34.599 Y70.255 E0.14528
G1 X36.632 Y66.348 E0.04088
G1 X39.935 Y62.582 E0.04650
G1 X40.240 Y62.373 E0.00343
G1 X96.590 Y70.966 F1200.000
G1 F720.000
G1 X86.993 Y61.368 E0.13491
G1 X83.695 Y59.404 E0.03815
G1 X77.437 Y57.377 E0.06539
G1 X73.023 Y56.970 E0.04406
G1 X93.716 Y77.663 E0.29088
G1 X93.496 Y84.712 E0.07010
G1 X93.724 Y87.243 E0.02526
G1 X63.908 Y57.428 E0.41911
G1 X63.366 Y57.475 E0.00541
G1 X56.165 Y59.256 E0.07373
G1 X94.122 Y97.213 E0.53356
G1 X93.948 Y98.848 E0.01634
G1 X92.931 Y101.864 E0.03163
G1 X91.499 Y104.161 E0.02691
G1 X49.379 Y62.042 E0.59207
G1 X48.600 Y62.389 E0.00848
G1 X43.590 Y65.824 E0.06038
G1 X86.569 Y108.804 E0.60416
G1 X84.560 Y110.089 E0.02371
G1 X80.758 Y111.637 E0.04080
G1 X79.951 Y111.757 E0.00811
G1 X39.431 Y71.238 E0.56957
G1 X39.085 Y71.903 E0.00745
G1 X37.496 Y78.874 E0.07107
G1 X71.624 Y113.002 E0.47973
G1 X70.847 Y113.118 E0.00781
G1 X64.067 Y112.618 E0.06757
G1 X60.978 Y111.928 E0.03147
G1 X36.510 Y87.460 E0.34394
G1 X39.391 Y98.726 E0.11558
G1 X40.860 Y101.382 E0.03017
G1 X51.618 Y112.140 E0.15122
G1 Z4.000 F1200.000
G1 X50.495 Y113.929
G1 F720.000
G1 X39.162 Y106.814 E0.12421
G1 X34.854 Y103.385 E0.05112
G1 X32.426 Y100.188 E0.03727
G1 X30.760 Y95.935 E0.04239
G1 X29.880 Y81.204 E0.13698
G1 X30.162 Y76.714 E0.04176
G1 X31.525 Y71.739 E0.04788
G1 X33.282 Y68.709 E0.03251
G1 X36.142 Y65.696 E0.03856
G1 X57.378 Y51.570 E0.23675
G1 X62.913 Y49.392 E0.05522
G1 X68.105 Y48.778 E0.04853
G1 X73.336 Y49.755 E0.04940
G1 X79.637 Y52.569 E0.06405
G1 X92.823 Y60.129 E0.14109
G1 X98.463 Y65.520 E0.07242
G1 X100.311 Y69.040 E0.03690
G1 X101.134 Y72.572 E0.03366
G1 X101.083 Y77.200 E0.04297
G1 X99.647 Y84.411 E0.06824
G1 X101.457 Y95.122 E0.10084
G1 X101.134 Y98.481 E0.03132
G1 X100.020 Y101.755 E0.03210
G1 X94.920 Y108.068 E0.07534
G1 X77.139 Y118.834 E0.19295
G1 X72.742 Y120.544 E0.04379
G1 X68.690 Y121.202 E0.03811
G1 X63.443 Y120.633 E0.04899
G1 X57.609 Y118.395 E0.05800
G1 X51.257 Y114.407 E0.06961
G1 X32.102 Y76.809 F1200.000
G1 F720.000
G1 X40.261 Y68.650 E0.11581
G1 X59.583 Y55.797 E0.23290
G1 X64.078 Y54.028 E0.04848
G1 X64.611 Y53.965 E0.00538
G1 X34.783 Y83.792 E0.42334
G1 X35.329 Y92.912 E0.09168
G1 X73.307 Y54.933 E0.53902
G1 X77.486 Y56.800 E0.04593
G1 X79.786 Y58.119 E0.02661
G1 X38.093 Y99.812 E0.59175
G1 X38.270 Y100.045 E0.00294
G1 X41.907 Y102.940 E0.04665
G1 X43.579 Y103.990 E0.01981
G1 X85.929 Y61.641 E0.60106
G1 X89.965 Y63.955 E0.04669
G1 X91.659 Y65.575 E0.02353
G1 X49.517 Y107.717 E0.59813
G1 X55.454 Y111.445 E0.07035
G1 X95.900 Y70.999 E0.57405
G1 X96.388 Y73.091 E0.02156
G1 X96.348 Y76.707 E0.03629
G1 X95.475 Y81.088 E0.04483
G1 X61.683 Y114.880 E0.47961
G1 X64.566 Y115.987 E0.03099
G1 X68.563 Y116.420 E0.04035
G1 X70.049 Y116.179 E0.01511
G1 X95.848 Y90.380 E0.36616
G1 X96.678 Y95.293 E0.05001
G1 X96.468 Y97.477 E0.02202
G1 X95.804 Y99.431 E0.02071
G1 X93.037 Y102.855 E0.04418
G1 X82.554 Y113.339 E0.14880
G1 Z6.000 F1200.000
G1 X83.818 Y115.287
G1 F720.000
G1 X73.893 Y121.728 E0.10983
G1 X70.407 Y123.243 E0.03528
G1 X66.884 Y123.726 E0.03300
G1 X62.981 Y123.056 E0.03677
G1 X58.485 Y120.877 E0.04637
G1 X46.574 Y110.879 E0.14436
G1 X35.699 Y104.887 E0.11525
G1 X31.506 Y101.420 E0.05050
G1 X29.596 Y98.445 E0.03282
G1 X28.594 Y95.020 E0.03313
G1 X29.223 Y85.481 E0.08873
G1 X28.260 Y78.291 E0.06734
G1 X29.571 Y71.931 E0.06027
G1 X33.250 Y67.302 E0.05489
G1 X46.025 Y59.552 E0.13870
G1 X58.652 Y48.739 E0.15431
G1 X62.612 Y46.891 E0.04056
G1 X66.522 Y46.284 E0.03673
G1 X70.036 Y46.818 E0.03299
G1 X73.971 Y48.600 E0.04010
G1 X84.017 Y55.474 E0.11299
G1 X95.367 Y61.727 E0.12029
G1 X100.178 Y66.073 E0.06018
G1 X101.963 Y69.229 E0.03366
G1 X102.748 Y72.262 E0.02909
G1 X102.696 Y76.622 E0.04047
G1 X100.772 Y84.380 E0.07419
G1 X103.083 Y95.430 E0.10479
G1 X102.760 Y98.493 E0.02859
G1 X101.696 Y101.331 E0.02814
G1 X97.436 Y106.449 E0.06181
G1 X84.573 Y114.797 E0.14234
G1 X30.609 Y95.647 F1200.000
G1 F900.000
G1 X34.447 Y99.484 E0.02952
G1 X37.600 Y102.092 E0.02225
G1 X48.050 Y107.850 E0.06489
G1 X32.168 Y91.968 E0.12215
G1 X32.492 Y87.055 E0.02678
G1 X65.513 Y120.076 E0.25398
G1 X66.942 Y120.321 E0.00788
G1 X69.490 Y119.972 E0.01399
G1 X70.296 Y119.621 E0.00478
G1 X32.072 Y81.397 E0.29400
G1 X31.672 Y78.410 E0.01639
G1 X32.125 Y76.213 E0.01220
G1 X73.732 Y117.820 E0.32002
G1 X76.908 Y115.759 E0.02059
G1 X33.521 Y72.371 E0.33371
G1 X35.510 Y69.867 E0.01739
G1 X35.973 Y69.586 E0.00294
G1 X80.084 Y113.697 E0.33928
G1 X83.261 Y111.636 E0.02059
G1 X39.233 Y67.609 E0.33863
G1 X42.493 Y65.631 E0.02074
G1 X86.437 Y109.575 E0.33799
G1 X89.613 Y107.514 E0.02059
G1 X45.753 Y63.653 E0.33735
G1 X48.005 Y62.287 E0.01433
G1 X48.877 Y61.540 E0.00624
G1 X92.789 Y105.453 E0.33775
G1 X95.176 Y103.904 E0.01547
G1 X95.767 Y103.193 E0.00503
G1 X51.699 Y59.125 E0.33895
G1 X54.520 Y56.709 E0.02020
G1 X98.147 Y100.335 E0.33555
G1 X98.745 Y99.616 E0.00509
G1 X99.458 Y97.713 E0.01105
G1 X99.582 Y96.534 E0.00645
G1 X57.341 Y54.293 E0.32489
G1 X60.163 Y51.877 E0.02020
G1 X98.568 Y90.282 E0.29539
G1 X97.321 Y84.316 E0.03315
G1 X97.424 Y83.900 E0.00233
G1 X63.658 Y50.135 E0.25970
G1 X66.528 Y49.689 E0.01579
G1 X68.795 Y50.034 E0.01247
G1 X98.465 Y79.704 E0.22820
G1 X99.336 Y76.191 E0.01968
G1 X99.346 Y75.347 E0.00459
G1 X82.453 Y58.455 E0.12992
G1 X93.401 Y64.486 E0.06798
G1 X96.727 Y67.491 E0.02438
G1 X100.733 Y71.497 E0.03081
M106 S206.55
G1 Z6.000 F1200.000
G1 F720.000
G1 Z6.010 X103.756 Y71.981 E0.01173
G1 Z6.047 X103.736 Y76.461 E0.04158
G1 Z6.113 X101.793 Y84.360 E0.07551
G1 Z6.206 X104.077 Y95.483 E0.10541
G1 Z6.254 X102.876 Y101.164 E0.05390
G1 Z6.280 X101.229 Y103.888 E0.02954
G1 Z6.307 X98.886 Y106.228 E0.03074
G1 Z6.444 X84.286 Y114.663 E0.15652
G1 Z6.568 X72.158 Y123.712 E0.14046
G1 Z6.599 X68.618 Y125.106 E0.03532
G1 Z6.620 X66.024 Y125.393 E0.02422
G1 Z6.651 X62.292 Y124.729 E0.03518
G1 Z6.687 X58.330 Y122.732 E0.04119
G1 Z6.822 X46.303 Y111.419 E0.15327
G1 Z6.936 X34.124 Y104.601 E0.12956
G1 Z6.982 X29.802 Y100.968 E0.05242
G1 Z7.008 X28.105 Y98.313 E0.02924
G1 Z7.035 X27.165 Y95.184 E0.03033
G1 Z7.063 X27.092 Y91.776 E0.03164
G1 Z7.114 X28.369 Y85.662 E0.05798
G1 Z7.182 X26.900 Y77.391 E0.07797
G1 Z7.224 X27.959 Y72.361 E0.04771
G1 Z7.271 X31.406 Y67.876 E0.05250
G1 Z7.406 X45.495 Y59.214 E0.15353
G1 Z7.549 X58.204 Y47.022 E0.16348
G1 Z7.582 X61.833 Y45.247 E0.03750
G1 Z7.613 X65.523 Y44.646 E0.03471
G1 Z7.641 X68.933 Y45.175 E0.03203
G1 Z7.670 X72.204 Y46.655 E0.03333
G1 Z7.789 X83.905 Y55.140 E0.13416
G1 Z7.903 X96.343 Y61.613 E0.13016
G1 Z7.953 X100.992 Y65.638 E0.05708
G1 Z7.984 X102.904 Y68.865 E0.03481
G1 Z8.000 X103.423 Y70.762 E0.01826
G1 Z8.000 F1200.000
G1 F720.000
G1 Z8.009 X103.991 Y71.724 E0.00999
G1 Z8.047 X104.071 Y76.462 E0.04398
G1 Z8.111 X102.666 Y84.363 E0.07449
G1 Z8.204 X104.363 Y95.742 E0.10679
G1 Z8.236 X103.858 Y99.728 E0.03730
G1 Z8.264 X102.626 Y102.939 E0.03192
G1 Z8.292 X100.690 Y105.781 E0.03192
G1 Z8.324 X97.758 Y108.482 E0.03700
G1 Z8.453 X83.713 Y116.235 E0.14892
G1 Z8.565 X72.070 Y123.947 E0.12964
G1 Z8.602 X67.763 Y125.576 E0.04274
G1 Z8.629 X64.394 Y125.931 E0.03145
G1 Z8.665 X60.031 Y125.174 E0.04111
G1 Z8.700 X56.168 Y123.212 E0.04022
G1 Z8.829 X44.526 Y112.148 E0.14909
G1 Z8.936 X33.436 Y104.899 E0.12298
G1 Z8.983 X29.102 Y100.879 E0.05487
G1 Z9.011 X27.284 Y98.008 E0.03154
G1 Z9.038 X26.268 Y94.777 E0.03144
G1 Z9.065 X26.175 Y91.339 E0.03192
G1 Z9.112 X27.336 Y85.683 E0.05360
G1 Z9.175 X25.995 Y77.893 E0.07337
G1 Z9.223 X27.383 Y72.200 E0.05439
G1 Z9.276 X31.547 Y67.038 E0.06156
G1 Z9.395 X43.667 Y58.573 E0.13723
G1 Z9.533 X55.985 Y46.612 E0.15938
G1 Z9.572 X60.361 Y44.612 E0.04466
G1 Z9.607 X64.685 Y44.137 E0.04038
G1 Z9.639 X68.589 Y44.882 E0.03689
G1 Z9.677 X72.933 Y46.828 E0.04418
G1 Z9.786 X84.354 Y54.166 E0.12601
G1 Z9.891 X96.001 Y60.034 E0.12106
G1 Z9.946 X101.063 Y64.523 E0.06280
G1 Z9.976 X102.956 Y67.841 E0.03546
G1 Z10.000 X103.714 Y70.685 E0.02732
G1 Z10.000 F1200.000
G1 F720.000
G1 Z10.179 X103.814 Y93.044 E0.20747
G1 Z10.232 X103.386 Y99.712 E0.06202
G1 Z10.270 X102.110 Y104.330 E0.04448
G1 Z10.311 X99.545 Y108.723 E0.04721
G1 Z10.347 X96.317 Y111.839 E0.04165
G1 Z10.396 X91.018 Y114.965 E0.05710
G1 Z10.544 X74.135 Y122.392 E0.17121
G1 Z10.606 X66.729 Y124.764 E0.07219
G1 Z10.654 X60.751 Y125.537 E0.05595
G1 Z10.697 X55.496 Y124.684 E0.04942
G1 Z10.739 X50.855 Y122.175 E0.04897
G1 Z10.972 X30.026 Y101.814 E0.27038
G1 Z11.009 X27.420 Y97.968 E0.04312
G1 Z11.042 X25.900 Y94.082 E0.03874
G1 Z11.070 X25.536 Y90.603 E0.03246
G1 Z11.110 X26.140 Y85.643 E0.04639
G1 Z11.157 X25.416 Y79.859 E0.05410
G1 Z11.193 X26.119 Y75.351 E0.04236
G1 Z11.238 X28.672 Y70.379 E0.05188
G1 Z11.452 X47.035 Y50.905 E0.24846
G1 Z11.519 X53.792 Y45.945 E0.07781
G1 Z11.576 X60.726 Y44.608 E0.06555
G1 Z11.621 X66.406 Y45.365 E0.05319
G1 Z11.701 X75.919 Y48.454 E0.09284
G1 Z11.845 X92.377 Y55.514 E0.16623
G1 Z11.909 X98.781 Y60.310 E0.07427
G1 Z11.948 X101.458 Y64.396 E0.04535
G1 Z11.990 X103.037 Y69.413 E0.04882
G1 Z12.000 X103.079 Y70.706 E0.01200
M106 S204
G1 Z12.000 F1200.000
G1 F720.000
G1 Z12.107 X103.875 Y84.425 E0.12730
G1 Z12.240 X102.246 Y101.333 E0.15768
G1 Z12.285 X101.089 Y107.020 E0.05387
G1 Z12.322 X99.224 Y111.287 E0.04322
G1 Z12.352 X96.756 Y114.376 E0.03670
G1 Z12.389 X92.943 Y117.094 E0.04347
G1 Z12.447 X85.961 Y119.635 E0.06897
G1 Z12.666 X58.459 Y125.167 E0.26040
G1 Z12.699 X54.303 Y125.521 E0.03872
G1 Z12.728 X50.666 Y124.943 E0.03418
G1 Z12.766 X46.267 Y122.686 E0.04589
G1 Z12.813 X42.010 Y118.493 E0.05546
G1 Z13.026 X26.864 Y95.820 E0.25310
G1 Z13.068 X25.133 Y90.696 E0.05020
G1 Z13.133 X24.830 Y82.326 E0.07774
G1 Z13.167 X25.458 Y78.083 E0.03982
G1 Z13.207 X27.461 Y73.416 E0.04714
G1 Z13.368 X38.455 Y55.956 E0.19153
G1 Z13.432 X43.556 Y49.467 E0.07661
G1 Z13.483 X48.920 Y45.760 E0.06053
G1 Z13.529 X54.637 Y44.765 E0.05386
G1 Z13.804 X89.272 Y51.132 E0.32689
G1 Z13.861 X95.731 Y54.694 E0.06847
G1 Z13.912 X99.658 Y59.888 E0.06044
G1 Z13.968 X101.713 Y66.780 E0.06676
G1 Z14.000 X102.207 Y70.812 E0.03771
M106 S201.45
G1 Z14.000 F1200.000
G1 F720.000
G1 Z14.027 X101.836 Y74.484 E0.03334
G1 Z14.108 X104.424 Y85.004 E0.10056
G1 Z14.171 X102.356 Y93.047 E0.07709
G1 Z14.279 X100.731 Y107.327 E0.13341
G1 Z14.317 X99.505 Y112.216 E0.04679
G1 Z14.356 X96.907 Y116.685 E0.04798
G1 Z14.394 X92.915 Y119.829 E0.04717
G1 Z14.449 X85.790 Y121.723 E0.06843
G1 Z14.582 X68.161 Y121.663 E0.16364
G1 Z14.691 X54.116 Y125.750 E0.13579
G1 Z14.728 X49.345 Y126.247 E0.04452
G1 Z14.753 X45.996 Y125.664 E0.03156
G1 Z14.775 X43.334 Y124.374 E0.02746
G1 Z14.798 X40.998 Y122.400 E0.02839
G1 Z14.837 X38.052 Y118.241 E0.04731
G1 Z14.949 X32.203 Y104.486 E0.13874
G1 Z15.060 X25.256 Y91.453 E0.13709
G1 Z15.101 X24.089 Y86.102 E0.05084
G1 Z15.133 X24.429 Y81.876 E0.03936
G1 Z15.167 X25.853 Y77.541 E0.04236
G1 Z15.260 X31.623 Y66.650 E0.11440
G1 Z15.360 X36.430 Y54.277 E0.12322
G1 Z15.397 X38.880 Y49.880 E0.04672
G1 Z15.445 X43.563 Y45.581 E0.05902
G1 Z15.490 X49.394 Y44.113 E0.05581
G1 Z15.521 X53.455 Y44.567 E0.03793
G1 Z15.631 X67.634 Y48.349 E0.13621
G1 Z15.746 X82.946 Y47.801 E0.14222
G1 Z15.794 X89.184 Y48.529 E0.05829
G1 Z15.838 X94.496 Y51.091 E0.05474
G1 Z15.880 X98.094 Y55.359 E0.05181
G1 Z15.925 X100.064 Y61.035 E0.05577
G1 Z16.000 X101.367 Y70.923 E0.09258
G1 Z16.000 F1200.000
G1 F720.000
G1 Z16.015 X101.642 Y72.993 E0.01937
G1 Z16.107 X105.309 Y85.007 E0.11659
G1 Z16.184 X102.189 Y94.924 E0.09650
G1 Z16.323 X98.729 Y113.625 E0.17654
G1 Z16.365 X95.952 Y118.538 E0.05238
G1 Z16.399 X92.376 Y121.590 E0.04364
G1 Z16.430 X88.452 Y123.124 E0.03910
G1 Z16.458 X84.663 Y123.579 E0.03543
G1 Z16.588 X66.926 Y122.336 E0.16504
G1 Z16.704 X51.693 Y126.116 E0.14569
G1 Z16.744 X46.260 Y126.536 E0.05059
G1 Z16.766 X43.204 Y125.978 E0.02884
G1 Z16.787 X40.694 Y124.790 E0.02578
G1 Z16.834 X36.399 Y119.990 E0.05979
G1 Z16.966 X30.726 Y102.898 E0.16717
G1 Z17.072 X24.632 Y89.856 E0.13363
G1 Z17.111 X23.666 Y84.541 E0.05014
G1 Z17.153 X25.227 Y79.124 E0.05234
G1 Z17.244 X30.382 Y67.823 E0.11529
G1 Z17.343 X33.973 Y54.761 E0.12575
G1 Z17.385 X36.232 Y49.587 E0.05241
G1 Z17.411 X38.503 Y46.787 E0.03346
G1 Z17.431 X40.785 Y45.225 E0.02567
G1 Z17.479 X47.148 Y43.891 E0.06035
G1 Z17.626 X66.866 Y47.718 E0.18644
G1 Z17.734 X81.421 Y46.129 E0.13591
G1 Z17.779 X87.588 Y46.451 E0.05732
G1 Z17.826 X93.385 Y49.111 E0.05921
G1 Z17.869 X97.134 Y53.624 E0.05445
G1 Z17.907 X99.084 Y58.510 E0.04884
G1 Z18.000 X101.279 Y70.939 E0.11715
M106 S198.9
G1 Z18.000 F1200.000
G1 F720.000
G1 Z18.103 X106.510 Y84.018 E0.13042
G1 Z18.119 X106.236 Y86.224 E0.02063
G1 Z18.328 X97.693 Y113.560 E0.26585
G1 Z18.369 X94.869 Y118.439 E0.05232
G1 Z18.402 X91.838 Y121.758 E0.04172
G1 Z18.433 X88.275 Y124.052 E0.03934
G1 Z18.463 X84.269 Y125.302 E0.03895
G1 Z18.500 X79.246 Y125.666 E0.04675
