; generated by PrusaSlicer 2.2.0+win64 on 2021-07-15 at 18:31:55 UTC

; 

; external perimeters extrusion width = 6.75mm
; perimeters extrusion width = 6.75mm
; infill extrusion width = 6.75mm
; solid infill extrusion width = 6.75mm
; top infill extrusion width = 4.00mm

M107
M104 S200 ; set temperature
M109 S200 ; set temperature and wait for it to be reached
G21 ; set units to millimeters
G90 ; use absolute coordinates
M83 ; use relative distances for extrusion
; Filament gcode
G1 Z2.000 F1200.000
G1 X39.898 Y60.368
G1 F720.000
G1 X51.406 Y53.096 E0.12637
G1 X52.972 Y52.276 E0.01641
G1 X59.018 Y50.146 E0.05950
G1 X60.260 Y49.795 E0.01199
G1 X61.456 Y49.585 E0.01126
G1 X66.059 Y49.068 E0.04300
G1 X67.444 Y48.992 E0.01287
G1 X69.060 Y49.100 E0.01504
G1 X73.839 Y49.763 E0.04478
G1 X75.020 Y50.002 E0.01118
G1 X76.310 Y50.406 E0.01255
G1 X82.597 Y52.838 E0.06257
G1 X88.379 Y56.027 E0.06130
G1 X89.655 Y56.864 E0.01416
G1 X90.602 Y57.649 E0.01143
G1 X94.865 Y61.642 E0.05422
G1 X95.983 Y62.851 E0.01528
G1 X96.916 Y64.176 E0.01504
G1 X97.671 Y65.620 E0.01512
G1 X100.362 Y72.051 E0.06471
G1 X100.963 Y74.140 E0.02018
G1 X101.184 Y76.120 E0.01849
G1 X101.476 Y91.137 E0.13942
G1 X101.424 Y92.271 E0.01054
G1 X101.267 Y93.396 E0.01054
G1 X99.866 Y99.767 E0.06055
G1 X99.494 Y101.085 E0.01271
G1 X98.983 Y102.346 E0.01263
G1 X98.326 Y103.558 E0.01279
G1 X97.533 Y104.695 E0.01287
G1 X93.285 Y109.945 E0.06268
G1 X91.987 Y111.268 E0.01721
G1 X91.050 Y112.012 E0.01110
G1 X90.038 Y112.666 E0.01118
G1 X80.753 Y117.916 E0.09901
G1 X79.327 Y118.589 E0.01464
G1 X77.531 Y119.145 E0.01745
G1 X69.856 Y120.750 E0.07278
G1 X68.647 Y120.932 E0.01135
G1 X67.418 Y120.993 E0.01143
G1 X66.068 Y120.918 E0.01255
G1 X64.743 Y120.698 E0.01247
G1 X55.234 Y118.495 E0.09060
G1 X53.330 Y117.852 E0.01865
G1 X51.858 Y117.095 E0.01536
G1 X39.939 Y109.782 E0.12980
G1 X38.949 Y109.096 E0.01118
G1 X38.024 Y108.310 E0.01126
G1 X37.035 Y107.266 E0.01335
G1 X36.173 Y106.113 E0.01335
G1 X32.313 Y100.165 E0.06582
G1 X31.779 Y99.192 E0.01030
G1 X31.331 Y98.167 E0.01038
G1 X30.953 Y97.014 E0.01126
G1 X30.690 Y95.830 E0.01126
G1 X29.212 Y86.831 E0.08465
G1 X29.077 Y85.007 E0.01697
G1 X29.210 Y83.210 E0.01673
G1 X30.676 Y74.182 E0.08490
G1 X30.946 Y72.972 E0.01151
G1 X31.334 Y71.804 E0.01143
G1 X31.808 Y70.734 E0.01086
G1 X32.382 Y69.714 E0.01086
G1 X36.303 Y63.873 E0.06530
G1 X37.136 Y62.775 E0.01279
G1 X38.093 Y61.771 E0.01287
G1 X38.963 Y61.028 E0.01062
G1 X39.162 Y60.887 E0.00227
G1 X49.060 Y73.378 F1200.000
G1 F720.000
G1 X59.449 Y66.815 E0.11407
G1 X63.781 Y65.317 E0.04255
G1 X67.356 Y64.916 E0.03339
G1 X71.636 Y65.579 E0.04021
G1 X76.807 Y67.714 E0.05193
G1 X81.111 Y70.333 E0.04676
G1 X83.533 Y72.836 E0.03233
G1 X85.285 Y77.335 E0.04481
G1 X84.702 Y84.754 E0.06908
G1 X85.531 Y90.990 E0.05839
G1 X84.535 Y95.499 E0.04287
G1 X81.519 Y99.226 E0.04451
G1 X73.517 Y103.750 E0.08533
G1 X67.461 Y105.016 E0.05743
G1 X59.594 Y103.194 E0.07496
G1 X49.006 Y96.701 E0.11529
G1 X46.238 Y92.439 E0.04717
G1 X45.018 Y85.014 E0.06985
G1 X46.222 Y77.598 E0.06974
G1 X48.558 Y74.125 E0.03885
G1 X83.237 Y79.193 F1200.000
G1 F720.000
G1 X78.084 Y74.040 E0.06804
G1 X74.658 Y71.955 E0.03744
G1 X70.351 Y70.177 E0.04350
G1 X67.255 Y69.698 E0.02925
G1 X65.004 Y69.950 E0.02115
G1 X79.938 Y84.884 E0.19717
G1 X80.722 Y90.785 E0.05557
G1 X80.147 Y93.385 E0.02487
G1 X79.835 Y93.772 E0.00464
G1 X58.858 Y72.795 E0.27695
G1 X53.349 Y76.276 E0.06084
G1 X74.705 Y97.633 E0.28197
G1 X71.825 Y99.261 E0.03088
G1 X68.118 Y100.036 E0.03536
G1 X47.799 Y79.717 E0.26827
G1 Z4.000 F1200.000
G1 X43.324 Y78.832
G1 F720.000
G1 X43.535 Y77.767 E0.01008
G1 X45.479 Y75.206 E0.02985
G1 X53.782 Y70.223 E0.08988
G1 X61.494 Y63.154 E0.09711
G1 X65.701 Y61.786 E0.04106
G1 X69.576 Y62.980 E0.03764
G1 X76.082 Y67.666 E0.07442
G1 X83.582 Y71.684 E0.07898
G1 X85.989 Y73.798 E0.02974
G1 X87.445 Y77.174 E0.03412
G1 X86.278 Y84.749 E0.07114
G1 X87.714 Y91.459 E0.06370
G1 X87.135 Y94.243 E0.02639
G1 X84.841 Y97.194 E0.03469
G1 X69.444 Y107.311 E0.17102
G1 X66.115 Y108.242 E0.03208
G1 X61.830 Y106.869 E0.04177
G1 X54.242 Y100.132 E0.09419
G1 X46.705 Y96.003 E0.07977
G1 X44.786 Y94.387 E0.02329
G1 X43.242 Y90.988 E0.03466
G1 X43.788 Y85.272 E0.05330
G1 X43.019 Y80.376 E0.04600
G1 X43.150 Y79.715 E0.00625
G1 X76.846 Y100.343 F1200.000
G1 F900.000
G1 X82.614 Y94.575 E0.04375
G1 X83.998 Y92.794 E0.01210
G1 X84.274 Y91.469 E0.00726
G1 X83.619 Y88.405 E0.01680
G1 X67.728 Y104.296 E0.12053
G1 X66.181 Y104.729 E0.00861
G1 X63.533 Y103.880 E0.01491
G1 X63.240 Y103.620 E0.00211
G1 X83.012 Y83.848 E0.14997
G1 X83.952 Y77.743 E0.03313
G1 X60.504 Y101.191 E0.17785
G1 X57.768 Y98.762 E0.01962
G1 X81.870 Y74.659 E0.18282
G1 X81.652 Y74.468 E0.00156
G1 X78.556 Y72.809 E0.01884
G1 X54.777 Y96.588 E0.18036
G1 X51.440 Y94.760 E0.02041
G1 X75.192 Y71.008 E0.18016
G1 X74.296 Y70.528 E0.00545
G1 X72.094 Y68.941 E0.01456
G1 X48.185 Y92.850 E0.18134
G1 X47.536 Y92.303 E0.00455
G1 X46.677 Y90.414 E0.01113
G1 X46.806 Y89.064 E0.00727
G1 X69.092 Y66.779 E0.16903
G1 X68.057 Y66.034 E0.00683
G1 X65.728 Y65.316 E0.01307
G1 X65.226 Y65.480 E0.00283
G1 X46.956 Y83.750 E0.13858
G1 X46.437 Y80.444 E0.01795
G1 X46.686 Y79.183 E0.00689
G1 X47.721 Y77.819 E0.00918
G1 X52.492 Y73.048 E0.03619
G1 Z4.000 F1200.000
G1 F720.000
G1 Z4.021 X51.690 Y69.459 E0.01452
G1 Z4.156 X58.735 Y62.556 E0.09156
G1 Z4.195 X61.298 Y61.279 E0.02658
G1 Z4.229 X63.739 Y60.971 E0.02284
G1 Z4.317 X69.964 Y62.769 E0.06014
G1 Z4.512 X82.599 Y69.387 E0.13240
G1 Z4.570 X85.894 Y72.088 E0.03955
G1 Z4.602 X87.110 Y74.067 E0.02155
G1 Z4.640 X87.844 Y76.735 E0.02569
G1 Z4.749 X87.350 Y84.718 E0.07425
G1 Z4.838 X88.093 Y91.191 E0.06047
G1 Z4.902 X87.143 Y95.798 E0.04366
G1 Z4.963 X84.343 Y99.251 E0.04126
G1 Z5.202 X69.055 Y107.825 E0.16271
G1 Z5.275 X63.847 Y109.095 E0.04976
G1 Z5.304 X61.718 Y108.802 E0.01994
G1 Z5.345 X59.036 Y107.492 E0.02771
G1 Z5.616 X44.033 Y94.468 E0.18442
G1 Z5.673 X42.152 Y90.774 E0.03849
G1 Z5.749 X42.529 Y85.249 E0.05140
G1 Z5.807 X41.866 Y81.003 E0.03988
G1 Z5.851 X42.617 Y77.884 E0.02978
G1 Z5.913 X45.422 Y74.317 E0.04212
G1 Z6.000 X50.454 Y70.417 E0.05909
M106 S229.5
G1 Z6.000 F1200.000
G1 F720.000
G1 Z6.081 X51.471 Y63.808 E0.05774
G1 Z6.123 X53.955 Y61.840 E0.02942
G1 Z6.163 X56.974 Y61.162 E0.02872
G1 Z6.298 X67.099 Y63.208 E0.09588
G1 Z6.463 X79.711 Y64.524 E0.11771
G1 Z6.509 X82.858 Y66.111 E0.03272
G1 Z6.549 X84.839 Y68.478 E0.02865
G1 Z6.603 X86.142 Y72.355 E0.03797
G1 Z6.770 X88.020 Y85.003 E0.11869
G1 Z6.966 X85.721 Y99.867 E0.13962
G1 Z7.005 X84.305 Y102.469 E0.02749
G1 Z7.044 X81.962 Y104.416 E0.02828
G1 Z7.092 X78.504 Y105.664 E0.03412
G1 Z7.236 X67.559 Y106.768 E0.10212
G1 Z7.352 X58.916 Y108.928 E0.08269
G1 Z7.402 X55.058 Y108.666 E0.03589
G1 Z7.432 X53.091 Y107.609 E0.02073
G1 Z7.470 X51.054 Y105.506 E0.02718
G1 Z7.687 X42.549 Y91.201 E0.15448
G1 Z7.729 X41.391 Y88.203 E0.02984
G1 Z7.775 X41.130 Y84.694 E0.03266
G1 Z7.849 X42.496 Y79.184 E0.05270
G1 Z8.000 X48.335 Y69.181 E0.10751
M106 S226.95
G1 Z8.000 F1200.000
G1 F720.000
G1 Z8.060 X47.712 Y63.850 E0.04497
G1 Z8.102 X50.207 Y61.525 E0.03166
G1 Z8.149 X53.911 Y60.798 E0.03504
G1 Z8.292 X65.341 Y62.672 E0.10752
G1 Z8.411 X74.898 Y61.691 E0.08918
G1 Z8.454 X78.321 Y61.919 E0.03185
G1 Z8.497 X81.500 Y63.452 E0.03276
G1 Z8.540 X83.659 Y66.142 E0.03202
G1 Z8.783 X89.029 Y85.060 E0.18254
G1 Z9.004 X84.612 Y102.347 E0.16562
G1 Z9.047 X82.875 Y105.324 E0.03200
G1 Z9.080 X80.777 Y107.041 E0.02517
G1 Z9.133 X76.649 Y108.099 E0.03956
G1 Z9.273 X65.357 Y107.381 E0.10502
G1 Z9.428 X53.005 Y109.404 E0.11619
G1 Z9.468 X49.969 Y108.420 E0.02962
G1 Z9.507 X47.836 Y106.034 E0.02970
G1 Z9.639 X44.656 Y95.883 E0.09874
G1 Z9.759 X40.848 Y86.949 E0.09015
G1 Z9.785 X40.537 Y84.909 E0.01916
G1 Z10.000 X46.149 Y68.436 E0.16154
G1 Z10.000 F1200.000
G1 F720.000
G1 Z10.016 X44.135 Y66.668 E0.01231
G1 Z10.054 X45.937 Y64.167 E0.02862
G1 Z10.095 X48.894 Y62.526 E0.03139
G1 Z10.372 X71.373 Y58.821 E0.21147
G1 Z10.417 X75.000 Y59.614 E0.03447
G1 Z10.465 X78.291 Y61.839 E0.03688
G1 Z10.551 X82.647 Y67.322 E0.06500
G1 Z10.663 X87.367 Y75.272 E0.08582
G1 Z10.786 X90.490 Y84.841 E0.09343
G1 Z10.827 X89.903 Y88.228 E0.03191
G1 Z10.899 X87.819 Y93.745 E0.05474
G1 Z11.074 X80.402 Y106.066 E0.13350
G1 Z11.123 X77.597 Y108.956 E0.03738
G1 Z11.161 X74.844 Y110.477 E0.02919
G1 Z11.227 X69.471 Y111.022 E0.05013
G1 Z11.489 X48.226 Y107.406 E0.20004
G1 Z11.522 X46.012 Y105.928 E0.02472
G1 Z11.566 X44.058 Y102.809 E0.03416
G1 Z11.778 X40.195 Y85.813 E0.16179
G1 Z12.000 X43.867 Y67.966 E0.16913
G1 Z12.000 F1200.000
G1 F720.000
G1 Z12.020 X43.864 Y65.864 E0.01578
G1 Z12.077 X47.940 Y63.292 E0.04474
G1 Z12.183 X56.618 Y60.818 E0.08376
G1 Z12.292 X65.144 Y57.145 E0.08618
G1 Z12.331 X68.379 Y56.613 E0.03043
G1 Z12.370 X71.656 Y57.261 E0.03101
G1 Z12.412 X74.691 Y59.137 E0.03312
G1 Z12.634 X87.258 Y73.197 E0.17505
G1 Z12.716 X90.744 Y79.267 E0.06498
G1 Z12.799 X91.452 Y86.236 E0.06503
G1 Z12.844 X90.960 Y90.019 E0.03541
G1 Z12.893 X89.241 Y93.854 E0.03901
G1 Z13.110 X77.706 Y108.187 E0.17078
G1 Z13.183 X72.987 Y112.211 E0.05757
G1 Z13.235 X68.724 Y113.322 E0.04089
G1 Z13.272 X65.598 Y112.835 E0.02937
G1 Z13.381 X56.991 Y109.334 E0.08624
G1 Z13.483 X48.579 Y107.151 E0.08067
G1 Z13.540 X44.403 Y104.726 E0.04483
G1 Z13.573 X42.696 Y102.560 E0.02560
G1 Z13.608 X41.550 Y99.804 E0.02770
G1 Z13.780 X39.089 Y85.391 E0.13572
G1 Z13.951 X41.174 Y70.971 E0.13525
G1 Z13.987 X42.241 Y68.102 E0.02842
G1 Z14.000 X42.866 Y67.240 E0.00988
M106 S224.4
G1 Z14.000 F1200.000
G1 F720.000
G1 Z14.022 X44.238 Y65.885 E0.01780
G1 Z14.083 X48.503 Y62.755 E0.04911
G1 Z14.207 X58.159 Y58.184 E0.09917
G1 Z14.262 X62.595 Y56.489 E0.04408
G1 Z14.302 X65.986 Y56.025 E0.03177
G1 Z14.347 X69.870 Y56.798 E0.03676
G1 Z14.403 X74.038 Y59.141 E0.04438
G1 Z14.622 X87.837 Y72.098 E0.17571
G1 Z14.707 X91.392 Y78.578 E0.06860
G1 Z14.813 X91.919 Y87.722 E0.08502
G1 Z14.889 X90.326 Y94.052 E0.06059
G1 Z14.998 X84.483 Y101.470 E0.08765
G1 Z15.175 X73.153 Y111.679 E0.14157
G1 Z15.215 X70.065 Y113.279 E0.03228
G1 Z15.257 X66.524 Y113.966 E0.03348
G1 Z15.310 X61.949 Y113.217 E0.04304
G1 Z15.425 X52.827 Y109.435 E0.09166
G1 Z15.493 X47.513 Y106.773 E0.05517
G1 Z15.545 X44.061 Y104.000 E0.04110
G1 Z15.592 X41.608 Y100.769 E0.03765
G1 Z15.658 X39.247 Y95.563 E0.05306
G1 Z15.727 X37.796 Y89.747 E0.05564
G1 Z15.791 X37.442 Y84.227 E0.05135
G1 Z15.855 X38.070 Y78.721 E0.05144
G1 Z15.924 X39.710 Y73.053 E0.05477
G1 Z15.980 X41.917 Y68.713 E0.04520
G1 Z16.000 X43.022 Y67.368 E0.01616
G1 Z16.000 F1200.000
G1 F720.000
G1 Z16.033 X45.024 Y65.244 E0.02691
G1 Z16.106 X49.916 Y60.981 E0.06023
G1 Z16.172 X54.831 Y57.889 E0.05390
G1 Z16.223 X59.048 Y56.317 E0.04178
G1 Z16.260 X62.318 Y55.980 E0.03051
G1 Z16.319 X67.416 Y56.828 E0.04797
G1 Z16.408 X74.714 Y59.814 E0.07320
G1 Z16.487 X80.776 Y63.221 E0.06454
G1 Z16.556 X85.472 Y67.231 E0.05732
G1 Z16.628 X89.341 Y72.249 E0.05882
G1 Z16.682 X91.433 Y76.524 E0.04418
G1 Z16.729 X92.315 Y80.569 E0.03843
G1 Z16.812 X92.461 Y87.901 E0.06808
G1 Z16.855 X91.970 Y91.660 E0.03518
G1 Z16.906 X90.356 Y95.902 E0.04213
G1 Z16.974 X87.093 Y100.898 E0.05539
G1 Z17.031 X83.602 Y104.585 E0.04713
G1 Z17.098 X78.845 Y108.030 E0.05452
G1 Z17.186 X71.893 Y111.619 E0.07263
G1 Z17.251 X66.485 Y113.593 E0.05343
G1 Z17.297 X62.498 Y114.099 E0.03731
G1 Z17.350 X57.817 Y113.324 E0.04404
G1 Z17.411 X52.965 Y111.034 E0.04980
G1 Z17.488 X47.504 Y107.071 E0.06263
G1 Z17.569 X42.401 Y101.971 E0.06697
G1 Z17.633 X39.107 Y97.437 E0.05202
G1 Z17.690 X36.959 Y92.836 E0.04713
G1 Z17.733 X36.177 Y89.123 E0.03523
G1 Z17.808 X36.051 Y82.543 E0.06109
G1 Z17.856 X36.653 Y78.296 E0.03982
G1 Z17.902 X38.127 Y74.508 E0.03773
G1 Z18.000 X43.293 Y67.570 E0.08029
G1 Z18.000 F1200.000
G1 F720.000
G1 Z18.143 X52.350 Y58.230 E0.12055
G1 Z18.187 X55.925 Y56.515 E0.03681
G1 Z18.224 X59.205 Y56.088 E0.03070
G1 Z18.444 X78.708 Y60.547 E0.18570
G1 Z18.513 X84.183 Y63.434 E0.05746
G1 Z18.566 X87.306 Y67.090 E0.04463
G1 Z18.648 X90.718 Y73.682 E0.06891
G1 Z18.722 X92.983 Y80.007 E0.06236
G1 Z18.778 X93.615 Y85.029 E0.04698
G1 Z18.838 X92.826 Y90.467 E0.05101
G1 Z18.922 X90.190 Y97.553 E0.07018
G1 Z18.994 X87.100 Y103.347 E0.06095
G1 Z19.042 X84.204 Y106.570 E0.04022
G1 Z19.111 X78.617 Y109.376 E0.05804
G1 Z19.331 X59.243 Y114.046 E0.18498
G1 Z19.371 X55.621 Y113.417 E0.03413
G1 Z19.415 X52.132 Y111.531 E0.03681
G1 Z19.619 X38.814 Y98.746 E0.17138
G1 Z19.695 X35.913 Y92.424 E0.06456
G1 Z19.819 X35.458 Y81.209 E0.10419
G1 Z19.898 X37.062 Y74.299 E0.06585
G1 Z19.992 X42.202 Y67.495 E0.07916
G1 Z20.000 X42.760 Y66.986 E0.00701
M106 S221.85
G1 Z20.000 F1200.000
G1 F720.000
G1 Z20.133 X51.537 Y58.192 E0.11531
G1 Z20.172 X54.672 Y56.430 E0.03338
G1 Z20.206 X57.831 Y55.941 E0.02967
G1 Z20.332 X69.274 Y58.841 E0.10957
G1 Z20.436 X78.887 Y59.627 E0.08953
G1 Z20.476 X82.542 Y60.543 E0.03498
G1 Z20.521 X85.986 Y62.954 E0.03902
G1 Z20.583 X89.027 Y67.869 E0.05364
G1 Z20.727 X93.788 Y80.400 E0.12443
G1 Z20.786 X94.533 Y85.939 E0.05188
G1 Z20.988 X88.407 Y103.750 E0.17483
G1 Z21.031 X86.098 Y107.027 E0.03722
G1 Z21.068 X83.256 Y109.026 E0.03225
G1 Z21.108 X79.723 Y110.052 E0.03415
G1 Z21.213 X69.991 Y111.046 E0.09081
G1 Z21.324 X60.012 Y114.079 E0.09682
G1 Z21.374 X55.431 Y113.813 E0.04259
G1 Z21.429 X50.965 Y111.205 E0.04800
G1 Z21.593 X39.812 Y100.769 E0.14178
G1 Z21.666 X35.751 Y95.217 E0.06385
G1 Z21.711 X34.797 Y91.194 E0.03838
G1 Z21.828 X34.647 Y80.261 E0.10149
G1 Z21.900 X36.352 Y73.763 E0.06236
G1 Z21.949 X39.182 Y70.092 E0.04303
G1 Z22.000 X42.590 Y66.810 E0.04392
G1 Z22.000 F1200.000
G1 F720.000
G1 Z22.021 X44.568 Y65.957 E0.01865
G1 Z22.139 X51.961 Y57.462 E0.10453
G1 Z22.171 X54.624 Y55.881 E0.02875
G1 Z22.204 X57.674 Y55.374 E0.02870
G1 Z22.332 X69.550 Y58.375 E0.11371
G1 Z22.437 X79.580 Y59.186 E0.09340
G1 Z22.476 X83.156 Y60.072 E0.03420
G1 Z22.526 X87.137 Y62.759 E0.04458
G1 Z22.583 X90.041 Y67.316 E0.05016
G1 Z22.731 X94.338 Y80.829 E0.13163
G1 Z22.787 X94.899 Y86.091 E0.04912
G1 Z22.980 X89.675 Y103.759 E0.17101
G1 Z23.024 X87.236 Y107.212 E0.03925
G1 Z23.066 X83.902 Y109.475 E0.03740
G1 Z23.107 X80.125 Y110.524 E0.03638
G1 Z23.210 X70.297 Y111.503 E0.09168
G1 Z23.327 X59.598 Y114.693 E0.10363
G1 Z23.371 X55.447 Y114.378 E0.03864
G1 Z23.424 X51.216 Y111.655 E0.04671
G1 Z23.528 X44.632 Y104.149 E0.09268
G1 Z23.641 X36.476 Y97.046 E0.10039
G1 Z23.685 X34.116 Y93.560 E0.03908
G1 Z23.720 X33.284 Y90.348 E0.03080
G1 Z23.819 X33.157 Y80.943 E0.08731
G1 Z23.879 X34.851 Y75.479 E0.05310
G1 Z24.000 X43.133 Y67.364 E0.10763
M106 S219.3
G1 Z24.000 F1200.000
G1 F720.000
G1 Z24.004 X43.710 Y67.419 E0.00351
G1 Z24.139 X51.895 Y57.276 E0.12099
G1 Z24.175 X54.962 Y55.549 E0.03268
G1 Z24.212 X58.502 Y55.038 E0.03320
G1 Z24.470 X83.119 Y59.513 E0.23225
G1 Z24.525 X87.538 Y62.444 E0.04922
G1 Z24.591 X91.038 Y67.798 E0.05938
G1 Z24.767 X95.370 Y84.262 E0.15803
G1 Z24.812 X94.770 Y88.610 E0.04075
G1 Z24.918 X92.475 Y98.583 E0.09499
G1 Z24.976 X90.453 Y103.753 E0.05153
G1 Z25.023 X87.679 Y107.470 E0.04305
G1 Z25.075 X83.505 Y110.201 E0.04630
G1 Z25.315 X60.795 Y114.959 E0.21538
G1 Z25.374 X55.055 Y114.432 E0.05350
G1 Z25.429 X50.728 Y111.425 E0.04892
G1 Z25.541 X43.946 Y102.898 E0.10113
G1 Z25.664 X35.038 Y95.068 E0.11008
G1 Z25.704 X32.924 Y91.823 E0.03595
G1 Z25.734 X32.199 Y88.977 E0.02726
G1 Z25.807 X32.105 Y81.927 E0.06545
G1 Z25.834 X32.593 Y79.363 E0.02423
G1 Z25.863 X33.885 Y76.836 E0.02634
G1 Z26.000 X43.437 Y67.681 E0.12281
G1 Z26.000 F1200.000
G1 F720.000
G1 Z26.055 X45.353 Y62.543 E0.04917
G1 Z26.105 X48.788 Y59.177 E0.04464
G1 Z26.143 X52.048 Y57.420 E0.03438
G1 Z26.185 X55.978 Y56.385 E0.03772
G1 Z26.343 X71.207 Y55.568 E0.14156
G1 Z26.401 X76.742 Y55.884 E0.05146
G1 Z26.445 X80.911 Y56.966 E0.03998
G1 Z26.481 X83.847 Y58.664 E0.03149
G1 Z26.521 X86.602 Y61.429 E0.03623
G1 Z26.597 X90.253 Y67.747 E0.06773
G1 Z26.748 X95.591 Y81.369 E0.13581
G1 Z26.783 X96.544 Y84.628 E0.03152
G1 Z26.806 X96.064 Y86.709 E0.01982
G1 Z27.008 X89.109 Y104.914 E0.18090
G1 Z27.060 X86.312 Y109.083 E0.04660
