; generated by PrusaSlicer 2.2.0+win64 on 2021-07-15 at 19:38:27 UTC

; 

; external perimeters extrusion width = 6.75mm
; perimeters extrusion width = 6.75mm
; infill extrusion width = 6.75mm
; solid infill extrusion width = 6.75mm
; top infill extrusion width = 4.00mm

M107
M104 S200 ; set temperature
M109 S200 ; set temperature and wait for it to be reached
G21 ; set units to millimeters
G90 ; use absolute coordinates
M83 ; use relative distances for extrusion
; Filament gcode
G1 Z2.000 F1200.000
G1 X34.319 Y52.911
G1 F720.000
G1 X41.572 Y48.385 E0.07936
G1 X51.432 Y43.958 E0.10032
G1 X63.270 Y40.874 E0.11355
G1 X64.387 Y40.720 E0.01046
G1 X72.959 Y39.990 E0.07986
G1 X74.636 Y40.106 E0.01560
G1 X81.919 Y41.143 E0.06828
G1 X83.184 Y41.403 E0.01199
G1 X84.512 Y41.831 E0.01295
G1 X92.085 Y44.766 E0.07539
G1 X93.213 Y45.280 E0.01151
G1 X94.291 Y45.910 E0.01159
G1 X99.713 Y49.534 E0.06053
G1 X101.045 Y50.573 E0.01568
G1 X102.250 Y51.819 E0.01609
G1 X106.971 Y57.626 E0.06948
G1 X107.799 Y59.029 E0.01512
G1 X108.437 Y60.538 E0.01520
G1 X111.069 Y68.638 E0.07906
G1 X111.501 Y70.680 E0.01938
G1 X111.595 Y72.029 E0.01255
G1 X111.878 Y96.995 E0.23176
G1 X111.715 Y98.668 E0.01560
G1 X110.865 Y103.511 E0.04564
G1 X110.606 Y104.616 E0.01054
G1 X110.086 Y106.087 E0.01448
G1 X107.948 Y110.844 E0.04841
G1 X107.203 Y112.044 E0.01311
G1 X106.319 Y113.158 E0.01319
G1 X99.984 Y120.046 E0.08687
G1 X98.674 Y121.245 E0.01649
G1 X97.554 Y122.034 E0.01271
G1 X96.362 Y122.690 E0.01263
G1 X85.675 Y127.646 E0.10935
G1 X84.175 Y128.211 E0.01488
G1 X82.048 Y128.659 E0.02018
G1 X71.939 Y129.805 E0.09444
G1 X70.319 Y129.865 E0.01504
G1 X69.041 Y129.760 E0.01191
G1 X61.138 Y128.630 E0.07410
G1 X50.132 Y125.609 E0.10594
G1 X41.903 Y121.896 E0.08380
G1 X34.212 Y117.147 E0.08391
G1 X32.641 Y115.950 E0.01833
G1 X28.706 Y111.815 E0.05298
G1 X27.754 Y110.645 E0.01400
G1 X26.969 Y109.399 E0.01368
G1 X24.717 Y105.281 E0.04357
G1 X24.189 Y104.149 E0.01159
G1 X23.624 Y102.393 E0.01713
G1 X20.212 Y87.639 E0.14057
G1 X19.982 Y86.157 E0.01392
G1 X19.934 Y84.650 E0.01400
G1 X20.023 Y83.492 E0.01078
G1 X20.219 Y82.356 E0.01070
G1 X23.366 Y68.176 E0.13482
G1 X24.021 Y66.176 E0.01954
G1 X26.648 Y61.128 E0.05282
G1 X27.526 Y59.745 E0.01520
G1 X28.471 Y58.604 E0.01376
G1 X32.093 Y54.739 E0.04916
G1 X33.036 Y53.857 E0.01199
G1 X33.595 Y53.445 E0.00645
G1 X43.261 Y66.064 F1200.000
G1 F720.000
G1 X49.105 Y62.392 E0.06406
G1 X56.662 Y58.982 E0.07697
G1 X66.128 Y56.521 E0.09078
G1 X72.622 Y55.895 E0.06056
G1 X78.684 Y56.682 E0.05675
G1 X85.424 Y59.178 E0.06672
G1 X90.028 Y62.097 E0.05060
G1 X93.486 Y66.064 E0.04885
G1 X94.879 Y68.889 E0.02923
G1 X95.661 Y72.413 E0.03351
G1 X94.351 Y84.474 E0.11261
G1 X95.953 Y95.416 E0.10265
G1 X94.599 Y101.911 E0.06158
G1 X90.410 Y107.439 E0.06438
G1 X82.007 Y112.152 E0.08944
G1 X72.756 Y113.985 E0.08754
G1 X66.632 Y113.472 E0.05705
G1 X57.080 Y111.184 E0.09118
G1 X49.939 Y108.149 E0.07202
G1 X43.557 Y104.331 E0.06904
G1 X40.677 Y101.339 E0.03855
G1 X38.966 Y98.212 E0.03309
G1 X35.907 Y85.539 E0.12101
G1 X38.749 Y72.235 E0.12628
G1 X40.402 Y69.116 E0.03277
G1 X42.646 Y66.721 E0.03046
G1 X93.720 Y72.720 F1200.000
G1 F720.000
G1 X86.428 Y65.428 E0.10020
G1 X83.308 Y63.449 E0.03590
G1 X77.542 Y61.314 E0.05975
G1 X72.543 Y60.665 E0.04897
G1 X72.329 Y60.686 E0.00209
G1 X90.223 Y78.580 E0.24589
G1 X89.573 Y84.563 E0.05848
G1 X90.040 Y87.754 E0.03133
G1 X64.205 Y61.919 E0.35501
G1 X58.245 Y63.469 E0.05984
G1 X56.972 Y64.043 E0.01357
G1 X90.634 Y97.704 E0.46256
G1 X90.176 Y99.898 E0.02178
G1 X87.285 Y103.713 E0.04651
G1 X50.614 Y67.042 E0.50392
G1 X46.302 Y69.752 E0.04949
G1 X45.173 Y70.958 E0.01605
G1 X81.318 Y107.103 E0.49669
G1 X80.346 Y107.648 E0.01083
G1 X73.803 Y108.945 E0.06481
G1 X42.451 Y77.593 E0.43081
G1 X40.805 Y85.304 E0.07661
G1 X63.300 Y107.799 E0.30911
G1 X58.569 Y106.666 E0.04726
G1 X52.093 Y103.913 E0.06837
G1 X47.027 Y100.883 E0.05736
G1 X39.822 Y93.678 E0.09901
G1 Z4.000 F1200.000
G1 X34.804 Y94.888
G1 F720.000
G1 X34.487 Y93.575 E0.01253
G1 X34.938 Y85.521 E0.07488
G1 X34.234 Y79.326 E0.05787
G1 X35.361 Y73.528 E0.05483
G1 X38.167 Y70.053 E0.04146
G1 X49.717 Y63.704 E0.12234
G1 X61.824 Y53.763 E0.14542
G1 X65.577 Y52.312 E0.03735
G1 X68.401 Y52.018 E0.02635
G1 X70.936 Y52.485 E0.02393
G1 X74.551 Y54.190 E0.03710
G1 X82.465 Y59.419 E0.08805
G1 X92.402 Y64.549 E0.10381
G1 X96.320 Y68.147 E0.04938
G1 X98.334 Y73.498 E0.05307
G1 X98.079 Y77.195 E0.03440
G1 X95.781 Y84.287 E0.06920
G1 X98.544 Y95.193 E0.10443
G1 X97.358 Y100.085 E0.04673
G1 X93.439 Y104.463 E0.05454
G1 X73.854 Y116.394 E0.21287
G1 X68.310 Y117.896 E0.05332
G1 X64.596 Y117.244 E0.03500
G1 X61.311 Y115.702 E0.03368
G1 X50.051 Y106.556 E0.13466
G1 X40.486 Y101.915 E0.09868
G1 X36.647 Y98.800 E0.04589
G1 X35.111 Y96.162 E0.02833
G1 X35.015 Y95.763 E0.00381
G1 X81.258 Y109.664 F1200.000
G1 F720.000
G1 X92.355 Y98.567 E0.15421
G1 X93.032 Y97.811 E0.00996
G1 X93.660 Y95.218 E0.02622
G1 X92.160 Y89.299 E0.06000
G1 X68.536 Y112.923 E0.32829
G1 X68.090 Y113.044 E0.00455
G1 X66.038 Y112.684 E0.02046
G1 X63.850 Y111.657 E0.02375
G1 X61.913 Y110.083 E0.02452
G1 X92.278 Y79.718 E0.42197
G1 X93.390 Y76.288 E0.03543
G1 X93.534 Y74.202 E0.02055
G1 X92.281 Y70.874 E0.03494
G1 X91.957 Y70.577 E0.00432
G1 X56.691 Y105.843 E0.49007
G1 X52.614 Y102.531 E0.05162
G1 X51.218 Y101.853 E0.01525
G1 X86.325 Y66.746 E0.48786
G1 X80.084 Y63.525 E0.06901
G1 X44.847 Y98.762 E0.48967
G1 X43.048 Y97.889 E0.01964
G1 X40.307 Y95.665 E0.03469
G1 X39.635 Y94.511 E0.01312
G1 X74.384 Y59.762 E0.48289
G1 X72.221 Y58.333 E0.02547
G1 X69.471 Y57.036 E0.02988
G1 X68.213 Y56.804 E0.01257
G1 X67.841 Y56.843 E0.00368
G1 X39.653 Y85.030 E0.39171
G1 X39.027 Y79.515 E0.05454
G1 X39.790 Y75.589 E0.03930
G1 X40.455 Y74.766 E0.01040
G1 X48.908 Y66.313 E0.11747
G1 Z6.000 F1200.000
G1 X48.185 Y64.875
G1 F720.000
G1 X49.639 Y64.145 E0.01510
G1 X57.373 Y54.643 E0.11372
G1 X61.210 Y51.204 E0.04783
G1 X63.858 Y49.914 E0.02734
G1 X66.371 Y49.525 E0.02360
G1 X70.894 Y50.921 E0.04394
G1 X81.676 Y59.781 E0.12953
G1 X93.241 Y64.818 E0.11710
G1 X98.214 Y68.929 E0.05989
G1 X99.569 Y71.738 E0.02895
G1 X99.868 Y74.266 E0.02363
G1 X96.893 Y85.225 E0.10540
G1 X99.608 Y91.957 E0.06738
G1 X100.077 Y95.248 E0.03086
G1 X98.847 Y99.861 E0.04432
G1 X96.004 Y103.069 E0.03978
G1 X82.078 Y109.987 E0.14434
G1 X71.062 Y119.294 E0.13387
G1 X66.629 Y120.470 E0.04257
G1 X63.576 Y119.761 E0.02909
G1 X60.473 Y117.854 E0.03381
G1 X49.813 Y106.008 E0.14793
G1 X38.133 Y101.027 E0.11787
G1 X34.233 Y97.978 E0.04595
G1 X32.531 Y93.730 E0.04247
G1 X32.669 Y91.016 E0.02523
G1 X34.239 Y85.777 E0.05077
G1 X32.373 Y77.057 E0.08277
G1 X33.049 Y74.149 E0.02771
G1 X35.140 Y71.429 E0.03185
G1 X47.381 Y65.279 E0.12716
G1 X98.019 Y73.607 F1200.000
G1 F900.000
G1 X95.293 Y70.881 E0.02083
G1 X91.462 Y67.714 E0.02686
G1 X83.419 Y64.211 E0.04741
G1 X95.760 Y76.552 E0.09431
G1 X94.649 Y80.645 E0.02292
G1 X67.355 Y53.351 E0.20859
G1 X66.119 Y52.970 E0.00699
G1 X64.875 Y53.162 E0.00680
G1 X63.107 Y54.024 E0.01063
G1 X62.957 Y54.157 E0.00108
G1 X93.538 Y84.738 E0.23371
G1 X93.349 Y85.434 E0.00390
G1 X96.267 Y92.671 E0.04216
G1 X60.213 Y56.617 E0.27553
G1 X59.816 Y56.973 E0.00288
G1 X57.819 Y59.427 E0.01710
G1 X95.972 Y97.580 E0.29158
G1 X95.800 Y98.225 E0.00361
G1 X93.920 Y100.346 E0.01532
G1 X93.662 Y100.474 E0.00156
G1 X55.484 Y62.296 E0.29177
G1 X53.149 Y65.164 E0.01999
G1 X90.185 Y102.201 E0.28305
G1 X86.709 Y103.928 E0.02098
G1 X50.340 Y67.559 E0.27794
G1 X46.876 Y69.299 E0.02095
G1 X83.232 Y105.656 E0.27784
G1 X80.216 Y107.154 E0.01820
G1 X79.842 Y107.470 E0.00265
G1 X43.412 Y71.040 E0.27841
G1 X39.949 Y72.780 E0.02095
G1 X77.022 Y109.853 E0.28332
G1 X74.201 Y112.236 E0.01996
G1 X36.781 Y74.817 E0.28597
G1 X36.162 Y75.623 E0.00549
G1 X35.821 Y77.088 E0.00813
G1 X36.358 Y79.597 E0.01387
G1 X71.380 Y114.619 E0.26765
G1 X69.468 Y116.235 E0.01353
G1 X68.143 Y116.586 E0.00741
G1 X37.656 Y86.099 E0.23299
G1 X36.456 Y90.103 E0.02259
G1 X47.875 Y101.523 E0.08727
G1 X39.859 Y98.104 E0.04710
G1 X37.080 Y95.932 E0.01906
G1 X34.320 Y93.172 E0.02109
M106 S214.2
G1 Z6.000 F1200.000
G1 F720.000
G1 Z6.009 X31.592 Y93.286 E0.00893
G1 Z6.033 X31.715 Y90.613 E0.02484
G1 Z6.079 X33.225 Y85.788 E0.04693
G1 Z6.151 X31.413 Y78.074 E0.07355
G1 Z6.183 X32.174 Y74.627 E0.03277
G1 Z6.220 X34.569 Y71.397 E0.03732
G1 Z6.363 X47.979 Y63.275 E0.14553
G1 Z6.509 X58.331 Y51.003 E0.14903
G1 Z6.543 X61.679 Y49.261 E0.03503
G1 Z6.568 X64.386 Y48.911 E0.02534
G1 Z6.621 X70.032 Y50.566 E0.05461
G1 Z6.734 X80.001 Y57.904 E0.11491
G1 Z6.864 X93.193 Y63.465 E0.13289
G1 Z6.918 X97.789 Y67.158 E0.05472
G1 Z6.945 X99.227 Y69.716 E0.02725
G1 Z6.972 X99.904 Y72.627 E0.02774
G1 Z7.012 X99.698 Y77.001 E0.04065
G1 Z7.080 X97.742 Y84.258 E0.06976
G1 Z7.186 X100.136 Y95.665 E0.10819
G1 Z7.236 X98.832 Y101.024 E0.05120
G1 Z7.281 X95.594 Y104.664 E0.04521
G1 Z7.426 X81.160 Y111.453 E0.14808
G1 Z7.549 X70.299 Y119.595 E0.12599
G1 Z7.603 X64.534 Y121.119 E0.05536
G1 Z7.627 X62.001 Y120.701 E0.02383
G1 Z7.656 X59.118 Y119.215 E0.03011
G1 Z7.803 X48.462 Y107.125 E0.14959
G1 Z7.919 X37.179 Y101.058 E0.11891
G1 Z7.964 X33.533 Y97.851 E0.04507
G1 Z8.000 X31.968 Y94.172 E0.03711
G1 Z8.000 F1200.000
G1 F720.000
G1 Z8.019 X31.550 Y92.009 E0.01970
G1 Z8.078 X31.833 Y85.547 E0.06004
G1 Z8.126 X31.167 Y80.380 E0.04836
G1 Z8.158 X31.851 Y77.002 E0.03199
G1 Z8.197 X33.978 Y73.262 E0.03994
G1 Z8.433 X50.827 Y53.634 E0.24012
G1 Z8.478 X54.798 Y50.695 E0.04585
G1 Z8.517 X58.903 Y49.830 E0.03894
G1 Z8.559 X63.483 Y50.514 E0.04298
G1 Z8.794 X88.022 Y58.127 E0.23850
G1 Z8.834 X92.066 Y59.848 E0.04080
G1 Z8.871 X95.217 Y62.411 E0.03771
G1 Z8.907 X97.243 Y65.734 E0.03612
G1 Z8.947 X98.292 Y70.027 E0.04103
G1 Z9.189 X98.700 Y96.565 E0.24636
G1 Z9.228 X98.405 Y100.766 E0.03909
G1 Z9.267 X97.095 Y104.870 E0.03999
G1 Z9.293 X95.515 Y107.183 E0.02600
G1 Z9.324 X92.903 Y109.384 E0.03171
G1 Z9.581 X66.381 Y118.851 E0.26140
G1 Z9.646 X59.439 Y120.319 E0.06586
G1 Z9.677 X56.105 Y119.776 E0.03136
G1 Z9.715 X52.523 Y117.628 E0.03877
G1 Z9.964 X34.250 Y97.426 E0.25286
G1 Z10.000 X32.497 Y93.909 E0.03648
M106 S211.65
G1 Z10.000 F1200.000
G1 F720.000
G1 Z10.031 X31.537 Y90.321 E0.03309
G1 Z10.063 X30.737 Y86.736 E0.03409
G1 Z10.099 X30.845 Y82.622 E0.03820
G1 Z10.132 X32.002 Y79.022 E0.03510
G1 Z10.222 X37.415 Y70.148 E0.09649
G1 Z10.337 X42.241 Y57.883 E0.12234
G1 Z10.378 X44.575 Y53.703 E0.04445
G1 Z10.422 X48.325 Y50.329 E0.04682
G1 Z10.458 X52.373 Y49.512 E0.03833
G1 Z10.607 X68.676 Y54.787 E0.15906
G1 Z10.726 X82.251 Y53.900 E0.12628
G1 Z10.774 X87.813 Y54.343 E0.05179
G1 Z10.814 X92.076 Y56.190 E0.04313
G1 Z10.848 X94.634 Y59.085 E0.03586
G1 Z10.884 X95.970 Y62.995 E0.03835
G1 Z11.004 X96.534 Y76.774 E0.12802
G1 Z11.078 X98.506 Y85.009 E0.07860
G1 Z11.142 X96.752 Y92.232 E0.06900
G1 Z11.278 X96.086 Y107.871 E0.14530
G1 Z11.312 X94.504 Y111.388 E0.03580
G1 Z11.346 X91.599 Y113.968 E0.03607
G1 Z11.403 X85.291 Y115.688 E0.06069
G1 Z11.552 X68.128 Y115.363 E0.15934
G1 Z11.660 X56.672 Y120.052 E0.11490
G1 Z11.696 X52.607 Y120.863 E0.03848
G1 Z11.718 X50.023 Y120.496 E0.02423
G1 Z11.736 X48.173 Y119.593 E0.01911
G1 Z11.796 X43.752 Y114.387 E0.06339
G1 Z11.925 X37.863 Y100.735 E0.13801
G1 Z12.000 X33.388 Y93.367 E0.08002
M106 S209.1
G1 Z12.000 F1200.000
G1 F720.000
G1 Z12.038 X31.525 Y89.146 E0.04270
G1 Z12.074 X30.354 Y85.062 E0.03944
G1 Z12.104 X31.432 Y81.616 E0.03351
G1 Z12.205 X37.091 Y70.784 E0.11345
G1 Z12.319 X39.327 Y57.251 E0.12732
G1 Z12.354 X40.675 Y53.272 E0.03900
G1 Z12.374 X42.067 Y51.239 E0.02287
G1 Z12.392 X43.789 Y49.925 E0.02011
G1 Z12.433 X48.542 Y48.993 E0.04496
G1 Z12.465 X52.425 Y49.752 E0.03673
G1 Z12.552 X62.044 Y53.758 E0.09671
G1 Z12.595 X67.130 Y54.885 E0.04836
G1 Z12.721 X81.927 Y51.616 E0.14066
G1 Z12.759 X86.482 Y51.614 E0.04228
G1 Z12.793 X90.243 Y53.139 E0.03767
G1 Z12.827 X92.946 Y56.218 E0.03804
G1 Z12.876 X94.755 Y61.833 E0.05476
G1 Z12.993 X95.780 Y75.896 E0.13088
G1 Z13.074 X99.219 Y85.026 E0.09057
G1 Z13.155 X95.829 Y94.214 E0.09091
G1 Z13.293 X94.559 Y110.775 E0.15417
G1 Z13.329 X92.667 Y114.649 E0.04003
G1 Z13.359 X89.988 Y116.998 E0.03307
G1 Z13.384 X87.128 Y118.001 E0.02813
G1 Z13.411 X83.847 Y118.160 E0.03049
G1 Z13.550 X67.398 Y115.069 E0.15536
G1 Z13.682 X52.591 Y120.730 E0.14715
G1 Z13.720 X48.074 Y121.419 E0.04241
G1 Z13.753 X44.253 Y120.345 E0.03685
G1 Z13.786 X41.506 Y117.492 E0.03676
G1 Z13.818 X40.046 Y113.861 E0.03632
G1 Z13.932 X37.598 Y100.432 E0.12671
G1 Z14.000 X33.705 Y93.197 E0.07627
G1 Z14.000 F1200.000
G1 F720.000
G1 Z14.069 X30.619 Y85.651 E0.07562
G1 Z14.182 X34.823 Y72.787 E0.12563
G1 Z14.292 X36.181 Y59.803 E0.12118
G1 Z14.337 X37.784 Y54.738 E0.04932
G1 Z14.369 X40.339 Y51.897 E0.03546
G1 Z14.401 X43.866 Y50.574 E0.03497
G1 Z14.571 X64.144 Y51.894 E0.18863
G1 Z14.703 X79.560 Y49.245 E0.14520
G1 Z14.750 X85.019 Y50.621 E0.05225
G1 Z14.804 X89.634 Y55.091 E0.05965
G1 Z14.858 X92.532 Y60.799 E0.05942
G1 Z15.068 X100.696 Y84.324 E0.23114
G1 Z15.318 X91.297 Y112.551 E0.27616
G1 Z15.353 X89.076 Y116.147 E0.03923
G1 Z15.378 X86.952 Y118.248 E0.02773
G1 Z15.426 X81.731 Y120.384 E0.05237
G1 Z15.463 X77.300 Y120.378 E0.04113
G1 Z15.561 X65.843 Y118.164 E0.10831
G1 Z15.719 X47.149 Y120.038 E0.17439
G1 Z15.768 X41.433 Y118.917 E0.05407
G1 Z15.790 X39.431 Y117.337 E0.02367
G1 Z15.820 X37.661 Y114.265 E0.03292
G1 Z15.957 X35.148 Y98.097 E0.15188
G1 Z16.000 X33.405 Y93.306 E0.04733
G1 Z16.000 F1200.000
G1 F720.000
G1 Z16.068 X30.456 Y85.641 E0.07578
G1 Z16.150 X32.653 Y75.991 E0.09186
G1 Z16.269 X33.558 Y61.742 E0.13253
G1 Z16.305 X34.755 Y57.644 E0.03963
G1 Z16.334 X36.837 Y54.795 E0.03276
G1 Z16.368 X40.384 Y52.838 E0.03760
G1 Z16.496 X55.642 Y51.690 E0.14204
G1 Z16.609 X68.560 Y47.327 E0.12656
G1 Z16.661 X74.723 Y46.332 E0.05794
G1 Z16.704 X79.666 Y47.556 E0.04727
G1 Z16.748 X83.764 Y50.855 E0.04883
G1 Z16.980 X98.719 Y74.430 E0.25915
G1 Z17.033 X101.194 Y80.276 E0.05892
G1 Z17.068 X102.029 Y84.373 E0.03882
G1 Z17.107 X101.297 Y88.960 E0.04311
G1 Z17.160 X98.954 Y94.845 E0.05880
G1 Z17.388 X84.861 Y118.338 E0.25430
G1 Z17.420 X82.195 Y121.049 E0.03530
G1 Z17.448 X79.252 Y122.737 E0.03149
G1 Z17.500 X73.056 Y123.358 E0.05781
G1 Z17.645 X56.316 Y118.522 E0.16174
G1 Z17.742 X44.636 Y118.315 E0.10843
G1 Z17.786 X39.526 Y117.127 E0.04870
G1 Z17.819 X36.401 Y114.675 E0.03687
G1 Z17.855 X34.490 Y110.853 E0.03966
G1 Z17.990 X32.860 Y94.747 E0.15027
G1 Z18.000 X32.540 Y93.534 E0.01164
M106 S206.55
G1 Z18.000 F1200.000
G1 F720.000
G1 Z18.006 X31.010 Y92.923 E0.00697
G1 Z18.068 X29.581 Y85.552 E0.06969
G1 Z18.252 X31.902 Y63.162 E0.20895
G1 Z18.286 X33.216 Y59.314 E0.03774
G1 Z18.312 X35.088 Y56.744 E0.02952
G1 Z18.353 X39.407 Y54.133 E0.04684
G1 Z18.473 X53.866 Y51.641 E0.13620
G1 Z18.585 X66.055 Y45.462 E0.12686
G1 Z18.634 X71.799 Y44.245 E0.05450
G1 Z18.668 X75.848 Y45.124 E0.03846
G1 Z18.704 X79.473 Y47.616 E0.04083
G1 Z18.840 X89.246 Y61.099 E0.15458
G1 Z18.950 X98.116 Y71.102 E0.12410
G1 Z19.016 X101.941 Y78.165 E0.07456
G1 Z19.084 X102.749 Y86.401 E0.07681
G1 Z19.123 X102.094 Y91.162 E0.04461
G1 Z19.162 X100.178 Y95.505 E0.04406
G1 Z19.305 X89.224 Y109.115 E0.16217
G1 Z19.413 X82.021 Y120.179 E0.12255
G1 Z19.466 X77.138 Y124.398 E0.05991
G1 Z19.511 X71.843 Y125.637 E0.05048
G1 Z19.554 X66.753 Y124.494 E0.04842
G1 Z19.665 X54.535 Y118.612 E0.12587
G1 Z19.786 X39.923 Y116.383 E0.13721
G1 Z19.827 X35.632 Y113.849 E0.04626
G1 Z19.858 X33.444 Y110.786 E0.03494
G1 Z19.885 X32.380 Y107.607 E0.03112
G1 Z20.000 X31.079 Y93.671 E0.12992
G1 Z20.000 F1200.000
G1 F720.000
G1 Z20.074 X28.114 Y84.991 E0.08374
G1 Z20.234 X30.799 Y65.534 E0.18232
G1 Z20.273 X32.498 Y61.122 E0.04388
G1 Z20.305 X34.854 Y57.897 E0.03707
G1 Z20.349 X39.222 Y54.831 E0.04954
G1 Z20.467 X52.976 Y50.423 E0.13406
G1 Z20.572 X64.342 Y44.486 E0.11903
G1 Z20.619 X70.010 Y43.518 E0.05338
G1 Z20.649 X73.536 Y44.405 E0.03375
G1 Z20.694 X78.105 Y47.467 E0.05105
G1 Z20.831 X88.939 Y60.335 E0.15614
G1 Z20.952 X99.218 Y70.924 E0.13699
G1 Z21.011 X102.499 Y77.388 E0.06729
G1 Z21.106 X103.063 Y89.055 E0.10842
