; generated by PrusaSlicer 2.2.0+win64 on 2021-07-13 at 00:09:11 UTC

; 

; external perimeters extrusion width = 4.50mm
; perimeters extrusion width = 4.50mm
; infill extrusion width = 4.50mm
; solid infill extrusion width = 4.50mm
; top infill extrusion width = 4.00mm
; first layer extrusion width = 4.20mm

M107
M104 S200 ; set temperature
M109 S200 ; set temperature and wait for it to be reached
G21 ; set units to millimeters
G90 ; use absolute coordinates
M83 ; use relative distances for extrusion
; Filament gcode
G1 Z3.000 F1200.000
G1 E-2.00000 F2400.00000
G1 X44.638 Y60.049 F1200.000
G1 E2.00000 F2400.00000
G1 F600.000
G1 X47.065 Y58.245 E0.01580
G1 X49.741 Y56.633 E0.01631
G1 X52.670 Y55.243 E0.01694
G1 X55.643 Y54.179 E0.01649
G1 X58.778 Y53.396 E0.01687
G1 X61.917 Y52.937 E0.01657
G1 X65.005 Y52.789 E0.01615
G1 X68.228 Y52.952 E0.01686
G1 X71.213 Y53.394 E0.01576
G1 X74.201 Y54.132 E0.01607
G1 X77.225 Y55.199 E0.01674
G1 X79.986 Y56.488 E0.01591
G1 X82.745 Y58.118 E0.01673
G1 X85.440 Y60.106 E0.01749
G1 X87.780 Y62.228 E0.01650
G1 X89.884 Y64.548 E0.01636
G1 X91.755 Y67.065 E0.01638
G1 X93.367 Y69.741 E0.01631
G1 X94.757 Y72.670 E0.01694
G1 X95.821 Y75.643 E0.01649
G1 X96.604 Y78.778 E0.01687
G1 X97.063 Y81.917 E0.01657
G1 X97.211 Y84.997 E0.01611
G1 X97.048 Y88.228 E0.01690
G1 X96.606 Y91.213 E0.01576
G1 X95.868 Y94.201 E0.01607
G1 X94.801 Y97.225 E0.01674
G1 X93.512 Y99.986 E0.01591
G1 X91.882 Y102.745 E0.01673
G1 X89.894 Y105.440 E0.01749
G1 X87.772 Y107.780 E0.01650
G1 X85.452 Y109.884 E0.01636
G1 X82.935 Y111.755 E0.01638
G1 X80.259 Y113.367 E0.01631
G1 X77.330 Y114.757 E0.01694
G1 X74.357 Y115.821 E0.01649
G1 X71.222 Y116.604 E0.01687
G1 X68.083 Y117.063 E0.01657
G1 X65.003 Y117.211 E0.01611
G1 X61.772 Y117.048 E0.01690
G1 X58.787 Y116.606 E0.01576
G1 X55.799 Y115.868 E0.01607
G1 X52.775 Y114.801 E0.01674
G1 X50.014 Y113.512 E0.01591
G1 X47.255 Y111.882 E0.01673
G1 X44.560 Y109.894 E0.01749
G1 X42.220 Y107.772 E0.01650
G1 X40.116 Y105.452 E0.01636
G1 X38.245 Y102.935 E0.01638
G1 X36.633 Y100.259 E0.01631
G1 X35.243 Y97.330 E0.01694
G1 X34.179 Y94.357 E0.01649
G1 X33.396 Y91.222 E0.01687
G1 X32.937 Y88.083 E0.01657
G1 X32.789 Y85.003 E0.01611
G1 X32.952 Y81.772 E0.01690
G1 X33.394 Y78.787 E0.01576
G1 X34.132 Y75.799 E0.01607
G1 X35.199 Y72.775 E0.01674
G1 X36.488 Y70.014 E0.01591
G1 X38.118 Y67.255 E0.01673
G1 X40.106 Y64.560 E0.01749
G1 X42.228 Y62.220 E0.01650
G1 X44.186 Y60.444 E0.01381
G1 E-2.00000 F2400.00000
G1 X51.909 Y69.420 F1200.000
G1 E2.00000 F2400.00000
G1 F600.000
G1 X52.882 Y68.647 E0.00649
G1 X53.688 Y68.079 E0.00515
G1 X54.521 Y67.551 E0.00515
G1 X55.380 Y67.063 E0.00516
G1 X56.282 Y66.608 E0.00527
G1 X57.209 Y66.196 E0.00530
G1 X58.155 Y65.832 E0.00530
G1 X59.118 Y65.515 E0.00530
G1 X60.096 Y65.246 E0.00530
G1 X61.086 Y65.026 E0.00530
G1 X62.086 Y64.856 E0.00530
G1 X63.101 Y64.735 E0.00534
G1 X64.186 Y64.662 E0.00568
G1 X65.115 Y64.646 E0.00485
G1 X66.064 Y64.674 E0.00496
G1 X67.111 Y64.756 E0.00548
G1 X68.153 Y64.892 E0.00549
G1 X69.164 Y65.077 E0.00537
G1 X70.124 Y65.302 E0.00515
G1 X71.072 Y65.573 E0.00515
G1 X72.006 Y65.890 E0.00515
G1 X72.924 Y66.252 E0.00515
G1 X73.823 Y66.658 E0.00515
G1 X74.701 Y67.107 E0.00515
G1 X75.557 Y67.598 E0.00515
G1 X76.388 Y68.130 E0.00515
G1 X77.192 Y68.701 E0.00515
G1 X77.967 Y69.311 E0.00515
G1 X78.712 Y69.958 E0.00515
G1 X79.425 Y70.640 E0.00515
G1 X80.103 Y71.356 E0.00515
G1 X80.747 Y72.104 E0.00515
G1 X81.353 Y72.882 E0.00515
G1 X81.921 Y73.688 E0.00515
G1 X82.449 Y74.521 E0.00515
G1 X82.937 Y75.380 E0.00516
G1 X83.392 Y76.282 E0.00527
G1 X83.804 Y77.209 E0.00530
G1 X84.168 Y78.155 E0.00530
G1 X84.485 Y79.118 E0.00530
G1 X84.754 Y80.096 E0.00530
G1 X84.974 Y81.086 E0.00530
G1 X85.144 Y82.086 E0.00530
G1 X85.265 Y83.101 E0.00534
G1 X85.338 Y84.185 E0.00567
G1 X85.353 Y85.137 E0.00497
G1 X85.326 Y86.064 E0.00484
G1 X85.244 Y87.111 E0.00549
G1 X85.108 Y88.153 E0.00549
G1 X84.923 Y89.164 E0.00537
G1 X84.698 Y90.124 E0.00515
G1 X84.427 Y91.072 E0.00515
G1 X84.110 Y92.006 E0.00515
G1 X83.748 Y92.924 E0.00515
G1 X83.342 Y93.823 E0.00515
G1 X82.893 Y94.701 E0.00515
G1 X82.402 Y95.557 E0.00515
G1 X81.870 Y96.388 E0.00515
G1 X81.299 Y97.192 E0.00515
G1 X80.689 Y97.967 E0.00515
G1 X80.042 Y98.712 E0.00515
G1 X79.360 Y99.425 E0.00515
G1 X78.644 Y100.103 E0.00515
G1 X77.896 Y100.747 E0.00515
G1 X77.118 Y101.353 E0.00515
G1 X76.312 Y101.921 E0.00515
G1 X75.479 Y102.449 E0.00515
G1 X74.620 Y102.937 E0.00516
G1 X73.718 Y103.392 E0.00527
G1 X72.791 Y103.804 E0.00530
G1 X71.845 Y104.168 E0.00530
G1 X70.882 Y104.485 E0.00530
G1 X69.904 Y104.754 E0.00530
G1 X68.914 Y104.974 E0.00530
G1 X67.914 Y105.144 E0.00530
G1 X66.899 Y105.265 E0.00534
G1 X65.815 Y105.338 E0.00567
G1 X64.863 Y105.353 E0.00497
G1 X63.936 Y105.326 E0.00484
G1 X62.889 Y105.244 E0.00549
G1 X61.847 Y105.108 E0.00549
G1 X60.836 Y104.923 E0.00537
G1 X59.876 Y104.698 E0.00515
G1 X58.928 Y104.427 E0.00515
G1 X57.994 Y104.110 E0.00515
G1 X57.076 Y103.748 E0.00515
G1 X56.177 Y103.342 E0.00515
G1 X55.299 Y102.893 E0.00515
G1 X54.443 Y102.402 E0.00515
G1 X53.612 Y101.870 E0.00515
G1 X52.808 Y101.299 E0.00515
G1 X52.033 Y100.689 E0.00515
G1 X51.288 Y100.042 E0.00515
G1 X50.575 Y99.360 E0.00515
G1 X49.897 Y98.644 E0.00515
G1 X49.253 Y97.896 E0.00515
G1 X48.647 Y97.118 E0.00515
G1 X48.079 Y96.312 E0.00515
G1 X47.551 Y95.479 E0.00515
G1 X47.063 Y94.620 E0.00516
G1 X46.608 Y93.718 E0.00527
G1 X46.196 Y92.791 E0.00530
G1 X45.832 Y91.845 E0.00530
G1 X45.515 Y90.882 E0.00530
G1 X45.246 Y89.904 E0.00530
G1 X45.026 Y88.914 E0.00530
G1 X44.856 Y87.914 E0.00530
G1 X44.735 Y86.899 E0.00534
G1 X44.662 Y85.815 E0.00567
G1 X44.647 Y84.863 E0.00497
G1 X44.674 Y83.936 E0.00484
G1 X44.756 Y82.889 E0.00549
G1 X44.892 Y81.847 E0.00549
G1 X45.077 Y80.836 E0.00537
G1 X45.302 Y79.876 E0.00515
G1 X45.573 Y78.928 E0.00515
G1 X45.890 Y77.994 E0.00515
G1 X46.252 Y77.076 E0.00515
G1 X46.658 Y76.177 E0.00515
G1 X47.107 Y75.299 E0.00515
G1 X47.598 Y74.443 E0.00515
G1 X48.130 Y73.612 E0.00515
G1 X48.701 Y72.808 E0.00515
G1 X49.311 Y72.033 E0.00515
G1 X49.958 Y71.288 E0.00515
G1 X50.640 Y70.575 E0.00515
G1 X51.454 Y69.812 E0.00583
G1 Z3.000 F1200.000
G1 F600.000
G1 Z3.020 X51.482 Y68.495 E0.00498
G1 Z3.043 X52.298 Y67.859 E0.00586
G1 Z3.066 X53.143 Y67.264 E0.00586
G1 Z3.089 X54.016 Y66.710 E0.00586
G1 Z3.112 X54.917 Y66.199 E0.00586
G1 Z3.136 X55.862 Y65.722 E0.00599
G1 Z3.160 X56.833 Y65.291 E0.00602
G1 Z3.184 X57.825 Y64.908 E0.00602
G1 Z3.207 X58.835 Y64.576 E0.00602
G1 Z3.231 X59.860 Y64.294 E0.00602
G1 Z3.255 X60.898 Y64.064 E0.00602
G1 Z3.279 X61.945 Y63.885 E0.00602
G1 Z3.303 X63.010 Y63.759 E0.00607
G1 Z3.328 X64.147 Y63.683 E0.00646
G1 Z3.349 X65.091 Y63.666 E0.00535
G1 Z3.372 X66.116 Y63.695 E0.00581
G1 Z3.397 X67.213 Y63.781 E0.00623
G1 Z3.422 X68.305 Y63.923 E0.00624
G1 Z3.446 X69.365 Y64.117 E0.00610
G1 Z3.469 X70.371 Y64.353 E0.00585
G1 Z3.492 X71.365 Y64.637 E0.00586
G1 Z3.515 X72.344 Y64.969 E0.00586
G1 Z3.538 X73.306 Y65.349 E0.00586
G1 Z3.561 X74.248 Y65.774 E0.00586
G1 Z3.585 X75.169 Y66.245 E0.00586
G1 Z3.608 X76.065 Y66.760 E0.00586
G1 Z3.631 X76.936 Y67.317 E0.00586
G1 Z3.654 X77.779 Y67.916 E0.00586
G1 Z3.677 X78.592 Y68.555 E0.00586
G1 Z3.700 X79.372 Y69.233 E0.00586
G1 Z3.723 X80.120 Y69.948 E0.00586
G1 Z3.747 X80.831 Y70.698 E0.00586
G1 Z3.770 X81.505 Y71.482 E0.00586
G1 Z3.793 X82.141 Y72.298 E0.00586
G1 Z3.816 X82.736 Y73.143 E0.00586
G1 Z3.839 X83.290 Y74.016 E0.00586
G1 Z3.862 X83.801 Y74.917 E0.00586
G1 Z3.886 X84.278 Y75.862 E0.00599
G1 Z3.910 X84.709 Y76.833 E0.00602
G1 Z3.934 X85.092 Y77.825 E0.00602
G1 Z3.957 X85.424 Y78.835 E0.00602
G1 Z3.981 X85.706 Y79.860 E0.00602
G1 Z4.005 X85.936 Y80.898 E0.00602
G1 Z4.029 X86.115 Y81.945 E0.00602
G1 Z4.053 X86.241 Y83.010 E0.00607
G1 Z4.078 X86.317 Y84.146 E0.00645
G1 Z4.101 X86.334 Y85.144 E0.00565
G1 Z4.122 X86.305 Y86.115 E0.00550
G1 Z4.147 X86.219 Y87.213 E0.00624
G1 Z4.172 X86.077 Y88.305 E0.00624
G1 Z4.196 X85.883 Y89.365 E0.00610
G1 Z4.219 X85.647 Y90.371 E0.00585
G1 Z4.242 X85.363 Y91.365 E0.00586
G1 Z4.265 X85.031 Y92.344 E0.00586
G1 Z4.288 X84.651 Y93.306 E0.00586
G1 Z4.311 X84.226 Y94.248 E0.00586
G1 Z4.335 X83.755 Y95.169 E0.00586
G1 Z4.358 X83.240 Y96.065 E0.00586
G1 Z4.381 X82.683 Y96.936 E0.00586
G1 Z4.404 X82.084 Y97.779 E0.00586
G1 Z4.427 X81.445 Y98.592 E0.00586
G1 Z4.450 X80.767 Y99.372 E0.00586
G1 Z4.473 X80.052 Y100.120 E0.00586
G1 Z4.497 X79.302 Y100.831 E0.00586
G1 Z4.520 X78.518 Y101.505 E0.00586
G1 Z4.543 X77.702 Y102.141 E0.00586
G1 Z4.566 X76.857 Y102.736 E0.00586
G1 Z4.589 X75.984 Y103.290 E0.00586
G1 Z4.612 X75.083 Y103.801 E0.00586
G1 Z4.636 X74.138 Y104.278 E0.00599
G1 Z4.660 X73.167 Y104.709 E0.00602
G1 Z4.684 X72.175 Y105.092 E0.00602
G1 Z4.707 X71.165 Y105.424 E0.00602
G1 Z4.731 X70.140 Y105.706 E0.00602
G1 Z4.755 X69.102 Y105.936 E0.00602
G1 Z4.779 X68.055 Y106.115 E0.00602
G1 Z4.803 X66.990 Y106.241 E0.00607
G1 Z4.828 X65.854 Y106.317 E0.00645
G1 Z4.851 X64.856 Y106.334 E0.00565
G1 Z4.872 X63.885 Y106.305 E0.00550
G1 Z4.897 X62.787 Y106.219 E0.00624
G1 Z4.922 X61.695 Y106.077 E0.00624
G1 Z4.946 X60.635 Y105.883 E0.00610
G1 Z4.969 X59.629 Y105.647 E0.00585
G1 Z4.992 X58.635 Y105.363 E0.00586
G1 Z5.015 X57.656 Y105.031 E0.00586
G1 Z5.038 X56.694 Y104.651 E0.00586
G1 Z5.061 X55.752 Y104.226 E0.00586
G1 Z5.085 X54.831 Y103.755 E0.00586
G1 Z5.108 X53.935 Y103.240 E0.00586
G1 Z5.131 X53.064 Y102.683 E0.00586
G1 Z5.154 X52.221 Y102.084 E0.00586
G1 Z5.177 X51.408 Y101.445 E0.00586
G1 Z5.200 X50.628 Y100.767 E0.00586
G1 Z5.223 X49.880 Y100.052 E0.00586
G1 Z5.247 X49.169 Y99.302 E0.00586
G1 Z5.270 X48.495 Y98.518 E0.00586
G1 Z5.293 X47.859 Y97.702 E0.00586
G1 Z5.316 X47.264 Y96.857 E0.00586
G1 Z5.339 X46.710 Y95.984 E0.00586
G1 Z5.362 X46.199 Y95.083 E0.00586
G1 Z5.386 X45.722 Y94.138 E0.00599
G1 Z5.410 X45.291 Y93.167 E0.00602
G1 Z5.434 X44.908 Y92.175 E0.00602
G1 Z5.457 X44.576 Y91.165 E0.00602
G1 Z5.481 X44.294 Y90.140 E0.00602
G1 Z5.505 X44.064 Y89.102 E0.00602
G1 Z5.529 X43.885 Y88.055 E0.00602
G1 Z5.553 X43.759 Y86.990 E0.00607
G1 Z5.578 X43.683 Y85.854 E0.00645
G1 Z5.601 X43.666 Y84.856 E0.00565
G1 Z5.622 X43.695 Y83.885 E0.00550
G1 Z5.647 X43.781 Y82.787 E0.00624
G1 Z5.672 X43.923 Y81.695 E0.00624
G1 Z5.696 X44.117 Y80.635 E0.00610
G1 Z5.719 X44.353 Y79.629 E0.00585
G1 Z5.742 X44.637 Y78.635 E0.00586
G1 Z5.765 X44.969 Y77.656 E0.00586
G1 Z5.788 X45.349 Y76.694 E0.00586
G1 Z5.811 X45.774 Y75.752 E0.00586
G1 Z5.835 X46.245 Y74.831 E0.00586
G1 Z5.858 X46.760 Y73.935 E0.00586
G1 Z5.881 X47.317 Y73.064 E0.00586
G1 Z5.904 X47.916 Y72.221 E0.00586
G1 Z5.927 X48.555 Y71.408 E0.00586
G1 Z5.950 X49.233 Y70.628 E0.00586
G1 Z5.973 X49.948 Y69.880 E0.00586
G1 Z6.000 X50.815 Y69.069 E0.00673
G1 Z6.000 F1200.000
G1 F600.000
G1 Z6.019 X51.057 Y67.975 E0.00508
G1 Z6.043 X51.898 Y67.320 E0.00604
G1 Z6.066 X52.770 Y66.706 E0.00604
G1 Z6.089 X53.671 Y66.135 E0.00604
G1 Z6.112 X54.600 Y65.607 E0.00605
G1 Z6.136 X55.574 Y65.115 E0.00618
G1 Z6.160 X56.576 Y64.671 E0.00621
G1 Z6.183 X57.599 Y64.276 E0.00621
G1 Z6.207 X58.641 Y63.933 E0.00621
G1 Z6.231 X59.698 Y63.643 E0.00621
G1 Z6.255 X60.769 Y63.405 E0.00621
G1 Z6.278 X61.849 Y63.221 E0.00621
G1 Z6.302 X62.947 Y63.090 E0.00626
G1 Z6.328 X64.121 Y63.012 E0.00666
G1 Z6.349 X65.067 Y62.995 E0.00536
G1 Z6.372 X66.152 Y63.025 E0.00615
G1 Z6.397 X67.282 Y63.113 E0.00642
G1 Z6.421 X68.409 Y63.260 E0.00643
G1 Z6.445 X69.502 Y63.460 E0.00630
G1 Z6.469 X70.540 Y63.703 E0.00603
G1 Z6.492 X71.565 Y63.996 E0.00604
G1 Z6.515 X72.575 Y64.339 E0.00604
G1 Z6.538 X73.567 Y64.730 E0.00604
G1 Z6.561 X74.539 Y65.169 E0.00604
G1 Z6.584 X75.489 Y65.655 E0.00604
G1 Z6.607 X76.414 Y66.186 E0.00604
G1 Z6.631 X77.312 Y66.761 E0.00604
G1 Z6.654 X78.181 Y67.379 E0.00604
G1 Z6.677 X79.019 Y68.038 E0.00604
G1 Z6.700 X79.825 Y68.737 E0.00604
G1 Z6.723 X80.595 Y69.475 E0.00604
G1 Z6.746 X81.329 Y70.248 E0.00604
G1 Z6.769 X82.025 Y71.057 E0.00604
G1 Z6.793 X82.680 Y71.898 E0.00604
G1 Z6.816 X83.294 Y72.770 E0.00604
G1 Z6.839 X83.865 Y73.671 E0.00604
G1 Z6.862 X84.393 Y74.600 E0.00605
G1 Z6.886 X84.885 Y75.574 E0.00618
G1 Z6.910 X85.329 Y76.576 E0.00621
G1 Z6.933 X85.724 Y77.599 E0.00621
G1 Z6.957 X86.067 Y78.641 E0.00621
G1 Z6.981 X86.357 Y79.698 E0.00621
G1 Z7.005 X86.595 Y80.769 E0.00621
G1 Z7.028 X86.779 Y81.849 E0.00621
G1 Z7.052 X86.910 Y82.947 E0.00626
G1 Z7.078 X86.988 Y84.123 E0.00667
G1 Z7.097 X87.006 Y85.000 E0.00497
G1 Z7.116 X86.989 Y85.867 E0.00491
G1 Z7.141 X86.915 Y86.999 E0.00642
G1 Z7.165 X86.782 Y88.129 E0.00644
G1 Z7.190 X86.594 Y89.235 E0.00635
G1 Z7.219 X86.295 Y90.546 E0.00762
G1 Z7.242 X86.004 Y91.565 E0.00600
G1 Z7.265 X85.661 Y92.575 E0.00604
G1 Z7.288 X85.270 Y93.567 E0.00604
G1 Z7.311 X84.831 Y94.539 E0.00604
G1 Z7.334 X84.345 Y95.489 E0.00604
G1 Z7.357 X83.814 Y96.414 E0.00604
G1 Z7.381 X83.239 Y97.312 E0.00604
G1 Z7.404 X82.621 Y98.181 E0.00604
G1 Z7.427 X81.962 Y99.019 E0.00604
G1 Z7.450 X81.263 Y99.825 E0.00604
G1 Z7.473 X80.525 Y100.595 E0.00604
G1 Z7.496 X79.752 Y101.329 E0.00604
G1 Z7.519 X78.943 Y102.025 E0.00604
G1 Z7.543 X78.102 Y102.680 E0.00604
G1 Z7.566 X77.230 Y103.294 E0.00604
G1 Z7.589 X76.329 Y103.865 E0.00604
G1 Z7.612 X75.400 Y104.393 E0.00605
G1 Z7.636 X74.426 Y104.885 E0.00618
G1 Z7.660 X73.424 Y105.329 E0.00621
G1 Z7.683 X72.401 Y105.724 E0.00621
G1 Z7.707 X71.359 Y106.067 E0.00621
G1 Z7.731 X70.302 Y106.357 E0.00621
G1 Z7.755 X69.231 Y106.595 E0.00621
G1 Z7.778 X68.151 Y106.779 E0.00621
G1 Z7.802 X67.053 Y106.910 E0.00626
G1 Z7.828 X65.877 Y106.988 E0.00667
G1 Z7.847 X65.000 Y107.006 E0.00497
G1 Z7.866 X64.133 Y106.989 E0.00491
G1 Z7.891 X63.001 Y106.915 E0.00642
G1 Z7.915 X61.871 Y106.782 E0.00644
G1 Z7.940 X60.765 Y106.594 E0.00635
G1 Z7.969 X59.454 Y106.295 E0.00762
G1 Z7.992 X58.435 Y106.004 E0.00600
G1 Z8.015 X57.425 Y105.661 E0.00604
G1 Z8.038 X56.433 Y105.270 E0.00604
G1 Z8.061 X55.461 Y104.831 E0.00604
G1 Z8.084 X54.511 Y104.345 E0.00604
G1 Z8.107 X53.586 Y103.814 E0.00604
G1 Z8.131 X52.688 Y103.239 E0.00604
G1 Z8.154 X51.819 Y102.621 E0.00604
G1 Z8.177 X50.981 Y101.962 E0.00604
G1 Z8.200 X50.175 Y101.263 E0.00604
G1 Z8.223 X49.405 Y100.525 E0.00604
G1 Z8.246 X48.671 Y99.752 E0.00604
G1 Z8.269 X47.975 Y98.943 E0.00604
G1 Z8.293 X47.320 Y98.102 E0.00604
G1 Z8.316 X46.706 Y97.230 E0.00604
G1 Z8.339 X46.135 Y96.329 E0.00604
G1 Z8.362 X45.607 Y95.400 E0.00605
G1 Z8.386 X45.115 Y94.426 E0.00618
G1 Z8.410 X44.671 Y93.424 E0.00621
G1 Z8.433 X44.276 Y92.401 E0.00621
G1 Z8.457 X43.933 Y91.359 E0.00621
G1 Z8.481 X43.643 Y90.302 E0.00621
G1 Z8.505 X43.405 Y89.231 E0.00621
G1 Z8.528 X43.221 Y88.151 E0.00621
G1 Z8.552 X43.090 Y87.053 E0.00626
G1 Z8.578 X43.012 Y85.877 E0.00667
G1 Z8.597 X42.994 Y85.000 E0.00497
G1 Z8.616 X43.011 Y84.133 E0.00491
G1 Z8.641 X43.085 Y83.001 E0.00642
G1 Z8.665 X43.218 Y81.871 E0.00644
G1 Z8.690 X43.406 Y80.765 E0.00635
G1 Z8.719 X43.705 Y79.454 E0.00762
G1 Z8.742 X43.996 Y78.435 E0.00600
G1 Z8.765 X44.339 Y77.425 E0.00604
G1 Z8.788 X44.730 Y76.433 E0.00604
G1 Z8.811 X45.169 Y75.461 E0.00604
G1 Z8.834 X45.655 Y74.511 E0.00604
G1 Z8.857 X46.186 Y73.586 E0.00604
G1 Z8.881 X46.761 Y72.688 E0.00604
G1 Z8.904 X47.379 Y71.819 E0.00604
G1 Z8.927 X48.038 Y70.981 E0.00604
G1 Z8.950 X48.737 Y70.175 E0.00604
G1 Z8.973 X49.475 Y69.405 E0.00604
G1 Z9.000 X50.377 Y68.560 E0.00700
M106 S226.95
G1 Z9.000 F1200.000
G1 F600.000
G1 Z9.019 X50.790 Y67.649 E0.00513
G1 Z9.042 X51.647 Y66.981 E0.00616
G1 Z9.066 X52.536 Y66.355 E0.00616
G1 Z9.089 X53.454 Y65.773 E0.00616
G1 Z9.112 X54.400 Y65.235 E0.00616
G1 Z9.136 X55.393 Y64.734 E0.00630
G1 Z9.159 X56.415 Y64.281 E0.00633
G1 Z9.183 X57.457 Y63.879 E0.00633
G1 Z9.207 X58.519 Y63.529 E0.00633
G1 Z9.231 X59.596 Y63.233 E0.00633
G1 Z9.255 X60.687 Y62.991 E0.00633
G1 Z9.278 X61.789 Y62.803 E0.00633
G1 Z9.302 X62.908 Y62.670 E0.00638
G1 Z9.328 X64.105 Y62.590 E0.00679
G1 Z9.348 X65.040 Y62.572 E0.00530
G1 Z9.372 X66.175 Y62.603 E0.00643
G1 Z9.397 X67.326 Y62.693 E0.00654
G1 Z9.421 X68.474 Y62.843 E0.00656
G1 Z9.445 X69.589 Y63.047 E0.00642
G1 Z9.468 X70.646 Y63.295 E0.00615
G1 Z9.492 X71.691 Y63.594 E0.00616
