; generated by PrusaSlicer 2.2.0+win64 on 2021-07-14 at 19:09:23 UTC

; 

; external perimeters extrusion width = 6.75mm
; perimeters extrusion width = 6.75mm
; infill extrusion width = 6.75mm
; solid infill extrusion width = 6.75mm
; top infill extrusion width = 4.00mm

M107
M104 S200 ; set temperature
M109 S200 ; set temperature and wait for it to be reached
G21 ; set units to millimeters
G90 ; use absolute coordinates
M83 ; use relative distances for extrusion
; Filament gcode
G1 Z2.000 F1200.000
G1 X29.015 Y35.852
G1 F720.000
G1 X30.219 Y34.877 E0.01678
G1 X31.233 Y34.148 E0.01352
G1 X41.110 Y28.907 E0.12110
G1 X42.317 Y28.357 E0.01436
G1 X53.069 Y25.211 E0.12132
G1 X54.251 Y24.934 E0.01314
G1 X55.489 Y24.773 E0.01352
G1 X66.351 Y23.974 E0.11795
G1 X67.761 Y24.056 E0.01530
G1 X77.354 Y25.193 E0.10462
G1 X78.448 Y25.379 E0.01202
G1 X79.679 Y25.713 E0.01382
G1 X88.358 Y28.563 E0.09892
G1 X89.448 Y28.987 E0.01267
G1 X90.448 Y29.488 E0.01211
G1 X98.913 Y34.278 E0.10533
G1 X99.959 Y34.943 E0.01342
G1 X100.912 Y35.690 E0.01312
G1 X108.532 Y42.303 E0.10926
G1 X109.345 Y43.084 E0.01220
G1 X110.174 Y44.052 E0.01380
G1 X116.188 Y51.876 E0.10687
G1 X116.829 Y52.803 E0.01220
G1 X117.429 Y53.878 E0.01333
G1 X122.148 Y63.558 E0.11663
G1 X122.542 Y64.770 E0.01380
G1 X125.322 Y75.355 E0.11851
G1 X125.468 Y76.577 E0.01333
G1 X126.116 Y86.854 E0.11152
G1 X126.006 Y88.254 E0.01521
G1 X124.696 Y97.733 E0.10363
G1 X124.481 Y98.856 E0.01239
G1 X124.162 Y99.955 E0.01239
G1 X120.889 Y109.394 E0.10819
G1 X120.436 Y110.520 E0.01314
G1 X119.856 Y111.625 E0.01352
G1 X114.785 Y120.196 E0.10785
G1 X114.162 Y121.135 E0.01220
G1 X113.388 Y122.092 E0.01333
G1 X106.222 Y130.000 E0.11557
G1 X105.123 Y130.928 E0.01558
G1 X96.254 Y137.467 E0.11933
G1 X95.156 Y138.060 E0.01352
G1 X85.537 Y142.577 E0.11508
G1 X84.172 Y143.004 E0.01549
G1 X74.321 Y145.387 E0.10976
G1 X73.141 Y145.516 E0.01286
G1 X63.795 Y146.034 E0.10137
G1 X62.507 Y145.940 E0.01399
G1 X51.344 Y144.467 E0.12193
G1 X50.215 Y144.158 E0.01267
G1 X41.474 Y141.254 E0.09975
G1 X40.303 Y140.797 E0.01361
G1 X30.469 Y135.279 E0.12212
G1 X29.410 Y134.603 E0.01361
G1 X28.424 Y133.823 E0.01361
G1 X19.986 Y126.323 E0.12227
G1 X19.085 Y125.257 E0.01511
G1 X13.347 Y117.611 E0.10353
G1 X12.704 Y116.654 E0.01249
G1 X12.105 Y115.539 E0.01371
G1 X7.622 Y105.902 E0.11510
G1 X7.249 Y104.702 E0.01361
G1 X4.737 Y94.615 E0.11258
G1 X4.611 Y93.460 E0.01258
G1 X4.021 Y82.964 E0.11385
G1 X4.119 Y81.650 E0.01427
G1 X5.324 Y72.392 E0.10110
G1 X5.524 Y71.292 E0.01211
G1 X5.844 Y70.154 E0.01281
G1 X9.336 Y59.849 E0.11783
G1 X9.896 Y58.734 E0.01352
G1 X15.179 Y49.546 E0.11477
G1 X15.953 Y48.556 E0.01361
G1 X21.642 Y41.999 E0.09401
G1 X22.429 Y41.181 E0.01230
G1 X28.315 Y36.418 E0.08200
G1 X38.257 Y48.807 F1200.000
G1 F720.000
G1 X39.877 Y47.507 E0.02249
G1 X48.152 Y43.162 E0.10122
G1 X57.117 Y40.586 E0.10101
G1 X65.450 Y39.867 E0.09058
G1 X73.389 Y40.590 E0.08634
G1 X81.371 Y42.850 E0.08984
G1 X89.263 Y46.918 E0.09615
G1 X96.517 Y52.724 E0.10061
G1 X102.349 Y59.718 E0.09863
G1 X106.614 Y67.565 E0.09672
G1 X109.313 Y76.267 E0.09867
G1 X110.234 Y85.008 E0.09519
G1 X109.392 Y93.371 E0.09103
G1 X106.718 Y102.192 E0.09982
G1 X102.355 Y110.275 E0.09947
G1 X96.622 Y117.173 E0.09714
G1 X89.525 Y122.906 E0.09880
G1 X81.647 Y127.029 E0.09629
G1 X73.506 Y129.396 E0.09181
G1 X65.048 Y130.139 E0.09195
G1 X55.980 Y129.193 E0.09873
G1 X46.799 Y126.269 E0.10435
G1 X38.619 Y121.628 E0.10185
G1 X32.494 Y116.389 E0.08728
G1 X27.289 Y109.974 E0.08947
G1 X23.183 Y102.068 E0.09647
G1 X20.759 Y93.869 E0.09259
G1 X19.897 Y84.992 E0.09658
G1 X20.676 Y76.577 E0.09152
G1 X23.181 Y67.956 E0.09722
G1 X27.405 Y59.861 E0.09889
G1 X33.413 Y52.695 E0.10127
G1 X37.555 Y49.370 E0.05753
G1 Z2.000 F1200.000
G1 F720.000
G1 Z2.017 X39.464 Y47.948 E0.02574
G1 Z2.077 X46.961 Y43.869 E0.09243
G1 Z2.143 X55.808 Y41.043 E0.10057
G1 Z2.212 X65.542 Y39.999 E0.10601
G1 Z2.268 X73.463 Y40.623 E0.08605
G1 Z2.324 X81.011 Y42.681 E0.08473
G1 Z2.386 X88.827 Y46.754 E0.09545
G1 Z2.455 X96.365 Y52.831 E0.10485
G1 Z2.519 X102.180 Y59.828 E0.09853
G1 Z2.582 X106.473 Y67.661 E0.09673
G1 Z2.647 X109.252 Y76.348 E0.09877
G1 Z2.706 X110.286 Y84.565 E0.08970
G1 Z2.765 X109.423 Y92.898 E0.09072
G1 Z2.830 X106.736 Y101.733 E0.10000
G1 Z2.885 X103.181 Y108.637 E0.08410
G1 Z2.949 X97.714 Y115.779 E0.09741
G1 Z3.013 X90.902 Y121.811 E0.09853
G1 Z3.076 X83.216 Y126.338 E0.09660
G1 Z3.134 X75.543 Y128.999 E0.08796
G1 Z3.192 X67.352 Y129.998 E0.08936
G1 Z3.259 X57.923 Y129.362 E0.10234
G1 Z3.321 X49.405 Y127.106 E0.09542
G1 Z3.388 X40.894 Y122.965 E0.10251
G1 Z3.455 X33.409 Y117.223 E0.10216
G1 Z3.511 X28.149 Y111.339 E0.08547
G1 Z3.570 X24.097 Y104.068 E0.09014
G1 Z3.631 X21.360 Y95.889 E0.09340
G1 Z3.696 X20.136 Y86.777 E0.09957
G1 Z3.769 X20.867 Y76.517 E0.11140
G1 Z3.832 X23.292 Y67.919 E0.09675
G1 Z3.902 X27.835 Y59.120 E0.10723
G1 Z3.949 X32.112 Y54.031 E0.07200
G1 Z4.000 X37.633 Y49.463 E0.07759
G1 Z4.000 F1200.000
G1 F720.000
G1 Z4.033 X41.547 Y47.053 E0.04962
G1 Z4.095 X49.514 Y43.280 E0.09547
G1 Z4.162 X58.568 Y40.925 E0.10131
G1 Z4.226 X67.574 Y40.356 E0.09772
G1 Z4.293 X76.805 Y41.482 E0.10071
G1 Z4.333 X82.096 Y43.353 E0.06077
G1 Z4.396 X89.771 Y47.766 E0.09588
G1 Z4.467 X97.335 Y54.390 E0.10888
G1 Z4.532 X102.830 Y61.559 E0.09782
G1 Z4.595 X106.837 Y69.495 E0.09628
G1 Z4.660 X109.359 Y78.198 E0.09813
G1 Z4.713 X110.143 Y85.602 E0.08063
G1 Z4.774 X108.869 Y94.128 E0.09335
G1 Z4.840 X105.841 Y102.859 E0.10007
G1 Z4.898 X101.861 Y109.928 E0.08785
G1 Z4.962 X96.168 Y116.827 E0.09687
G1 Z5.026 X89.196 Y122.620 E0.09816
G1 Z5.089 X81.531 Y126.871 E0.09493
G1 Z5.142 X74.285 Y129.040 E0.08190
G1 Z5.205 X65.523 Y129.686 E0.09515
G1 Z5.273 X56.115 Y128.618 E0.10254
G1 Z5.341 X46.951 Y125.696 E0.10416
G1 Z5.408 X38.783 Y121.177 E0.10109
G1 Z5.474 X31.659 Y115.163 E0.10097
G1 Z5.530 X26.852 Y109.010 E0.08456
G1 Z5.592 X23.233 Y101.121 E0.09399
G1 Z5.652 X21.143 Y92.904 E0.09182
G1 Z5.720 X20.532 Y83.327 E0.10393
G1 Z5.781 X21.573 Y74.825 E0.09275
G1 Z5.845 X24.270 Y66.239 E0.09746
G1 Z5.906 X28.272 Y58.735 E0.09210
G1 Z5.965 X33.942 Y52.627 E0.09025
G1 Z6.000 X37.851 Y49.762 E0.05250
M106 S198.9
G1 Z6.000 F1200.000
G1 F720.000
G1 Z6.020 X40.211 Y48.286 E0.02999
G1 Z6.086 X48.415 Y44.127 E0.09961
G1 Z6.152 X57.315 Y41.541 E0.10036
G1 Z6.224 X67.291 Y40.652 E0.10846
G1 Z6.293 X76.819 Y41.658 E0.10376
G1 Z6.329 X81.624 Y43.365 E0.05522
G1 Z6.393 X89.236 Y47.778 E0.09529
G1 Z6.457 X96.088 Y53.638 E0.09764
G1 Z6.519 X101.506 Y60.267 E0.09271
G1 Z6.582 X105.823 Y68.014 E0.09604
G1 Z6.647 X108.735 Y76.572 E0.09790
G1 Z6.708 X110.008 Y84.999 E0.09229
G1 Z6.771 X108.700 Y93.604 E0.09426
G1 Z6.837 X105.682 Y102.307 E0.09975
G1 Z6.898 X101.522 Y109.711 E0.09197
G1 Z6.961 X95.870 Y116.584 E0.09636
G1 Z7.026 X88.999 Y122.375 E0.09732
G1 Z7.101 X79.785 Y127.417 E0.11375
G1 Z7.139 X74.709 Y128.761 E0.05686
G1 Z7.200 X66.250 Y129.373 E0.09185
G1 Z7.272 X56.242 Y128.240 E0.10908
G1 Z7.341 X47.067 Y125.317 E0.10428
G1 Z7.408 X38.911 Y120.864 E0.10063
G1 Z7.475 X31.716 Y114.921 E0.10107
G1 Z7.513 X28.210 Y110.928 E0.05754
G1 Z7.589 X23.653 Y101.395 E0.11443
G1 Z7.649 X21.578 Y93.238 E0.09115
G1 Z7.708 X20.907 Y85.034 E0.08915
G1 Z7.782 X21.950 Y74.806 E0.11134
G1 Z7.846 X24.549 Y66.260 E0.09674
G1 Z7.906 X28.407 Y58.782 E0.09112
G1 Z7.952 X32.775 Y54.047 E0.06977
G1 Z8.000 X38.022 Y49.982 E0.07187
G1 Z8.000 F1200.000
G1 F720.000
G1 Z8.007 X38.897 Y49.542 E0.01036
G1 Z8.083 X48.216 Y44.638 E0.11405
G1 Z8.152 X57.418 Y41.919 E0.10390
G1 Z8.222 X67.012 Y40.942 E0.10444
G1 Z8.282 X75.269 Y41.549 E0.08966
G1 Z8.314 X79.640 Y42.701 E0.04896
G1 Z8.389 X88.709 Y47.799 E0.11266
G1 Z8.454 X95.507 Y53.593 E0.09673
G1 Z8.518 X101.174 Y60.495 E0.09672
G1 Z8.582 X105.499 Y68.190 E0.09559
G1 Z8.647 X108.478 Y76.689 E0.09752
G1 Z8.708 X109.865 Y85.005 E0.09130
G1 Z8.767 X108.542 Y93.070 E0.08851
G1 Z8.834 X105.514 Y101.781 E0.09987
G1 Z8.885 X102.157 Y108.013 E0.07666
G1 Z8.949 X96.788 Y115.053 E0.09587
G1 Z9.013 X90.208 Y121.093 E0.09673
G1 Z9.089 X81.242 Y126.578 E0.11383
G1 Z9.124 X76.629 Y128.216 E0.05301
G1 Z9.182 X68.642 Y129.052 E0.08697
G1 Z9.249 X59.378 Y128.429 E0.10054
G1 Z9.321 X49.714 Y125.938 E0.10808
G1 Z9.389 X41.274 Y121.952 E0.10108
G1 Z9.456 X33.769 Y116.520 E0.10033
G1 Z9.510 X28.502 Y111.107 E0.08179
G1 Z9.560 X25.332 Y104.972 E0.07479
G1 Z9.622 X22.686 Y96.888 E0.09212
G1 Z9.695 X21.342 Y86.759 E0.11066
G1 Z9.769 X22.002 Y76.534 E0.11096
G1 Z9.833 X24.195 Y67.985 E0.09558
G1 Z9.906 X28.565 Y58.804 E0.11011
G1 Z9.939 X31.642 Y55.441 E0.04938
G1 Z10.000 X38.155 Y50.145 E0.09090
G1 Z10.000 F1200.000
G1 F720.000
G1 Z10.033 X42.100 Y47.983 E0.04849
G1 Z10.104 X51.074 Y44.013 E0.10626
G1 Z10.171 X60.121 Y41.843 E0.10076
G1 Z10.244 X70.072 Y41.298 E0.10793
G1 Z10.304 X78.328 Y42.298 E0.09007
G1 Z10.335 X82.164 Y44.079 E0.04580
G1 Z10.399 X89.578 Y48.824 E0.09533
G1 Z10.467 X96.426 Y55.127 E0.10079
G1 Z10.518 X100.825 Y60.693 E0.07684
G1 Z10.582 X105.174 Y68.367 E0.09552
G1 Z10.648 X108.222 Y76.806 E0.09716
G1 Z10.708 X109.717 Y84.984 E0.09003
G1 Z10.777 X107.920 Y94.312 E0.10288
G1 Z10.843 X104.610 Y102.826 E0.09892
G1 Z10.911 X99.821 Y110.717 E0.09996
G1 Z10.975 X94.028 Y117.341 E0.09530
G1 Z11.039 X87.115 Y122.937 E0.09632
G1 Z11.112 X78.297 Y127.677 E0.10841
G1 Z11.208 X65.142 Y128.668 E0.14287
G1 Z11.282 X55.086 Y127.153 E0.11014
G1 Z11.361 X44.871 Y123.458 E0.11763
G1 Z11.427 X36.991 Y118.733 E0.09950
G1 Z11.502 X29.402 Y111.902 E0.11058
G1 Z11.545 X26.404 Y106.801 E0.06408
G1 Z11.606 X23.518 Y98.813 E0.09198
G1 Z11.668 X21.992 Y90.523 E0.09128
G1 Z11.732 X21.814 Y81.692 E0.09565
G1 Z11.808 X23.476 Y71.375 E0.11317
G1 Z11.872 X26.437 Y63.128 E0.09489
G1 Z11.905 X28.596 Y59.001 E0.05045
G1 Z11.965 X34.484 Y53.201 E0.08950
G1 Z12.000 X38.407 Y50.513 E0.05150
G1 Z12.000 F1200.000
G1 F720.000
G1 Z12.020 X40.767 Y49.165 E0.02928
G1 Z12.094 X49.956 Y44.830 E0.11003
G1 Z12.172 X60.227 Y42.210 E0.11479
G1 Z12.242 X69.791 Y41.577 E0.10381
G1 Z12.294 X76.843 Y42.174 E0.07664
G1 Z12.320 X80.281 Y43.346 E0.03934
G1 Z12.396 X89.065 Y48.834 E0.11217
G1 Z12.461 X95.618 Y54.822 E0.09613
G1 Z12.518 X100.496 Y60.927 E0.08463
G1 Z12.582 X104.850 Y68.544 E0.09501
G1 Z12.648 X107.966 Y76.923 E0.09682
G1 Z12.708 X109.573 Y84.992 E0.08909
G1 Z12.774 X107.774 Y93.800 E0.09736
G1 Z12.833 X104.882 Y101.392 E0.08798
G1 Z12.897 X100.512 Y109.048 E0.09547
G1 Z12.962 X94.976 Y115.854 E0.09501
G1 Z13.026 X88.333 Y121.704 E0.09586
G1 Z13.101 X79.566 Y126.966 E0.11073
G1 Z13.130 X75.798 Y128.007 E0.04234
G1 Z13.188 X67.851 Y128.468 E0.08620
G1 Z13.263 X57.693 Y127.337 E0.11069
G1 Z13.342 X47.398 Y124.173 E0.11663
G1 Z13.408 X39.312 Y119.933 E0.09889
G1 Z13.485 X31.142 Y113.468 E0.11282
G1 Z13.517 X28.290 Y110.148 E0.04740
G1 Z13.591 X24.388 Y100.721 E0.11049
G1 Z13.652 X22.631 Y92.616 E0.08981
G1 Z13.720 X22.140 Y83.359 E0.10039
G1 Z13.795 X23.404 Y73.108 E0.11186
G1 Z13.859 X26.000 Y64.727 E0.09502
G1 Z13.906 X28.753 Y59.029 E0.06853
G1 Z13.952 X33.295 Y54.541 E0.06915
G1 Z14.000 X38.573 Y50.744 E0.07041
M106 S201.45
G1 Z14.000 F1200.000
G1 F720.000
G1 Z14.007 X39.478 Y50.357 E0.01032
G1 Z14.084 X48.868 Y45.663 E0.11369
G1 Z14.162 X58.990 Y42.808 E0.11389
G1 Z14.239 X69.501 Y41.859 E0.11429
G1 Z14.294 X76.877 Y42.352 E0.08006
G1 Z14.317 X79.863 Y43.339 E0.03405
G1 Z14.392 X88.526 Y48.822 E0.11103
G1 Z14.457 X95.043 Y54.773 E0.09557
G1 Z14.518 X100.164 Y61.156 E0.08862
G1 Z14.582 X104.527 Y68.721 E0.09457
G1 Z14.648 X107.711 Y77.041 E0.09648
G1 Z14.708 X109.427 Y84.998 E0.08815
G1 Z14.770 X107.635 Y93.259 E0.09155
G1 Z14.837 X104.300 Y101.759 E0.09888
G1 Z14.897 X100.183 Y108.817 E0.08849
G1 Z14.961 X94.678 Y115.611 E0.09470
G1 Z15.026 X88.111 Y121.481 E0.09539
G1 Z15.101 X79.485 Y126.821 E0.10987
G1 Z15.127 X76.125 Y127.781 E0.03784
G1 Z15.172 X69.930 Y128.187 E0.06723
G1 Z15.250 X59.470 Y127.283 E0.11370
G1 Z15.321 X50.064 Y124.784 E0.10540
G1 Z15.399 X40.528 Y120.283 E0.11420
G1 Z15.476 X32.126 Y114.113 E0.11289
G1 Z15.509 X28.918 Y110.948 E0.04880
G1 Z15.576 X25.304 Y102.656 E0.09797
G1 Z15.636 X23.317 Y94.628 E0.08956
G1 Z15.708 X22.517 Y84.983 E0.10481
G1 Z15.770 X23.132 Y76.575 E0.09131
G1 Z15.834 X25.100 Y68.034 E0.09492
G1 Z15.906 X28.938 Y59.020 E0.10610
G1 Z15.930 X31.147 Y56.782 E0.03405
G1 Z16.000 X38.723 Y50.939 E0.10361
G1 Z16.000 F1200.000
G1 F720.000
G1 Z16.013 X40.393 Y50.190 E0.01940
G1 Z16.093 X50.185 Y45.600 E0.11711
G1 Z16.171 X60.378 Y42.950 E0.11406
G1 Z16.249 X70.879 Y42.136 E0.11406
G1 Z16.304 X78.264 Y42.730 E0.08024
G1 Z16.325 X80.750 Y44.012 E0.03029
G1 Z16.389 X87.950 Y48.780 E0.09352
G1 Z16.466 X95.509 Y55.864 E0.11219
G1 Z16.518 X99.821 Y61.365 E0.07569
G1 Z16.582 X104.203 Y68.898 E0.09438
G1 Z16.648 X107.457 Y77.159 E0.09615
G1 Z16.708 X109.280 Y85.002 E0.08720
G1 Z16.766 X107.493 Y92.730 E0.08590
G1 Z16.834 X104.151 Y101.213 E0.09874
G1 Z16.897 X99.844 Y108.600 E0.09260
G1 Z16.962 X94.396 Y115.349 E0.09392
G1 Z17.040 X86.482 Y122.312 E0.11416
G1 Z17.111 X78.181 Y127.264 E0.10468
G1 Z17.182 X68.679 Y127.872 E0.10311
G1 Z17.262 X57.961 Y126.594 E0.11690
G1 Z17.342 X47.648 Y123.423 E0.11684
G1 Z17.419 X38.432 Y118.585 E0.11272
G1 Z17.502 X29.737 Y111.544 E0.12117
G1 Z17.535 X27.466 Y107.648 E0.04884
G1 Z17.597 X24.775 Y99.783 E0.09002
G1 Z17.658 X23.280 Y91.621 E0.08986
G1 Z17.720 X22.941 Y83.345 E0.08969
G1 Z17.783 X23.781 Y74.866 E0.09227
G1 Z17.848 X25.945 Y66.356 E0.09510
G1 Z17.906 X29.037 Y59.129 E0.08512
G1 Z17.936 X31.944 Y56.319 E0.04379
G1 Z18.000 X38.943 Y51.242 E0.09364
G1 Z18.000 F1200.000
G1 F720.000
G1 Z18.020 X41.314 Y50.061 E0.02842
G1 Z18.103 X51.500 Y45.571 E0.12054
G1 Z18.181 X61.755 Y43.107 E0.11422
G1 Z18.260 X72.284 Y42.399 E0.11429
G1 Z18.304 X78.226 Y42.866 E0.06455
G1 Z18.322 X80.283 Y43.960 E0.02523
G1 Z18.399 X88.809 Y49.886 E0.11244
G1 Z18.465 X95.187 Y56.089 E0.09636
G1 Z18.518 X99.487 Y61.589 E0.07560
G1 Z18.582 X103.880 Y69.075 E0.09401
G1 Z18.648 X107.204 Y77.277 E0.09584
G1 Z18.708 X109.133 Y85.010 E0.08631
G1 Z18.763 X107.375 Y92.230 E0.08047
G1 Z18.831 X104.011 Y100.663 E0.09833
G1 Z18.897 X99.505 Y108.381 E0.09678
G1 Z18.962 X94.097 Y115.107 E0.09346
G1 Z19.040 X86.279 Y122.100 E0.11360
G1 Z19.111 X78.154 Y127.118 E0.10342
G1 Z19.179 X69.115 Y127.585 E0.09802
G1 Z19.262 X58.043 Y126.213 E0.12082
G1 Z19.342 X47.764 Y123.044 E0.11649
G1 Z19.419 X38.556 Y118.285 E0.11224
G1 Z19.502 X29.904 Y111.471 E0.11927
G1 Z19.544 X27.200 Y106.386 E0.06237
G1 Z19.605 X24.835 Y98.592 E0.08821
G1 Z19.720 X23.355 Y83.273 E0.16667
G1 Z19.796 X24.465 Y73.137 E0.11043
G1 Z19.861 X26.765 Y64.786 E0.09380
G1 Z19.906 X29.136 Y59.239 E0.06533
G1 Z19.942 X32.760 Y55.910 E0.05329
G1 Z20.000 X39.148 Y51.542 E0.08380
G1 Z20.000 F1200.000
G1 F720.000
G1 Z20.036 X43.391 Y49.368 E0.05147
G1 Z20.112 X52.794 Y45.576 E0.10979
G1 Z20.191 X63.113 Y43.276 E0.11449
G1 Z20.271 X73.697 Y42.694 E0.11479
G1 Z20.304 X78.173 Y43.006 E0.04859
G1 Z20.331 X81.304 Y44.784 E0.03900
G1 Z20.409 X89.599 Y51.000 E0.11225
G1 Z20.475 X95.681 Y57.266 E0.09456
G1 Z20.531 X100.126 Y63.266 E0.08087
G1 Z20.595 X104.272 Y70.743 E0.09259
G1 Z20.708 X108.953 Y85.088 E0.16341
G1 Z20.773 X106.683 Y93.432 E0.09365
G1 Z20.841 X103.068 Y101.711 E0.09783
G1 Z20.910 X98.164 Y109.571 E0.10033
G1 Z20.975 X92.598 Y116.130 E0.09316
G1 Z21.040 X86.096 Y121.876 E0.09397
G1 Z21.111 X78.145 Y126.959 E0.10219
G1 Z21.188 X67.889 Y127.231 E0.11111
G1 Z21.270 X56.966 Y125.567 E0.11966
G1 Z21.352 X46.678 Y122.164 E0.11735
G1 Z21.429 X37.609 Y117.303 E0.11143
G1 Z21.509 X29.246 Y110.613 E0.11598
G1 Z21.566 X26.494 Y103.620 E0.08139
G1 Z21.627 X24.612 Y95.712 E0.08802
G1 Z21.745 X23.930 Y79.915 E0.17123
G1 Z21.823 X25.562 Y69.755 E0.11143
G1 Z21.900 X28.916 Y59.987 E0.11185
G1 Z21.906 X29.255 Y59.321 E0.00809
G1 Z21.958 X34.624 Y54.768 E0.07623
G1 Z22.000 X39.344 Y51.861 E0.06004
G1 Z22.000 F1200.000
G1 F720.000
G1 Z22.013 X40.945 Y51.063 E0.01919
G1 Z22.092 X50.494 Y46.768 E0.11338
G1 Z22.181 X61.914 Y43.830 E0.12770
G1 Z22.268 X73.397 Y42.930 E0.12474
G1 Z22.304 X78.163 Y43.159 E0.05167
